;FLAVOR:Marlin
;TIME:6129
;Filament used: 6.69911m
;Layer height: 0.3
;MINX:87.616
;MINY:42.213
;MINZ:0.2
;MAXX:129.607
;MAXY:177.764
;MAXZ:21.5
;Generated with Cura_SteamEngine 4.12.1
M82 ;absolute extrusion mode
; Ender 3 Custom Start G-code
; Parallel Bed and Extruder heatup
M140 S70.0     ; set bed temperature and continue
M104 S210.0   ; set hot end temperature and continue
M105 ; Report temp
M190 S70.0     ; wait for bed temperature to reach
M109 S210.0   ; wait for hot end temperature to reach
; Default initial steps
G92 E0 ; Reset Extruder
G28 ; Home all axes
M117 Auto bed-level GO! ; Message on LCD
G29 ; Auto bed-level (BL-touch)
G1 Z2.0 F3000 ; Move Z Axis up little to prevent scratching of Heat Bed
G1 X0.1 Y20 Z0.3 F5000.0 ; Move to start position
G1 X0.1 Y200.0 Z0.3 F1500.0 E15 ; Draw the first line
G1 X0.4 Y200.0 Z0.3 F5000.0 ; Move to side a little
G1 X0.4 Y20 Z0.3 F1500.0 E30 ; Draw the second line
G92 E0 ; Reset Extruder
G1 Z2.0 F3000 ; Move Z Axis up little to prevent scratching of Heat Bed
G1 X5 Y20 Z0.3 F5000.0 ; Move over to prevent blob squish
G92 E0
G92 E0
G1 F1500 E-6.5
;LAYER_COUNT:72
;LAYER:0
M107
G0 F4800 X94.987 Y51.388 Z0.2
;TYPE:SKIRT
G1 F1500 E0
G1 F600 X95.624 Y50.269 E0.04283
G1 X96.235 Y49.353 E0.07945
G1 X97.027 Y48.33 E0.12248
G1 X97.213 Y48.1 E0.13232
G1 X97.775 Y47.493 E0.15983
G1 X98.698 Y46.598 E0.20259
G1 X99.522 Y45.903 E0.23844
G1 X100.569 Y45.137 E0.28159
G1 X101.497 Y44.554 E0.31804
G1 X102.632 Y43.947 E0.36085
G1 X103.636 Y43.498 E0.39743
G1 X104.869 Y43.048 E0.44109
G1 X105.932 Y42.743 E0.47787
G1 X107.202 Y42.475 E0.52104
G1 X107.962 Y42.354 E0.54664
G1 X108.709 Y42.272 E0.57163
G1 X109.019 Y42.244 E0.58199
G1 X109.465 Y42.213 E0.59686
G1 X110.593 Y42.216 E0.63437
G1 X111.03 Y42.249 E0.64895
G1 X111.27 Y42.271 E0.65696
G1 X112.011 Y42.35 E0.68175
G1 X112.801 Y42.475 E0.70835
G1 X114.075 Y42.745 E0.75167
G1 X115.119 Y43.044 E0.78779
G1 X116.337 Y43.486 E0.83088
G1 X117.35 Y43.938 E0.86778
G1 X118.496 Y44.55 E0.91099
G1 X119.423 Y45.131 E0.94738
G1 X120.473 Y45.898 E0.99062
G1 X121.309 Y46.604 E1.02702
G1 X122.241 Y47.51 E1.07025
G1 X122.974 Y48.331 E1.10686
G1 X123.766 Y49.355 E1.14991
G1 X124.373 Y50.266 E1.18632
G1 X125.01 Y51.384 E1.22912
G1 X125.482 Y52.365 E1.26533
G1 X125.962 Y53.573 E1.30856
G1 X126.064 Y53.844 E1.31819
G1 X126.3 Y54.637 E1.34571
G1 X126.6 Y55.88 E1.38824
G1 X126.781 Y56.948 E1.42427
G1 X126.908 Y58.241 E1.46748
G1 X126.942 Y58.799 E1.48607
G1 X129.607 Y160.525 E4.87066
G1 X129.588 Y161.314 E4.89691
G1 X129.489 Y162.098 E4.92319
G1 X129.311 Y162.867 E4.94944
G1 X129.057 Y163.615 E4.97572
G1 X129.02 Y163.696 E4.97868
G1 X129.048 Y163.868 E4.98447
G1 X129.097 Y164.653 E5.01063
G1 X129.179 Y165.153 E5.02749
G1 X129.228 Y165.941 E5.05375
G1 X129.196 Y166.73 E5.08001
G1 X129.085 Y167.512 E5.10628
G1 X128.845 Y168.438 E5.1381
G1 X128.654 Y169.025 E5.15863
G1 X128.372 Y169.763 E5.1849
G1 X128.017 Y170.468 E5.21116
G1 X127.592 Y171.134 E5.23743
G1 X127.103 Y171.754 E5.2637
G1 X126.553 Y172.32 E5.28995
G1 X125.828 Y172.918 E5.3212
G1 X125.328 Y173.282 E5.34178
G1 X124.667 Y173.714 E5.36804
G1 X123.965 Y174.077 E5.39432
G1 X123.231 Y174.367 E5.42057
G1 X122.471 Y174.581 E5.44683
G1 X121.693 Y174.717 E5.4731
G1 X120.737 Y174.776 E5.50496
G1 X120.37 Y174.776 E5.51717
G1 X120.082 Y174.965 E5.52862
G1 X119.216 Y175.458 E5.56177
G1 X117.847 Y176.125 E5.61242
G1 X116.898 Y176.513 E5.64652
G1 X115.461 Y176.992 E5.6969
G1 X114.529 Y177.24 E5.72898
G1 X113.868 Y177.372 E5.75139
G1 X113.013 Y177.538 E5.78036
G1 X112.033 Y177.665 E5.81323
G1 X110.513 Y177.764 E5.86389
G1 X109.504 Y177.764 E5.89745
G1 X107.97 Y177.665 E5.94858
G1 X106.952 Y177.531 E5.98273
G1 X105.447 Y177.232 E6.03376
G1 X104.457 Y176.967 E6.06785
G1 X102.995 Y176.47 E6.11921
G1 X102.068 Y176.087 E6.15257
G1 X100.703 Y175.417 E6.20315
G1 X99.801 Y174.896 E6.23779
G1 X98.515 Y174.035 E6.28926
G1 X97.705 Y173.413 E6.32323
G1 X96.55 Y172.398 E6.37437
G1 X95.834 Y171.681 E6.40808
G1 X94.824 Y170.529 E6.45903
G1 X94.202 Y169.718 E6.49303
G1 X93.348 Y168.439 E6.54418
G1 X92.833 Y167.545 E6.57849
G1 X92.157 Y166.168 E6.62951
G1 X91.772 Y165.234 E6.66311
G1 X91.282 Y163.788 E6.71389
G1 X91.019 Y162.808 E6.74764
G1 X90.885 Y162.133 E6.77053
G1 X90.402 Y161.742 E6.7912
G1 X89.841 Y161.186 E6.81747
G1 X89.34 Y160.577 E6.8437
G1 X88.902 Y159.919 E6.86999
G1 X88.534 Y159.221 E6.89623
G1 X88.19 Y158.346 E6.9275
G1 X87.999 Y157.759 E6.94804
G1 X87.793 Y156.997 E6.97429
G1 X87.665 Y156.218 E7.00055
G1 X87.616 Y155.43 E7.02681
G1 X87.648 Y154.641 E7.05307
G1 X87.759 Y153.859 E7.07934
G1 X87.999 Y152.933 E7.11116
G1 X88.19 Y152.346 E7.13169
G1 X88.472 Y151.608 E7.15796
G1 X88.827 Y150.903 E7.18422
G1 X89.252 Y150.237 E7.2105
G1 X89.741 Y149.617 E7.23676
G1 X90.291 Y149.051 E7.26301
G1 X90.703 Y148.711 E7.28077
G1 X91.555 Y116.199 E8.3625
G1 X91.023 Y115.672 E8.38741
G1 X90.522 Y115.063 E8.41363
G1 X90.084 Y114.405 E8.43993
G1 X89.716 Y113.707 E8.46617
G1 X89.372 Y112.832 E8.49744
G1 X89.181 Y112.245 E8.51797
G1 X88.975 Y111.483 E8.54423
G1 X88.847 Y110.704 E8.57048
G1 X88.798 Y109.916 E8.59674
G1 X88.83 Y109.127 E8.62301
G1 X88.941 Y108.345 E8.64928
G1 X89.181 Y107.419 E8.68109
G1 X89.372 Y106.832 E8.70162
G1 X89.654 Y106.094 E8.7279
G1 X90.009 Y105.389 E8.75415
G1 X90.434 Y104.723 E8.78043
G1 X90.923 Y104.103 E8.8067
G1 X91.473 Y103.537 E8.83294
G1 X91.895 Y103.189 E8.85114
G1 X93.058 Y58.791 E10.32833
G1 X93.092 Y58.233 E10.34692
G1 X93.218 Y56.95 E10.3898
G1 X93.401 Y55.872 E10.42617
G1 X93.704 Y54.624 E10.46888
G1 X94.032 Y53.592 E10.5049
G1 X94.514 Y52.375 E10.54843
G1 X94.987 Y51.388 E10.58484
G0 F4800 X95.335 Y51.586
G1 F600 X95.972 Y50.467 E10.62766
G1 X96.552 Y49.598 E10.66241
G1 X97.344 Y48.575 E10.70544
G1 X97.52 Y48.356 E10.71479
G1 X98.054 Y47.78 E10.74091
G1 X98.977 Y46.885 E10.78367
G1 X99.759 Y46.226 E10.81769
G1 X100.806 Y45.46 E10.86083
G1 X101.685 Y44.907 E10.89537
G1 X102.82 Y44.3 E10.93818
G1 X103.773 Y43.873 E10.97292
G1 X105.006 Y43.423 E11.01657
G1 X106.015 Y43.134 E11.05148
G1 X107.285 Y42.866 E11.09465
G1 X108.006 Y42.751 E11.11894
G1 X108.753 Y42.669 E11.14393
G1 X109.047 Y42.643 E11.15375
G1 X109.493 Y42.612 E11.16862
G1 X110.563 Y42.615 E11.20421
G1 X111 Y42.648 E11.21878
G1 X111.227 Y42.669 E11.22636
G1 X111.968 Y42.748 E11.25115
G1 X112.718 Y42.867 E11.27641
G1 X113.992 Y43.137 E11.31972
G1 X114.982 Y43.42 E11.35397
G1 X116.2 Y43.862 E11.39706
G1 X117.162 Y44.29 E11.43208
G1 X118.308 Y44.902 E11.47529
G1 X119.187 Y45.454 E11.50982
G1 X120.237 Y46.221 E11.55306
G1 X121.03 Y46.891 E11.58759
G1 X121.962 Y47.797 E11.63082
G1 X122.657 Y48.576 E11.66555
G1 X123.449 Y49.6 E11.7086
G1 X124.026 Y50.464 E11.74316
G1 X124.663 Y51.582 E11.78596
G1 X125.11 Y52.512 E11.82028
G1 X125.59 Y53.72 E11.86351
G1 X125.687 Y53.978 E11.87268
G1 X125.911 Y54.731 E11.89881
G1 X126.211 Y55.974 E11.94134
G1 X126.383 Y56.987 E11.97551
G1 X126.51 Y58.28 E12.01872
G1 X126.542 Y58.809 E12.03635
G1 X129.207 Y160.535 E15.42093
G1 X129.188 Y161.304 E15.44652
G1 X129.088 Y162.067 E15.47211
G1 X128.91 Y162.815 E15.49768
G1 X128.655 Y163.541 E15.52328
G1 X128.606 Y163.645 E15.5271
G1 X128.655 Y163.953 E15.53747
G1 X128.694 Y164.657 E15.56093
G1 X128.786 Y165.238 E15.58049
G1 X128.828 Y166.006 E15.60607
G1 X128.79 Y166.774 E15.63165
G1 X128.673 Y167.534 E15.65722
G1 X128.465 Y168.315 E15.6841
G1 X128.274 Y168.902 E15.70464
G1 X127.998 Y169.62 E15.73022
G1 X127.649 Y170.305 E15.75579
G1 X127.231 Y170.951 E15.78138
G1 X126.749 Y171.55 E15.80695
G1 X126.206 Y172.095 E15.83254
G1 X125.592 Y172.595 E15.85888
G1 X125.092 Y172.959 E15.87945
G1 X124.448 Y173.378 E15.905
G1 X123.763 Y173.729 E15.9306
G1 X123.046 Y174.007 E15.95618
G1 X122.304 Y174.208 E15.98175
G1 X121.544 Y174.332 E16.00736
G1 X120.737 Y174.376 E16.03424
G1 X120.251 Y174.376 E16.05041
G1 X119.863 Y174.631 E16.06585
G1 X119.041 Y175.098 E16.09729
G1 X117.672 Y175.765 E16.14794
G1 X116.771 Y176.133 E16.18031
G1 X115.334 Y176.612 E16.23069
G1 X114.45 Y176.847 E16.26112
G1 X113.791 Y176.979 E16.28347
G1 X112.936 Y177.145 E16.31244
G1 X112.007 Y177.265 E16.34359
G1 X110.487 Y177.364 E16.39426
G1 X109.529 Y177.365 E16.42612
G1 X107.995 Y177.266 E16.47725
G1 X107.03 Y177.139 E16.50962
G1 X105.525 Y176.84 E16.56065
G1 X104.585 Y176.588 E16.59302
G1 X103.123 Y176.091 E16.64438
G1 X102.244 Y175.728 E16.67601
G1 X100.879 Y175.058 E16.72659
G1 X100.023 Y174.564 E16.75946
G1 X98.737 Y173.703 E16.81093
G1 X97.969 Y173.113 E16.84314
G1 X96.814 Y172.098 E16.89428
G1 X96.135 Y171.417 E16.92627
G1 X95.125 Y170.265 E16.97723
G1 X94.535 Y169.496 E17.00946
G1 X93.681 Y168.217 E17.06061
G1 X93.192 Y167.369 E17.09317
G1 X92.516 Y165.992 E17.14419
G1 X92.15 Y165.106 E17.17608
G1 X91.66 Y163.66 E17.22686
G1 X91.411 Y162.73 E17.25888
G1 X91.248 Y161.913 E17.28659
G1 X90.654 Y161.431 E17.31203
G1 X90.11 Y160.887 E17.33762
G1 X89.626 Y160.29 E17.36318
G1 X89.206 Y159.646 E17.38875
G1 X88.855 Y158.961 E17.41435
G1 X88.57 Y158.223 E17.44067
G1 X88.379 Y157.636 E17.4612
G1 X88.179 Y156.893 E17.48679
G1 X88.058 Y156.133 E17.51238
G1 X88.016 Y155.365 E17.53797
G1 X88.054 Y154.597 E17.56354
G1 X88.171 Y153.837 E17.58912
G1 X88.379 Y153.056 E17.616
G1 X88.57 Y152.469 E17.63653
G1 X88.846 Y151.751 E17.66211
G1 X89.195 Y151.066 E17.68768
G1 X89.613 Y150.42 E17.71328
G1 X90.095 Y149.821 E17.73885
G1 X90.638 Y149.276 E17.76444
G1 X91.099 Y148.901 E17.7842
G1 X91.96 Y116.017 E18.8783
G1 X91.836 Y115.917 E18.8836
G1 X91.292 Y115.373 E18.90919
G1 X90.808 Y114.776 E18.93475
G1 X90.388 Y114.132 E18.96032
G1 X90.037 Y113.447 E18.98592
G1 X89.752 Y112.709 E19.01224
G1 X89.561 Y112.122 E19.03277
G1 X89.361 Y111.379 E19.05836
G1 X89.24 Y110.619 E19.08395
G1 X89.198 Y109.851 E19.10954
G1 X89.236 Y109.083 E19.13511
G1 X89.353 Y108.323 E19.16069
G1 X89.561 Y107.542 E19.18757
G1 X89.752 Y106.955 E19.2081
G1 X90.028 Y106.237 E19.23368
G1 X90.377 Y105.552 E19.25925
G1 X90.795 Y104.906 E19.28485
G1 X91.277 Y104.307 E19.31042
G1 X91.82 Y103.762 E19.33601
G1 X92.291 Y103.379 E19.3562
G1 X93.458 Y58.801 E20.83938
G1 X93.49 Y58.272 E20.857
G1 X93.616 Y56.989 E20.89988
G1 X93.79 Y55.966 E20.93439
G1 X94.093 Y54.718 E20.97711
G1 X94.404 Y53.739 E21.01127
G1 X94.886 Y52.522 E21.05481
G1 X95.335 Y51.586 E21.08934
G0 F4800 X95.683 Y51.784
G1 F600 X96.32 Y50.665 E21.13216
G1 X96.868 Y49.843 E21.16502
G1 X97.66 Y48.82 E21.20805
G1 X97.827 Y48.612 E21.21692
G1 X98.332 Y48.068 E21.24161
G1 X99.255 Y47.173 E21.28437
G1 X99.995 Y46.549 E21.31657
G1 X101.042 Y45.783 E21.35972
G1 X101.874 Y45.259 E21.39242
G1 X103.009 Y44.652 E21.43523
G1 X103.91 Y44.249 E21.46806
G1 X105.143 Y43.799 E21.51171
G1 X106.098 Y43.526 E21.54475
G1 X107.368 Y43.258 E21.58792
G1 X108.049 Y43.149 E21.61086
G1 X108.796 Y43.067 E21.63585
G1 X109.075 Y43.042 E21.64517
G1 X109.521 Y43.011 E21.66004
G1 X110.533 Y43.014 E21.6937
G1 X110.97 Y43.047 E21.70828
G1 X111.185 Y43.066 E21.71545
G1 X111.926 Y43.145 E21.74024
G1 X112.635 Y43.258 E21.76412
G1 X113.909 Y43.528 E21.80743
G1 X114.846 Y43.796 E21.83985
G1 X116.064 Y44.238 E21.88294
G1 X116.973 Y44.643 E21.91604
G1 X118.119 Y45.255 E21.95925
G1 X118.951 Y45.777 E21.99192
G1 X120.001 Y46.544 E22.03517
G1 X120.751 Y47.178 E22.06783
G1 X121.683 Y48.084 E22.11106
G1 X122.341 Y48.82 E22.1439
G1 X123.133 Y49.844 E22.18696
G1 X123.678 Y50.662 E22.21965
G1 X124.315 Y51.78 E22.26245
G1 X124.738 Y52.66 E22.29492
G1 X125.218 Y53.868 E22.33816
G1 X125.31 Y54.113 E22.34686
G1 X125.523 Y54.825 E22.37158
G1 X125.823 Y56.068 E22.41411
G1 X125.984 Y57.026 E22.44642
G1 X126.111 Y58.319 E22.48963
G1 X126.143 Y58.82 E22.50633
G1 X128.808 Y160.546 E25.89091
G1 X128.787 Y161.293 E25.91576
G1 X128.687 Y162.035 E25.94067
G1 X128.509 Y162.761 E25.96553
G1 X128.253 Y163.464 E25.99041
G1 X128.192 Y163.59 E25.99507
G1 X128.261 Y164.036 E26.01008
G1 X128.291 Y164.669 E26.03116
G1 X128.393 Y165.321 E26.0531
G1 X128.428 Y166.068 E26.07798
G1 X128.383 Y166.815 E26.10287
G1 X128.259 Y167.553 E26.12776
G1 X128.084 Y168.191 E26.14976
G1 X127.893 Y168.778 E26.17029
G1 X127.624 Y169.476 E26.19517
G1 X127.282 Y170.141 E26.22004
G1 X126.871 Y170.766 E26.24492
G1 X126.396 Y171.344 E26.26981
G1 X125.861 Y171.867 E26.29469
G1 X125.357 Y172.271 E26.31617
G1 X124.857 Y172.635 E26.33675
G1 X124.229 Y173.043 E26.36165
G1 X123.562 Y173.381 E26.38652
G1 X122.863 Y173.645 E26.41138
G1 X122.139 Y173.834 E26.43626
G1 X121.399 Y173.945 E26.46115
G1 X120.737 Y173.976 E26.48319
G1 X120.132 Y173.976 E26.50332
G1 X119.643 Y174.297 E26.52277
G1 X118.866 Y174.739 E26.5525
G1 X117.497 Y175.406 E26.60315
G1 X116.645 Y175.754 E26.63376
G1 X115.208 Y176.233 E26.68414
G1 X114.371 Y176.455 E26.71294
G1 X113.715 Y176.587 E26.7352
G1 X112.86 Y176.753 E26.76417
G1 X111.981 Y176.866 E26.79365
G1 X110.461 Y176.965 E26.84431
G1 X109.555 Y176.965 E26.87444
G1 X108.021 Y176.866 E26.92557
G1 X107.108 Y176.747 E26.95619
G1 X105.603 Y176.448 E27.00723
G1 X104.714 Y176.21 E27.03784
G1 X103.252 Y175.713 E27.0892
G1 X102.421 Y175.369 E27.11911
G1 X101.056 Y174.699 E27.16968
G1 X100.246 Y174.232 E27.20078
G1 X98.96 Y173.371 E27.25226
G1 X98.233 Y172.812 E27.28276
G1 X97.078 Y171.797 E27.3339
G1 X96.435 Y171.154 E27.36414
G1 X95.425 Y170.002 E27.4151
G1 X94.867 Y169.274 E27.44561
G1 X94.013 Y167.995 E27.49676
G1 X93.551 Y167.193 E27.52754
G1 X92.875 Y165.816 E27.57856
G1 X92.529 Y164.978 E27.60872
G1 X92.039 Y163.532 E27.6595
G1 X91.804 Y162.652 E27.68979
G1 X91.611 Y161.682 E27.72269
G1 X91.487 Y161.592 E27.72778
G1 X90.907 Y161.12 E27.75265
G1 X90.38 Y160.589 E27.77754
G1 X89.913 Y160.005 E27.80241
G1 X89.511 Y159.374 E27.82729
G1 X89.179 Y158.704 E27.85216
G1 X88.951 Y158.099 E27.87367
G1 X88.76 Y157.512 E27.8942
G1 X88.566 Y156.789 E27.91909
G1 X88.451 Y156.05 E27.94397
G1 X88.416 Y155.303 E27.96884
G1 X88.461 Y154.556 E27.99373
G1 X88.585 Y153.818 E28.01862
G1 X88.76 Y153.18 E28.04063
G1 X88.951 Y152.593 E28.06116
G1 X89.22 Y151.895 E28.08604
G1 X89.562 Y151.23 E28.11091
G1 X89.973 Y150.605 E28.13579
G1 X90.448 Y150.027 E28.16067
G1 X90.983 Y149.504 E28.18556
G1 X91.493 Y149.096 E28.20728
G1 X92.364 Y115.83 E29.31409
G1 X92.089 Y115.606 E29.32589
G1 X91.562 Y115.075 E29.35077
G1 X91.095 Y114.491 E29.37564
G1 X90.693 Y113.86 E29.40052
G1 X90.361 Y113.19 E29.42539
G1 X90.133 Y112.585 E29.4469
G1 X89.942 Y111.998 E29.46743
G1 X89.748 Y111.275 E29.49233
G1 X89.633 Y110.536 E29.5172
G1 X89.598 Y109.789 E29.54207
G1 X89.643 Y109.042 E29.56697
G1 X89.767 Y108.304 E29.59186
G1 X89.942 Y107.666 E29.61386
G1 X90.133 Y107.079 E29.63439
G1 X90.402 Y106.381 E29.65927
G1 X90.744 Y105.716 E29.68414
G1 X91.155 Y105.091 E29.70902
G1 X91.63 Y104.513 E29.7339
G1 X92.165 Y103.99 E29.75879
G1 X92.685 Y103.574 E29.78094
G1 X93.857 Y58.812 E31.27024
G1 X93.889 Y58.311 E31.28694
G1 X94.015 Y57.028 E31.32981
G1 X94.179 Y56.06 E31.36247
G1 X94.482 Y54.812 E31.40518
G1 X94.776 Y53.886 E31.4375
G1 X95.258 Y52.669 E31.48103
G1 X95.683 Y51.784 E31.51369
G0 F4800 X96.03 Y51.982
G1 F600 X96.667 Y50.863 E31.55651
G1 X97.184 Y50.088 E31.5875
G1 X97.976 Y49.065 E31.63053
G1 X98.135 Y48.868 E31.63895
G1 X98.611 Y48.355 E31.66222
G1 X99.534 Y47.46 E31.70499
G1 X100.231 Y46.871 E31.73534
G1 X101.278 Y46.105 E31.77849
G1 X102.062 Y45.612 E31.80929
G1 X103.197 Y45.005 E31.8521
G1 X104.047 Y44.625 E31.88307
G1 X105.28 Y44.175 E31.92672
G1 X106.18 Y43.917 E31.95786
G1 X107.45 Y43.649 E32.00103
G1 X108.093 Y43.546 E32.02269
G1 X108.84 Y43.464 E32.04769
G1 X109.102 Y43.441 E32.05643
G1 X109.548 Y43.41 E32.0713
G1 X110.503 Y43.413 E32.10307
G1 X110.94 Y43.446 E32.11764
G1 X111.143 Y43.464 E32.12442
G1 X111.884 Y43.543 E32.14921
G1 X112.552 Y43.649 E32.1717
G1 X113.826 Y43.919 E32.21502
G1 X114.709 Y44.172 E32.24557
G1 X115.927 Y44.614 E32.28866
G1 X116.785 Y44.996 E32.3199
G1 X117.931 Y45.608 E32.36311
G1 X118.715 Y46.1 E32.3939
G1 X119.765 Y46.867 E32.43714
G1 X120.472 Y47.465 E32.46794
G1 X121.404 Y48.371 E32.51117
G1 X122.025 Y49.065 E32.54215
G1 X122.817 Y50.089 E32.58521
G1 X123.331 Y50.86 E32.61603
G1 X123.968 Y51.978 E32.65882
G1 X124.367 Y52.808 E32.68945
G1 X124.847 Y54.016 E32.73269
