;FLAVOR:Marlin
;TIME:4139
;Filament used: 4.8059m
;Layer height: 0.3
;MINX:90.518
;MINY:42.213
;MINZ:0.2
;MAXX:129.582
;MAXY:177.764
;MAXZ:10.4
;Generated with Cura_SteamEngine 4.12.1
M82 ;absolute extrusion mode
; Ender 3 Custom Start G-code
; Parallel Bed and Extruder heatup
M140 S70.0     ; set bed temperature and continue
M104 S210.0   ; set hot end temperature and continue
M105 ; Report temp
M190 S70.0     ; wait for bed temperature to reach
M109 S210.0   ; wait for hot end temperature to reach
; Default initial steps
G92 E0 ; Reset Extruder
G28 ; Home all axes
M117 Auto bed-level GO! ; Message on LCD
G29 ; Auto bed-level (BL-touch)
G1 Z2.0 F3000 ; Move Z Axis up little to prevent scratching of Heat Bed
G1 X0.1 Y20 Z0.3 F5000.0 ; Move to start position
G1 X0.1 Y200.0 Z0.3 F1500.0 E15 ; Draw the first line
G1 X0.4 Y200.0 Z0.3 F5000.0 ; Move to side a little
G1 X0.4 Y20 Z0.3 F1500.0 E30 ; Draw the second line
G92 E0 ; Reset Extruder
G1 Z2.0 F3000 ; Move Z Axis up little to prevent scratching of Heat Bed
G1 X5 Y20 Z0.3 F5000.0 ; Move over to prevent blob squish
G92 E0
G92 E0
G1 F1500 E-6.5
;LAYER_COUNT:35
;LAYER:0
M107
G0 F4800 X95.037 Y51.388 Z0.2
;TYPE:SKIRT
G1 F1500 E0
G1 F600 X95.674 Y50.269 E0.04283
G1 X96.285 Y49.353 E0.07945
G1 X97.077 Y48.33 E0.12248
G1 X97.263 Y48.1 E0.13232
G1 X97.825 Y47.493 E0.15983
G1 X98.748 Y46.598 E0.20259
G1 X99.572 Y45.903 E0.23844
G1 X100.619 Y45.137 E0.28159
G1 X101.547 Y44.554 E0.31804
G1 X102.682 Y43.947 E0.36085
G1 X103.686 Y43.498 E0.39743
G1 X104.919 Y43.048 E0.44109
G1 X105.982 Y42.743 E0.47787
G1 X107.252 Y42.475 E0.52104
G1 X108.012 Y42.354 E0.54664
G1 X108.759 Y42.272 E0.57163
G1 X109.069 Y42.244 E0.58199
G1 X109.515 Y42.213 E0.59686
G1 X110.643 Y42.216 E0.63437
G1 X111.08 Y42.249 E0.64895
G1 X111.32 Y42.271 E0.65696
G1 X112.061 Y42.35 E0.68175
G1 X112.851 Y42.475 E0.70835
G1 X114.125 Y42.745 E0.75167
G1 X115.169 Y43.044 E0.78779
G1 X116.387 Y43.486 E0.83088
G1 X117.4 Y43.938 E0.86778
G1 X118.546 Y44.55 E0.91099
G1 X119.473 Y45.131 E0.94738
G1 X120.523 Y45.898 E0.99062
G1 X121.359 Y46.604 E1.02702
G1 X122.291 Y47.51 E1.07025
G1 X123.024 Y48.331 E1.10686
G1 X123.816 Y49.355 E1.14991
G1 X124.423 Y50.266 E1.18632
G1 X125.06 Y51.384 E1.22912
G1 X125.532 Y52.365 E1.26533
G1 X126.012 Y53.573 E1.30856
G1 X126.114 Y53.844 E1.31819
G1 X126.35 Y54.637 E1.34571
G1 X126.65 Y55.88 E1.38824
G1 X126.831 Y56.948 E1.42427
G1 X126.958 Y58.241 E1.46748
G1 X126.992 Y58.799 E1.48607
G1 X129.579 Y157.571 E4.77237
G1 X129.582 Y157.775 E4.77916
G1 X129.582 Y158.246 E4.79482
G1 X129.565 Y158.765 E4.81209
G1 X129.462 Y160.31 E4.86359
G1 X129.329 Y161.315 E4.89731
G1 X129.031 Y162.811 E4.94805
G1 X128.773 Y163.776 E4.98127
G1 X128.554 Y164.426 E5.00408
G1 X128.259 Y165.285 E5.03429
G1 X127.882 Y166.193 E5.06699
G1 X127.216 Y167.548 E5.11721
G1 X126.703 Y168.438 E5.15138
G1 X125.849 Y169.717 E5.20253
G1 X125.224 Y170.532 E5.23669
G1 X124.203 Y171.695 E5.28816
G1 X123.484 Y172.413 E5.32196
G1 X122.33 Y173.425 E5.37301
G1 X121.521 Y174.046 E5.40693
G1 X120.243 Y174.9 E5.45805
G1 X119.344 Y175.418 E5.49256
G1 X117.966 Y176.094 E5.54361
G1 X117.031 Y176.479 E5.57724
G1 X115.583 Y176.969 E5.62808
G1 X114.609 Y177.23 E5.66162
G1 X113.105 Y177.53 E5.71263
G1 X112.081 Y177.665 E5.74698
G1 X110.546 Y177.764 E5.79814
G1 X109.532 Y177.763 E5.83187
G1 X107.997 Y177.662 E5.88304
G1 X106.986 Y177.529 E5.91695
G1 X105.494 Y177.232 E5.96755
G1 X104.507 Y176.967 E6.00154
G1 X103.045 Y176.47 E6.0529
G1 X102.118 Y176.087 E6.08626
G1 X100.753 Y175.417 E6.13683
G1 X99.851 Y174.896 E6.17148
G1 X98.565 Y174.035 E6.22295
G1 X97.755 Y173.413 E6.25692
G1 X96.6 Y172.398 E6.30806
G1 X95.884 Y171.681 E6.34176
G1 X94.873 Y170.528 E6.39277
G1 X94.25 Y169.716 E6.42681
G1 X93.397 Y168.438 E6.47791
G1 X92.883 Y167.545 E6.51218
G1 X92.207 Y166.168 E6.5632
G1 X91.822 Y165.234 E6.5968
G1 X91.332 Y163.788 E6.64758
G1 X91.069 Y162.808 E6.68133
G1 X90.769 Y161.301 E6.73244
G1 X90.635 Y160.284 E6.76656
G1 X90.535 Y158.747 E6.81778
G1 X90.519 Y158.258 E6.83406
G1 X90.518 Y157.797 E6.84939
G1 X90.521 Y157.576 E6.85674
G1 X93.108 Y58.791 E10.14347
G1 X93.142 Y58.233 E10.16206
G1 X93.268 Y56.95 E10.20494
G1 X93.451 Y55.872 E10.24131
G1 X93.754 Y54.624 E10.28402
G1 X94.082 Y53.592 E10.32004
G1 X94.564 Y52.375 E10.36358
G1 X95.037 Y51.388 E10.39998
G0 F4800 X95.385 Y51.586
G1 F600 X96.022 Y50.467 E10.44281
G1 X96.602 Y49.598 E10.47756
G1 X97.394 Y48.575 E10.52059
G1 X97.57 Y48.356 E10.52993
G1 X98.104 Y47.78 E10.55605
G1 X99.027 Y46.885 E10.59882
G1 X99.809 Y46.226 E10.63283
G1 X100.856 Y45.46 E10.67598
G1 X101.735 Y44.907 E10.71052
G1 X102.87 Y44.3 E10.75333
G1 X103.823 Y43.873 E10.78806
G1 X105.056 Y43.423 E10.83172
G1 X106.065 Y43.134 E10.86663
G1 X107.335 Y42.866 E10.9098
G1 X108.056 Y42.751 E10.93408
G1 X108.803 Y42.669 E10.95907
G1 X109.097 Y42.643 E10.96889
G1 X109.543 Y42.612 E10.98376
G1 X110.613 Y42.615 E11.01935
G1 X111.05 Y42.648 E11.03393
G1 X111.277 Y42.669 E11.04151
G1 X112.018 Y42.748 E11.06629
G1 X112.768 Y42.867 E11.09155
G1 X114.042 Y43.137 E11.13486
G1 X115.032 Y43.42 E11.16911
G1 X116.25 Y43.862 E11.21221
G1 X117.212 Y44.29 E11.24723
G1 X118.358 Y44.902 E11.29044
G1 X119.237 Y45.454 E11.32496
G1 X120.287 Y46.221 E11.36821
G1 X121.08 Y46.891 E11.40274
G1 X122.012 Y47.797 E11.44597
G1 X122.707 Y48.576 E11.48069
G1 X123.499 Y49.6 E11.52375
G1 X124.076 Y50.464 E11.5583
G1 X124.713 Y51.582 E11.6011
G1 X125.16 Y52.512 E11.63542
G1 X125.64 Y53.72 E11.67865
G1 X125.737 Y53.978 E11.68782
G1 X125.961 Y54.731 E11.71395
G1 X126.261 Y55.974 E11.75648
G1 X126.433 Y56.987 E11.79066
G1 X126.56 Y58.28 E11.83387
G1 X126.592 Y58.809 E11.85149
G1 X129.179 Y157.581 E15.13779
G1 X129.182 Y157.775 E15.14424
G1 X129.182 Y158.246 E15.15991
G1 X129.166 Y158.738 E15.17628
G1 X129.063 Y160.283 E15.22778
G1 X128.936 Y161.237 E15.25979
G1 X128.638 Y162.733 E15.31053
G1 X128.394 Y163.648 E15.34202
G1 X128.176 Y164.297 E15.3648
G1 X127.881 Y165.156 E15.395
G1 X127.523 Y166.016 E15.42599
G1 X126.857 Y167.371 E15.4762
G1 X126.37 Y168.216 E15.50864
G1 X125.516 Y169.495 E15.55979
G1 X124.923 Y170.268 E15.5922
G1 X123.902 Y171.431 E15.64367
G1 X123.22 Y172.113 E15.67575
G1 X122.066 Y173.125 E15.7268
G1 X121.298 Y173.714 E15.75899
G1 X120.02 Y174.568 E15.81011
G1 X119.168 Y175.059 E15.84282
G1 X117.79 Y175.735 E15.89387
G1 X116.903 Y176.101 E15.92579
G1 X115.455 Y176.591 E15.97663
G1 X114.531 Y176.838 E16.00844
G1 X113.027 Y177.138 E16.05945
G1 X112.055 Y177.266 E16.09206
G1 X110.52 Y177.365 E16.14322
G1 X109.558 Y177.364 E16.17521
G1 X108.023 Y177.263 E16.22638
G1 X107.064 Y177.137 E16.25855
G1 X105.572 Y176.84 E16.30915
G1 X104.635 Y176.588 E16.34142
G1 X103.173 Y176.091 E16.39278
G1 X102.294 Y175.728 E16.42441
G1 X100.929 Y175.058 E16.47498
G1 X100.073 Y174.564 E16.50785
G1 X98.787 Y173.703 E16.55933
G1 X98.019 Y173.113 E16.59154
G1 X96.864 Y172.098 E16.64268
G1 X96.185 Y171.418 E16.67464
G1 X95.174 Y170.265 E16.72565
G1 X94.583 Y169.494 E16.75796
G1 X93.73 Y168.216 E16.80906
G1 X93.242 Y167.369 E16.84157
G1 X92.566 Y165.992 E16.89259
G1 X92.2 Y165.106 E16.92448
G1 X91.71 Y163.66 E16.97526
G1 X91.461 Y162.73 E17.00728
G1 X91.161 Y161.223 E17.05839
G1 X91.035 Y160.258 E17.09076
G1 X90.935 Y158.721 E17.14198
G1 X90.919 Y158.257 E17.15743
G1 X90.918 Y157.796 E17.17276
G1 X90.921 Y157.586 E17.17974
G1 X93.508 Y58.801 E20.46647
G1 X93.54 Y58.272 E20.4841
G1 X93.666 Y56.989 E20.52698
G1 X93.84 Y55.966 E20.56149
G1 X94.143 Y54.718 E20.60421
G1 X94.454 Y53.739 E20.63837
G1 X94.936 Y52.522 E20.68191
G1 X95.385 Y51.586 E20.71644
G0 F4800 X95.733 Y51.784
G1 F600 X96.37 Y50.665 E20.75926
G1 X96.918 Y49.843 E20.79212
G1 X97.71 Y48.82 E20.83515
G1 X97.877 Y48.612 E20.84402
G1 X98.382 Y48.068 E20.86871
G1 X99.305 Y47.173 E20.91147
G1 X100.045 Y46.549 E20.94367
G1 X101.092 Y45.783 E20.98682
G1 X101.924 Y45.259 E21.01952
G1 X103.059 Y44.652 E21.06233
G1 X103.96 Y44.249 E21.09516
G1 X105.193 Y43.799 E21.13881
G1 X106.148 Y43.526 E21.17185
G1 X107.418 Y43.258 E21.21502
G1 X108.099 Y43.149 E21.23796
G1 X108.846 Y43.067 E21.26295
G1 X109.125 Y43.042 E21.27227
G1 X109.571 Y43.011 E21.28714
G1 X110.583 Y43.014 E21.3208
G1 X111.02 Y43.047 E21.33537
G1 X111.235 Y43.066 E21.34255
G1 X111.976 Y43.145 E21.36734
G1 X112.685 Y43.258 E21.39122
G1 X113.959 Y43.528 E21.43453
G1 X114.896 Y43.796 E21.46695
G1 X116.114 Y44.238 E21.51004
G1 X117.023 Y44.643 E21.54314
G1 X118.169 Y45.255 E21.58635
G1 X119.001 Y45.777 E21.61902
G1 X120.051 Y46.544 E21.66227
G1 X120.801 Y47.178 E21.69493
G1 X121.733 Y48.084 E21.73816
G1 X122.391 Y48.82 E21.771
G1 X123.183 Y49.844 E21.81406
G1 X123.728 Y50.662 E21.84675
G1 X124.365 Y51.78 E21.88954
G1 X124.788 Y52.66 E21.92202
G1 X125.268 Y53.868 E21.96525
G1 X125.36 Y54.113 E21.97396
G1 X125.573 Y54.825 E21.99868
G1 X125.873 Y56.068 E22.04121
G1 X126.034 Y57.026 E22.07352
G1 X126.161 Y58.319 E22.11673
G1 X126.193 Y58.82 E22.13342
G1 X128.78 Y157.592 E25.41972
G1 X128.782 Y157.775 E25.42581
G1 X128.782 Y158.246 E25.44147
G1 X128.766 Y158.712 E25.45698
G1 X128.663 Y160.257 E25.50848
G1 X128.544 Y161.159 E25.53874
G1 X128.246 Y162.655 E25.58948
G1 X128.015 Y163.52 E25.61926
G1 X127.797 Y164.167 E25.64197
G1 X127.502 Y165.026 E25.67217
G1 X127.164 Y165.84 E25.70149
G1 X126.498 Y167.195 E25.75171
G1 X126.038 Y167.994 E25.78237
G1 X125.184 Y169.273 E25.83352
G1 X124.622 Y170.004 E25.86419
G1 X123.601 Y171.167 E25.91566
G1 X122.956 Y171.812 E25.946
G1 X121.802 Y172.824 E25.99705
G1 X121.076 Y173.381 E26.02749
G1 X119.798 Y174.235 E26.07861
G1 X118.992 Y174.7 E26.10956
G1 X117.614 Y175.376 E26.16061
G1 X116.775 Y175.722 E26.19079
G1 X115.327 Y176.212 E26.24164
G1 X114.452 Y176.446 E26.27176
G1 X112.948 Y176.746 E26.32277
G1 X112.03 Y176.866 E26.35356
G1 X110.495 Y176.965 E26.40472
G1 X109.584 Y176.965 E26.43502
G1 X108.049 Y176.864 E26.48619
G1 X107.142 Y176.744 E26.51662
G1 X105.65 Y176.447 E26.56722
G1 X104.764 Y176.21 E26.59772
G1 X103.302 Y175.713 E26.64908
G1 X102.471 Y175.369 E26.67899
G1 X101.106 Y174.699 E26.72957
G1 X100.296 Y174.232 E26.76067
G1 X99.01 Y173.371 E26.81214
G1 X98.283 Y172.812 E26.84264
G1 X97.128 Y171.797 E26.89378
G1 X96.486 Y171.154 E26.924
G1 X95.475 Y170.001 E26.97501
G1 X94.916 Y169.272 E27.00556
G1 X94.063 Y167.994 E27.05667
G1 X93.601 Y167.193 E27.08742
G1 X92.925 Y165.816 E27.13844
G1 X92.579 Y164.978 E27.1686
G1 X92.089 Y163.532 E27.21938
G1 X91.854 Y162.652 E27.24967
G1 X91.554 Y161.145 E27.30078
G1 X91.434 Y160.232 E27.33141
G1 X91.334 Y158.695 E27.38263
G1 X91.319 Y158.256 E27.39724
G1 X91.318 Y157.795 E27.41258
G1 X91.32 Y157.597 E27.41916
G1 X93.907 Y58.812 E30.70589
G1 X93.939 Y58.311 E30.72259
G1 X94.065 Y57.028 E30.76547
G1 X94.229 Y56.06 E30.79812
G1 X94.532 Y54.812 E30.84084
G1 X94.826 Y53.886 E30.87315
G1 X95.308 Y52.669 E30.91669
G1 X95.733 Y51.784 E30.94934
G0 F4800 X96.08 Y51.982
G1 F600 X96.717 Y50.863 E30.99217
G1 X97.234 Y50.088 E31.02315
G1 X98.026 Y49.065 E31.06618
G1 X98.185 Y48.868 E31.0746
G1 X98.661 Y48.355 E31.09788
G1 X99.584 Y47.46 E31.14064
G1 X100.281 Y46.871 E31.17099
G1 X101.328 Y46.105 E31.21414
G1 X102.112 Y45.612 E31.24494
G1 X103.247 Y45.005 E31.28775
G1 X104.097 Y44.625 E31.31872
G1 X105.33 Y44.175 E31.36238
G1 X106.23 Y43.917 E31.39352
G1 X107.5 Y43.649 E31.43669
G1 X108.143 Y43.546 E31.45834
G1 X108.89 Y43.464 E31.48334
G1 X109.152 Y43.441 E31.49209
G1 X109.598 Y43.41 E31.50696
G1 X110.553 Y43.413 E31.53872
G1 X110.99 Y43.446 E31.5533
G1 X111.193 Y43.464 E31.56007
G1 X111.934 Y43.543 E31.58486
G1 X112.602 Y43.649 E31.60736
G1 X113.876 Y43.919 E31.65067
G1 X114.759 Y44.172 E31.68122
G1 X115.977 Y44.614 E31.72432
G1 X116.835 Y44.996 E31.75555
G1 X117.981 Y45.608 E31.79877
G1 X118.765 Y46.1 E31.82955
G1 X119.815 Y46.867 E31.8728
G1 X120.522 Y47.465 E31.9036
G1 X121.454 Y48.371 E31.94683
G1 X122.075 Y49.065 E31.9778
G1 X122.867 Y50.089 E32.02086
G1 X123.381 Y50.86 E32.05168
G1 X124.018 Y51.978 E32.09448
G1 X124.417 Y52.808 E32.12511
G1 X124.897 Y54.016 E32.16834
G1 X124.983 Y54.247 E32.17654
G1 X125.184 Y54.919 E32.19987
G1 X125.484 Y56.162 E32.2424
G1 X125.636 Y57.065 E32.27285
G1 X125.763 Y58.358 E32.31607
G1 X125.793 Y58.83 E32.3318
G1 X128.38 Y157.602 E35.61809
G1 X128.382 Y157.775 E35.62385
G1 X128.382 Y158.246 E35.63951
G1 X128.367 Y158.685 E35.65412
G1 X128.264 Y160.23 E35.70562
G1 X128.152 Y161.08 E35.73414
G1 X127.854 Y162.576 E35.78487
G1 X127.636 Y163.393 E35.813
G1 X127.419 Y164.037 E35.8356
G1 X127.124 Y164.896 E35.86581
G1 X126.805 Y165.663 E35.89344
G1 X126.139 Y167.018 E35.94366
G1 X125.705 Y167.772 E35.97259
G1 X124.851 Y169.051 E36.02374
G1 X124.322 Y169.74 E36.05263
G1 X123.301 Y170.903 E36.10411
G1 X122.693 Y171.511 E36.13271
G1 X121.539 Y172.523 E36.18376
G1 X120.854 Y173.049 E36.21248
G1 X119.576 Y173.903 E36.2636
G1 X118.816 Y174.34 E36.29276
G1 X117.438 Y175.016 E36.34381
G1 X116.647 Y175.343 E36.37228
G1 X115.199 Y175.833 E36.42312
G1 X114.374 Y176.053 E36.45152
G1 X112.87 Y176.353 E36.50253
G1 X112.004 Y176.467 E36.53158
G1 X110.469 Y176.566 E36.58274
G1 X109.611 Y176.566 E36.61128
G1 X108.076 Y176.465 E36.66245
G1 X107.22 Y176.352 E36.69116
G1 X105.728 Y176.055 E36.74176
G1 X104.893 Y175.831 E36.77052
G1 X103.431 Y175.334 E36.82187
G1 X102.647 Y175.01 E36.85009
G1 X101.282 Y174.34 E36.90066
G1 X100.518 Y173.899 E36.93
G1 X99.232 Y173.038 E36.98148
G1 X98.547 Y172.512 E37.0102
G1 X97.392 Y171.497 E37.06134
G1 X96.787 Y170.89 E37.08985
G1 X95.776 Y169.737 E37.14085
G1 X95.248 Y169.05 E37.16967
G1 X94.395 Y167.772 E37.22078
G1 X93.96 Y167.017 E37.24976
G1 X93.284 Y165.64 E37.30078
G1 X92.958 Y164.849 E37.32923
G1 X92.468 Y163.403 E37.38001
G1 X92.246 Y162.574 E37.40856
G1 X91.946 Y161.067 E37.45966
G1 X91.833 Y160.207 E37.48851
G1 X91.733 Y158.67 E37.53974
G1 X91.719 Y158.255 E37.55355
G1 X91.718 Y157.794 E37.56889
G1 X91.72 Y157.607 E37.57511
G1 X94.307 Y58.822 E40.86184
G1 X94.337 Y58.35 E40.87757
G1 X94.463 Y57.067 E40.92044
G1 X94.617 Y56.155 E40.95121
G1 X94.92 Y54.907 E40.99392
G1 X95.198 Y54.034 E41.02439
G1 X95.68 Y52.817 E41.06793
G1 X96.08 Y51.982 E41.09872
G0 F4800 X96.428 Y52.18
G1 F600 X97.065 Y51.061 E41.14155
G1 X97.551 Y50.333 E41.17066
G1 X98.343 Y49.31 E41.21369
G1 X98.492 Y49.124 E41.22162
G1 X98.939 Y48.642 E41.24349
G1 X99.862 Y47.747 E41.28625
G1 X100.517 Y47.194 E41.31476
G1 X101.564 Y46.428 E41.35791
G1 X102.301 Y45.965 E41.38685
G1 X103.436 Y45.358 E41.42966
G1 X104.234 Y45.001 E41.45874
G1 X105.467 Y44.551 E41.5024
G1 X106.313 Y44.309 E41.53166
G1 X107.583 Y44.041 E41.57483
G1 X108.186 Y43.944 E41.59515
G1 X108.933 Y43.862 E41.62014
G1 X109.18 Y43.84 E41.62839
G1 X109.626 Y43.809 E41.64326
G1 X110.523 Y43.812 E41.67309
G1 X110.96 Y43.845 E41.68767
G1 X111.15 Y43.862 E41.69402
G1 X111.891 Y43.941 E41.7188
G1 X112.519 Y44.041 E41.73995
G1 X113.793 Y44.311 E41.78327
G1 X114.623 Y44.548 E41.81197
G1 X115.841 Y44.99 E41.85507
G1 X116.647 Y45.349 E41.88442
G1 X117.793 Y45.961 E41.92763
G1 X118.529 Y46.423 E41.95653
G1 X119.579 Y47.19 E41.99978
G1 X120.244 Y47.751 E42.02872
G1 X121.176 Y48.657 E42.07195
G1 X121.758 Y49.31 E42.10104
G1 X122.55 Y50.334 E42.1441
G1 X123.033 Y51.058 E42.17304
G1 X123.67 Y52.176 E42.21584
G1 X124.045 Y52.956 E42.24463
G1 X124.525 Y54.164 E42.28786
G1 X124.607 Y54.382 E42.29561
G1 X124.795 Y55.012 E42.31747
G1 X125.095 Y56.255 E42.36
G1 X125.238 Y57.104 E42.38864
G1 X125.365 Y58.397 E42.43185
G1 X125.393 Y58.841 E42.44665
G1 X127.98 Y157.613 E45.73295
G1 X127.982 Y157.775 E45.73833
G1 X127.982 Y158.246 E45.754
G1 X127.968 Y158.658 E45.76771
G1 X127.865 Y160.203 E45.81921
G1 X127.76 Y161.002 E45.84601
G1 X127.462 Y162.498 E45.89675
G1 X127.257 Y163.265 E45.92316
G1 X127.041 Y163.907 E45.94568
G1 X126.746 Y164.766 E45.97589
G1 X126.446 Y165.487 E46.00187
G1 X125.78 Y166.842 E46.05208
G1 X125.372 Y167.55 E46.07926
G1 X124.518 Y168.829 E46.13041
G1 X124.021 Y169.476 E46.15755
G1 X123 Y170.639 E46.20902
G1 X122.429 Y171.21 E46.23588
G1 X121.275 Y172.222 E46.28693
G1 X120.632 Y172.716 E46.3139
G1 X119.354 Y173.57 E46.36502
G1 X118.64 Y173.981 E46.39242
G1 X117.262 Y174.657 E46.44347
G1 X116.518 Y174.964 E46.47024
