;FLAVOR:Marlin
;TIME:7493
;Filament used: 8.40707m
;Layer height: 0.3
;MINX:84.109
;MINY:31.736
;MINZ:0.2
;MAXX:133.552
;MAXY:188.266
;MAXZ:16.7
;Generated with Cura_SteamEngine 4.12.1
M82 ;absolute extrusion mode
; Ender 3 Custom Start G-code
; Parallel Bed and Extruder heatup
M140 S70.0     ; set bed temperature and continue
M104 S210.0   ; set hot end temperature and continue
M105 ; Report temp
M190 S70.0     ; wait for bed temperature to reach
M109 S210.0   ; wait for hot end temperature to reach
; Default initial steps
G92 E0 ; Reset Extruder
G28 ; Home all axes
M117 Auto bed-level GO! ; Message on LCD
G29 ; Auto bed-level (BL-touch)
G1 Z2.0 F3000 ; Move Z Axis up little to prevent scratching of Heat Bed
G1 X0.1 Y20 Z0.3 F5000.0 ; Move to start position
G1 X0.1 Y200.0 Z0.3 F1500.0 E15 ; Draw the first line
G1 X0.4 Y200.0 Z0.3 F5000.0 ; Move to side a little
G1 X0.4 Y20 Z0.3 F1500.0 E30 ; Draw the second line
G92 E0 ; Reset Extruder
G1 Z2.0 F3000 ; Move Z Axis up little to prevent scratching of Heat Bed
G1 X5 Y20 Z0.3 F5000.0 ; Move over to prevent blob squish
G92 E0
G92 E0
G1 F1500 E-6.5
;LAYER_COUNT:56
;LAYER:0
M107
G0 F4800 X91.399 Y43.569 Z0.2
;TYPE:SKIRT
G1 F1500 E0
G1 F600 X92.154 Y42.106 E0.05476
G1 X92.677 Y41.235 E0.08855
G1 X93.605 Y39.898 E0.14268
G1 X94.22 Y39.122 E0.17561
G1 X95.322 Y37.9 E0.23034
G1 X96.05 Y37.192 E0.26412
G1 X97.296 Y36.128 E0.31861
G1 X98.092 Y35.532 E0.35169
G1 X99.456 Y34.64 E0.40589
G1 X100.332 Y34.145 E0.43936
G1 X101.812 Y33.43 E0.49403
G1 X102.751 Y33.049 E0.52773
G1 X104.308 Y32.533 E0.58229
G1 X105.26 Y32.283 E0.61502
G1 X106.845 Y31.972 E0.66875
G1 X107.852 Y31.842 E0.70252
G1 X109.518 Y31.736 E0.75804
G1 X110.516 Y31.736 E0.79124
G1 X112.156 Y31.842 E0.8459
G1 X113.157 Y31.972 E0.87947
G1 X114.755 Y32.286 E0.93363
G1 X115.709 Y32.537 E0.96644
G1 X117.254 Y33.05 E1.02059
G1 X118.191 Y33.43 E1.05422
G1 X119.668 Y34.144 E1.10878
G1 X120.545 Y34.641 E1.14231
G1 X121.92 Y35.541 E1.19697
G1 X122.718 Y36.14 E1.23016
G1 X123.963 Y37.205 E1.28465
G1 X124.69 Y37.913 E1.3184
G1 X125.793 Y39.138 E1.37323
G1 X126.41 Y39.919 E1.40633
G1 X127.335 Y41.256 E1.46041
G1 X127.855 Y42.123 E1.49403
G1 X128.609 Y43.587 E1.5488
G1 X129.008 Y44.5 E1.58194
G1 X129.565 Y46.037 E1.63632
G1 X129.846 Y47 E1.66968
G1 X130.201 Y48.595 E1.72403
G1 X130.355 Y49.586 E1.75739
G1 X130.502 Y51.209 E1.81159
G1 X130.531 Y51.709 E1.82825
G1 X133.552 Y167.025 E5.66499
G1 X133.533 Y167.814 E5.69124
G1 X133.434 Y168.598 E5.71752
G1 X133.256 Y169.367 E5.74377
G1 X133.002 Y170.115 E5.77005
G1 X132.673 Y170.832 E5.79629
G1 X132.608 Y170.943 E5.80056
G1 X132.507 Y171.652 E5.82438
G1 X132.266 Y172.586 E5.85647
G1 X132.01 Y173.372 E5.88396
G1 X131.727 Y174.109 E5.91022
G1 X131.372 Y174.814 E5.93647
G1 X130.947 Y175.48 E5.96275
G1 X130.457 Y176.099 E5.98901
G1 X129.907 Y176.666 E6.01528
G1 X129.892 Y176.678 E6.01592
G1 X129.756 Y177.009 E6.02782
G1 X129.382 Y177.704 E6.05407
G1 X128.983 Y178.301 E6.07795
G1 X128.828 Y178.511 E6.08664
G1 X128.697 Y178.683 E6.09383
G1 X127.558 Y180.14 E6.15534
G1 X126.935 Y180.845 E6.18663
G1 X125.635 Y182.148 E6.24785
G1 X124.93 Y182.774 E6.27921
G1 X123.478 Y183.914 E6.34061
G1 X122.703 Y184.45 E6.37195
G1 X121.125 Y185.406 E6.43331
G1 X120.289 Y185.846 E6.46473
G1 X118.628 Y186.595 E6.52533
G1 X117.745 Y186.93 E6.55675
G1 X115.969 Y187.484 E6.61862
G1 X115.056 Y187.71 E6.64991
G1 X113.255 Y188.041 E6.71081
G1 X112.312 Y188.155 E6.7424
G1 X110.461 Y188.266 E6.80408
G1 X109.523 Y188.266 E6.83528
G1 X107.688 Y188.155 E6.89642
G1 X106.753 Y188.041 E6.92775
G1 X104.941 Y187.709 E6.98902
G1 X104.025 Y187.483 E7.0204
G1 X102.268 Y186.935 E7.08161
G1 X101.387 Y186.601 E7.11295
G1 X99.724 Y185.852 E7.17361
G1 X98.89 Y185.414 E7.20495
G1 X97.301 Y184.453 E7.26671
G1 X96.525 Y183.917 E7.29808
G1 X95.08 Y182.784 E7.35915
G1 X94.373 Y182.157 E7.39058
G1 X93.076 Y180.858 E7.45164
G1 X92.457 Y180.159 E7.48269
G1 X91.322 Y178.711 E7.54388
G1 X90.783 Y177.93 E7.57544
G1 X89.831 Y176.353 E7.63671
G1 X89.396 Y175.524 E7.66785
G1 X88.647 Y173.86 E7.72854
G1 X88.313 Y172.977 E7.75994
G1 X87.763 Y171.211 E7.82146
G1 X87.536 Y170.29 E7.85301
G1 X87.217 Y168.536 E7.91231
G1 X86.895 Y168.276 E7.92607
G1 X86.334 Y167.72 E7.95234
G1 X85.833 Y167.111 E7.97857
G1 X85.395 Y166.453 E8.00486
G1 X85.027 Y165.755 E8.03111
G1 X84.683 Y164.88 E8.06238
G1 X84.492 Y164.293 E8.08291
G1 X84.286 Y163.531 E8.10916
G1 X84.158 Y162.752 E8.13542
G1 X84.109 Y161.964 E8.16168
G1 X84.141 Y161.175 E8.18794
G1 X84.252 Y160.393 E8.21421
G1 X84.492 Y159.467 E8.24603
G1 X84.683 Y158.88 E8.26656
G1 X84.965 Y158.142 E8.29284
G1 X85.32 Y157.437 E8.31909
G1 X85.745 Y156.771 E8.34537
G1 X86.234 Y156.151 E8.37163
G1 X86.748 Y155.622 E8.39616
G1 X87.783 Y116.104 E9.71099
G1 X87.25 Y115.576 E9.73594
G1 X86.749 Y114.967 E9.76217
G1 X86.311 Y114.309 E9.78846
G1 X85.943 Y113.611 E9.81471
G1 X85.599 Y112.736 E9.84598
G1 X85.408 Y112.149 E9.86651
G1 X85.202 Y111.387 E9.89276
G1 X85.074 Y110.608 E9.91902
G1 X85.025 Y109.82 E9.94528
G1 X85.057 Y109.031 E9.97154
G1 X85.168 Y108.249 E9.99781
G1 X85.408 Y107.323 E10.02963
G1 X85.599 Y106.736 E10.05016
G1 X85.881 Y105.998 E10.07644
G1 X86.236 Y105.293 E10.10269
G1 X86.661 Y104.627 E10.12897
G1 X87.15 Y104.007 E10.15523
G1 X87.7 Y103.441 E10.18148
G1 X88.123 Y103.092 E10.19972
G1 X89.469 Y51.701 E11.90958
G1 X89.499 Y51.193 E11.9265
G1 X89.648 Y49.567 E11.98081
G1 X89.803 Y48.575 E12.01421
G1 X90.16 Y46.98 E12.06857
G1 X90.44 Y46.024 E12.1017
G1 X90.998 Y44.486 E12.15612
G1 X91.399 Y43.569 E12.1894
G0 F4800 X91.754 Y43.752
G1 F600 X92.509 Y42.289 E12.24416
G1 X93.006 Y41.464 E12.2762
G1 X93.934 Y40.127 E12.33033
G1 X94.518 Y39.39 E12.3616
G1 X95.62 Y38.168 E12.41633
G1 X96.31 Y37.497 E12.44834
G1 X97.556 Y36.433 E12.50284
G1 X98.311 Y35.867 E12.53422
G1 X99.675 Y34.975 E12.58843
G1 X100.506 Y34.505 E12.62018
G1 X101.986 Y33.79 E12.67485
G1 X102.877 Y33.429 E12.70683
G1 X104.434 Y32.913 E12.76138
G1 X105.337 Y32.675 E12.79244
G1 X106.922 Y32.364 E12.84617
G1 X107.877 Y32.241 E12.87819
G1 X109.543 Y32.135 E12.93371
G1 X110.49 Y32.135 E12.96521
G1 X112.13 Y32.241 E13.01987
G1 X113.08 Y32.365 E13.05174
G1 X114.678 Y32.679 E13.1059
G1 X115.583 Y32.917 E13.13703
G1 X117.128 Y33.43 E13.19117
G1 X118.017 Y33.791 E13.22309
G1 X119.494 Y34.505 E13.27765
G1 X120.326 Y34.975 E13.30943
G1 X121.701 Y35.875 E13.36409
G1 X122.458 Y36.444 E13.39559
G1 X123.703 Y37.509 E13.45008
G1 X124.392 Y38.18 E13.48207
G1 X125.495 Y39.405 E13.53689
G1 X126.082 Y40.147 E13.56836
G1 X127.007 Y41.484 E13.62244
G1 X127.5 Y42.306 E13.65432
G1 X128.254 Y43.77 E13.70909
G1 X128.632 Y44.637 E13.74055
G1 X129.189 Y46.174 E13.79492
G1 X129.455 Y47.087 E13.82655
G1 X129.81 Y48.682 E13.8809
G1 X129.957 Y49.622 E13.91254
G1 X130.104 Y51.245 E13.96674
G1 X130.131 Y51.719 E13.98254
G1 X133.152 Y167.035 E17.81928
G1 X133.133 Y167.804 E17.84486
G1 X133.033 Y168.567 E17.87046
G1 X132.855 Y169.315 E17.89603
G1 X132.6 Y170.041 E17.92162
G1 X132.271 Y170.736 E17.9472
G1 X132.212 Y170.914 E17.95343
G1 X132.095 Y171.674 E17.97901
G1 X131.885 Y172.462 E18.00613
G1 X131.629 Y173.248 E18.03363
G1 X131.353 Y173.966 E18.05921
G1 X131.004 Y174.651 E18.08478
G1 X130.586 Y175.297 E18.11037
G1 X130.103 Y175.895 E18.13594
G1 X129.561 Y176.441 E18.16153
G1 X129.315 Y176.999 E18.18181
G1 X128.934 Y177.667 E18.20739
G1 X128.661 Y178.064 E18.22341
G1 X128.506 Y178.274 E18.2321
G1 X128.382 Y178.437 E18.23891
G1 X127.243 Y179.894 E18.30042
G1 X126.652 Y180.563 E18.33011
G1 X125.352 Y181.866 E18.39133
G1 X124.683 Y182.459 E18.42106
G1 X123.231 Y183.599 E18.48246
G1 X122.495 Y184.108 E18.51222
G1 X120.917 Y185.064 E18.57359
G1 X120.125 Y185.481 E18.60336
G1 X118.464 Y186.23 E18.66396
G1 X117.626 Y186.548 E18.69377
G1 X115.85 Y187.102 E18.75565
G1 X114.984 Y187.316 E18.78532
G1 X113.183 Y187.647 E18.84622
G1 X112.288 Y187.756 E18.87621
G1 X110.437 Y187.867 E18.93789
G1 X109.547 Y187.866 E18.96749
G1 X107.712 Y187.755 E19.02863
G1 X106.825 Y187.648 E19.05835
G1 X105.013 Y187.316 E19.11962
G1 X104.144 Y187.101 E19.14939
G1 X102.387 Y186.553 E19.21061
G1 X101.551 Y186.236 E19.24034
G1 X99.888 Y185.487 E19.30101
G1 X99.097 Y185.072 E19.33072
G1 X97.508 Y184.111 E19.39248
G1 X96.772 Y183.602 E19.42224
G1 X95.327 Y182.469 E19.48332
G1 X94.656 Y181.875 E19.51312
G1 X93.359 Y180.576 E19.57418
G1 X92.772 Y179.912 E19.60365
G1 X91.637 Y178.464 E19.66485
G1 X91.126 Y177.723 E19.69478
G1 X90.174 Y176.146 E19.75605
G1 X89.761 Y175.359 E19.78561
G1 X89.012 Y173.695 E19.84631
G1 X88.695 Y172.858 E19.87608
G1 X88.145 Y171.092 E19.9376
G1 X87.93 Y170.218 E19.96753
G1 X87.6 Y168.406 E20.02879
G1 X87.59 Y168.324 E20.03154
G1 X87.147 Y167.965 E20.0505
G1 X86.603 Y167.421 E20.07609
G1 X86.119 Y166.824 E20.10165
G1 X85.699 Y166.18 E20.12722
G1 X85.348 Y165.495 E20.15282
G1 X85.063 Y164.757 E20.17914
G1 X84.872 Y164.17 E20.19967
G1 X84.672 Y163.427 E20.22526
G1 X84.551 Y162.667 E20.25086
G1 X84.509 Y161.899 E20.27644
G1 X84.547 Y161.131 E20.30201
G1 X84.664 Y160.371 E20.32759
G1 X84.872 Y159.59 E20.35447
G1 X85.063 Y159.003 E20.375
G1 X85.339 Y158.285 E20.40059
G1 X85.688 Y157.6 E20.42616
G1 X86.106 Y156.954 E20.45175
G1 X86.588 Y156.355 E20.47732
G1 X87.131 Y155.81 E20.50291
G1 X87.145 Y155.735 E20.50545
G1 X88.188 Y115.922 E21.83009
G1 X88.063 Y115.821 E21.83543
G1 X87.519 Y115.277 E21.86102
G1 X87.035 Y114.68 E21.88658
G1 X86.615 Y114.036 E21.91215
G1 X86.264 Y113.351 E21.93775
G1 X85.979 Y112.613 E21.96407
G1 X85.788 Y112.026 E21.9846
G1 X85.588 Y111.283 E22.01019
G1 X85.467 Y110.523 E22.03578
G1 X85.425 Y109.755 E22.06137
G1 X85.463 Y108.987 E22.08694
G1 X85.58 Y108.227 E22.11252
G1 X85.788 Y107.446 E22.1394
G1 X85.979 Y106.859 E22.15993
G1 X86.255 Y106.141 E22.18551
G1 X86.604 Y105.456 E22.21108
G1 X87.022 Y104.81 E22.23668
G1 X87.504 Y104.211 E22.26225
G1 X88.047 Y103.666 E22.28784
G1 X88.519 Y103.282 E22.30807
G1 X89.869 Y51.711 E24.02392
G1 X89.897 Y51.23 E24.03995
G1 X90.046 Y49.604 E24.09425
G1 X90.194 Y48.663 E24.12594
G1 X90.551 Y47.068 E24.1803
G1 X90.816 Y46.16 E24.21176
G1 X91.374 Y44.622 E24.26617
G1 X91.754 Y43.752 E24.29775
G0 F4800 X92.109 Y43.936
G1 F600 X92.864 Y42.473 E24.35251
G1 X93.334 Y41.692 E24.38283
G1 X94.262 Y40.355 E24.43696
G1 X94.815 Y39.658 E24.46655
G1 X95.917 Y38.436 E24.52128
G1 X96.569 Y37.801 E24.55155
G1 X97.815 Y36.737 E24.60605
G1 X98.53 Y36.202 E24.63575
G1 X99.894 Y35.31 E24.68995
G1 X100.68 Y34.865 E24.71999
G1 X102.16 Y34.15 E24.77466
G1 X103.003 Y33.808 E24.80492
G1 X104.56 Y33.292 E24.85948
G1 X105.414 Y33.068 E24.88884
G1 X106.999 Y32.757 E24.94256
G1 X107.903 Y32.64 E24.97288
G1 X109.569 Y32.534 E25.02841
G1 X110.464 Y32.535 E25.05817
G1 X112.104 Y32.641 E25.11283
G1 X113.003 Y32.757 E25.14298
G1 X114.601 Y33.071 E25.19715
G1 X115.457 Y33.297 E25.22659
G1 X117.002 Y33.81 E25.28074
G1 X117.843 Y34.151 E25.31092
G1 X119.32 Y34.865 E25.36549
G1 X120.107 Y35.31 E25.39556
G1 X121.482 Y36.21 E25.45022
G1 X122.198 Y36.748 E25.48
G1 X123.443 Y37.813 E25.5345
G1 X124.095 Y38.448 E25.56477
G1 X125.198 Y39.673 E25.61959
G1 X125.753 Y40.374 E25.64933
G1 X126.678 Y41.711 E25.70341
G1 X127.144 Y42.489 E25.73357
G1 X127.898 Y43.953 E25.78834
G1 X128.256 Y44.773 E25.8181
G1 X128.813 Y46.31 E25.87247
G1 X129.065 Y47.174 E25.90241
G1 X129.42 Y48.769 E25.95676
G1 X129.558 Y49.659 E25.98671
G1 X129.705 Y51.282 E26.04091
G1 X129.732 Y51.73 E26.05584
G1 X132.753 Y167.046 E29.89258
G1 X132.732 Y167.793 E29.91744
G1 X132.632 Y168.535 E29.94234
G1 X132.454 Y169.261 E29.9672
G1 X132.198 Y169.964 E29.99209
G1 X131.87 Y170.636 E30.01696
G1 X131.819 Y170.717 E30.02014
G1 X131.805 Y170.955 E30.02807
G1 X131.681 Y171.693 E30.05296
G1 X131.505 Y172.338 E30.0752
G1 X131.249 Y173.124 E30.10269
G1 X130.98 Y173.822 E30.12757
G1 X130.637 Y174.487 E30.15246
G1 X130.226 Y175.112 E30.17734
G1 X129.75 Y175.689 E30.20222
G1 X129.227 Y176.201 E30.22656
G1 X129.191 Y176.306 E30.23025
G1 X128.873 Y176.983 E30.25513
G1 X128.339 Y177.826 E30.28832
G1 X128.184 Y178.036 E30.297
G1 X128.067 Y178.19 E30.30343
G1 X126.928 Y179.647 E30.36494
G1 X126.368 Y180.28 E30.39305
G1 X125.068 Y181.583 E30.45427
G1 X124.436 Y182.145 E30.4824
G1 X122.984 Y183.285 E30.5438
G1 X122.288 Y183.766 E30.57194
G1 X120.71 Y184.722 E30.6333
G1 X119.961 Y185.116 E30.66145
G1 X118.3 Y185.865 E30.72206
G1 X117.506 Y186.166 E30.7503
G1 X115.73 Y186.72 E30.81218
G1 X114.911 Y186.923 E30.84024
G1 X113.11 Y187.254 E30.90114
G1 X112.264 Y187.356 E30.92949
G1 X110.413 Y187.467 E30.99116
G1 X109.571 Y187.467 E31.01917
G1 X107.736 Y187.356 E31.08031
G1 X106.897 Y187.254 E31.10842
G1 X105.085 Y186.922 E31.16969
G1 X104.263 Y186.72 E31.19784
G1 X102.506 Y186.172 E31.25906
G1 X101.715 Y185.872 E31.2872
G1 X100.052 Y185.123 E31.34786
G1 X99.304 Y184.73 E31.37596
G1 X97.715 Y183.769 E31.43773
G1 X97.019 Y183.288 E31.46587
G1 X95.574 Y182.155 E31.52694
G1 X94.939 Y181.592 E31.55517
G1 X93.642 Y180.293 E31.61622
G1 X93.087 Y179.665 E31.64409
G1 X91.952 Y178.217 E31.70529
G1 X91.468 Y177.517 E31.73359
G1 X90.516 Y175.94 E31.79486
G1 X90.126 Y175.195 E31.82283
G1 X89.377 Y173.531 E31.88352
G1 X89.077 Y172.739 E31.91169
G1 X88.527 Y170.973 E31.97321
G1 X88.323 Y170.146 E32.00154
G1 X87.993 Y168.334 E32.0628
G1 X87.967 Y168.115 E32.07013
G1 X87.4 Y167.654 E32.09444
G1 X86.873 Y167.123 E32.11932
G1 X86.406 Y166.539 E32.14419
G1 X86.004 Y165.908 E32.16908
G1 X85.672 Y165.238 E32.19395
G1 X85.444 Y164.633 E32.21545
G1 X85.253 Y164.046 E32.23598
G1 X85.059 Y163.323 E32.26088
G1 X84.944 Y162.584 E32.28576
G1 X84.909 Y161.837 E32.31063
G1 X84.954 Y161.09 E32.33552
G1 X85.078 Y160.352 E32.36041
G1 X85.253 Y159.714 E32.38241
G1 X85.444 Y159.127 E32.40294
G1 X85.713 Y158.429 E32.42782
G1 X86.055 Y157.764 E32.4527
G1 X86.466 Y157.139 E32.47757
G1 X86.941 Y156.561 E32.50246
G1 X87.476 Y156.038 E32.52734
G1 X87.556 Y155.974 E32.53075
G1 X87.544 Y155.746 E32.53834
G1 X88.592 Y115.734 E33.8696
G1 X88.316 Y115.51 E33.88143
G1 X87.789 Y114.979 E33.90631
G1 X87.322 Y114.395 E33.93118
G1 X86.92 Y113.764 E33.95606
G1 X86.588 Y113.094 E33.98093
G1 X86.36 Y112.489 E34.00244
G1 X86.169 Y111.902 E34.02297
G1 X85.975 Y111.179 E34.04787
G1 X85.86 Y110.44 E34.07274
G1 X85.825 Y109.693 E34.09762
G1 X85.87 Y108.946 E34.12251
G1 X85.994 Y108.208 E34.1474
G1 X86.169 Y107.57 E34.1694
G1 X86.36 Y106.983 E34.18993
G1 X86.629 Y106.285 E34.21481
G1 X86.971 Y105.62 E34.23968
G1 X87.382 Y104.995 E34.26456
G1 X87.857 Y104.417 E34.28944
G1 X88.392 Y103.894 E34.31433
G1 X88.913 Y103.478 E34.3365
G1 X90.268 Y51.722 E36.0585
G1 X90.295 Y51.266 E36.0737
G1 X90.444 Y49.64 E36.12801
G1 X90.584 Y48.75 E36.15797
G1 X90.941 Y47.155 E36.21233
G1 X91.192 Y46.297 E36.24207
G1 X91.75 Y44.759 E36.29648
G1 X92.109 Y43.936 E36.32635
G0 F4800 X92.465 Y44.119
G1 F600 X93.22 Y42.656 E36.3811
G1 X93.663 Y41.92 E36.40968
G1 X94.591 Y40.583 E36.46381
G1 X95.112 Y39.926 E36.4917
G1 X96.214 Y38.704 E36.54643
G1 X96.829 Y38.105 E36.57498
G1 X98.075 Y37.041 E36.62948
G1 X98.749 Y36.536 E36.65749
G1 X100.113 Y35.644 E36.71169
G1 X100.854 Y35.225 E36.74001
G1 X102.334 Y34.51 E36.79468
G1 X103.129 Y34.188 E36.8232
G1 X104.686 Y33.672 E36.87776
G1 X105.491 Y33.46 E36.90545
G1 X107.076 Y33.149 E36.95917
G1 X107.928 Y33.039 E36.98774
G1 X109.594 Y32.933 E37.04327
G1 X110.439 Y32.934 E37.07137
G1 X112.079 Y33.04 E37.12603
G1 X112.926 Y33.15 E37.15444
G1 X114.524 Y33.464 E37.2086
G1 X115.331 Y33.676 E37.23636
G1 X116.876 Y34.189 E37.2905
G1 X117.668 Y34.511 E37.31894
G1 X119.145 Y35.225 E37.3735
G1 X119.888 Y35.645 E37.40189
G1 X121.263 Y36.545 E37.45655
G1 X121.938 Y37.052 E37.48463
G1 X123.183 Y38.117 E37.53912
G1 X123.798 Y38.716 E37.56767
G1 X124.901 Y39.941 E37.6225
G1 X125.424 Y40.602 E37.65053
G1 X126.349 Y41.939 E37.70461
G1 X126.789 Y42.672 E37.73304
G1 X127.543 Y44.136 E37.78781
G1 X127.88 Y44.909 E37.81586
G1 X128.437 Y46.446 E37.87023
G1 X128.674 Y47.261 E37.89846
G1 X129.029 Y48.856 E37.95281
G1 X129.16 Y49.695 E37.98106
G1 X129.307 Y51.318 E38.03526
G1 X129.332 Y51.74 E38.04932
G1 X132.353 Y167.056 E41.88606
G1 X132.332 Y167.782 E41.91022
G1 X132.231 Y168.502 E41.9344
