;FLAVOR:Marlin
;TIME:14339
;Filament used: 20.1834m
;Layer height: 0.3
;MINX:72.095
;MINY:59.336
;MINZ:0.2
;MAXX:147.626
;MAXY:160.665
;MAXZ:29.9
;Generated with Cura_SteamEngine 4.12.1
M82 ;absolute extrusion mode
; Ender 3 Custom Start G-code
; Parallel Bed and Extruder heatup
M140 S70.0     ; set bed temperature and continue
M104 S210.0   ; set hot end temperature and continue
M105 ; Report temp
M190 S70.0     ; wait for bed temperature to reach
M109 S210.0   ; wait for hot end temperature to reach
; Default initial steps
G92 E0 ; Reset Extruder
G28 ; Home all axes
M117 Auto bed-level GO! ; Message on LCD
G29 ; Auto bed-level (BL-touch)
G1 Z2.0 F3000 ; Move Z Axis up little to prevent scratching of Heat Bed
G1 X0.1 Y20 Z0.3 F5000.0 ; Move to start position
G1 X0.1 Y200.0 Z0.3 F1500.0 E15 ; Draw the first line
G1 X0.4 Y200.0 Z0.3 F5000.0 ; Move to side a little
G1 X0.4 Y20 Z0.3 F1500.0 E30 ; Draw the second line
G92 E0 ; Reset Extruder
G1 Z2.0 F3000 ; Move Z Axis up little to prevent scratching of Heat Bed
G1 X5 Y20 Z0.3 F5000.0 ; Move over to prevent blob squish
G92 E0
G92 E0
G1 F1500 E-6.5
;LAYER_COUNT:100
;LAYER:0
M107
G0 F4800 X75.539 Y137.907 Z0.2
;TYPE:SKIRT
G1 F1500 E0
G1 F600 X75.729 Y137.907 E0.00632
G1 X75.793 Y137.944 E0.00878
G1 X75.793 Y138.453 E0.02571
G1 X75.729 Y138.499 E0.02833
G1 X75.539 Y138.499 E0.03465
G1 X75.382 Y138.385 E0.0411
G1 X75.322 Y138.203 E0.04748
G1 X75.382 Y138.021 E0.05385
G1 X75.539 Y137.907 E0.0603
G0 F4800 X75.408 Y137.507
G1 F600 X75.86 Y137.507 E0.07534
G1 X76.193 Y137.707 E0.08826
G1 X76.193 Y138.534 E0.11576
G1 X76.167 Y138.675 E0.12053
G1 X75.86 Y138.899 E0.13317
G1 X75.408 Y138.899 E0.1482
G1 X75.042 Y138.632 E0.16327
G1 X74.902 Y138.203 E0.17828
G1 X75.042 Y137.774 E0.19329
G1 X75.408 Y137.507 E0.20836
G0 F4800 X75.278 Y137.107
G1 F600 X75.99 Y137.107 E0.23204
G1 X76.21 Y137.267 E0.24109
G1 X76.407 Y137.361 E0.24835
G1 X76.617 Y137.36 E0.25533
G1 X76.593 Y137.452 E0.25849
G1 X76.593 Y138.57 E0.29568
G1 X76.531 Y138.906 E0.30704
G1 X75.99 Y139.299 E0.32928
G1 X75.278 Y139.299 E0.35297
G1 X74.702 Y138.88 E0.37666
G1 X74.482 Y138.203 E0.40033
G1 X74.702 Y137.526 E0.42401
G1 X75.278 Y137.107 E0.4477
G0 F4800 X75.149 Y136.707
G1 F600 X76.119 Y136.707 E0.47996
G1 X76.445 Y136.944 E0.49337
G1 X76.617 Y136.974 E0.49917
G1 X77.567 Y136.705 E0.53201
G1 X77.862 Y137.004 E0.54598
G1 X77.126 Y137.263 E0.57193
G1 X77.028 Y137.34 E0.57608
G1 X76.993 Y137.452 E0.57998
G1 X76.993 Y138.605 E0.61833
G1 X76.895 Y139.135 E0.63626
G1 X76.119 Y139.699 E0.66816
G1 X75.149 Y139.699 E0.70043
G1 X74.361 Y139.126 E0.73283
G1 X74.06 Y138.203 E0.76512
G1 X74.361 Y137.28 E0.79741
G1 X75.149 Y136.707 E0.82982
G0 F4800 X78.188 Y134.734
G1 F600 X77.882 Y133.794 E0.8627
G1 X78.19 Y132.85 E0.89572
G1 X79.494 Y132.07 E0.94626
G1 X80.098 Y132.07 E0.96635
G1 X80.817 Y132.822 E1.00096
G1 X80.938 Y133.192 E1.0139
G1 X81.012 Y133.293 E1.01807
G1 X81.131 Y133.33 E1.02221
G1 X81.274 Y133.267 E1.02741
G1 X81.856 Y132.645 E1.05574
G1 X82.312 Y132.672 E1.07093
G1 X82.262 Y134.339 E1.1264
G1 X81.84 Y134.339 E1.14044
G1 X81.348 Y133.981 E1.16068
G1 X81.229 Y133.943 E1.16483
G1 X81.11 Y133.983 E1.16901
G1 X81.03 Y134.142 E1.17493
G1 X81.027 Y135.326 E1.21431
G1 X81.031 Y135.366 E1.21565
G1 X81.249 Y136.465 E1.25291
G1 X79.708 Y135.834 E1.30829
G1 X79.583 Y135.825 E1.31246
G1 X79.5 Y135.881 E1.31579
G1 X79.475 Y135.526 E1.32763
G1 X79.369 Y135.364 E1.33407
G1 X78.188 Y134.734 E1.37859
G0 F4800 X78.52 Y134.457
G1 F600 X78.304 Y133.794 E1.40178
G1 X78.525 Y133.115 E1.42553
G1 X79.604 Y132.47 E1.46734
G1 X79.927 Y132.47 E1.47808
G1 X80.466 Y133.034 E1.50403
G1 X80.558 Y133.316 E1.5139
G1 X80.662 Y133.508 E1.52116
G1 X80.88 Y133.668 E1.53015
G1 X80.786 Y133.74 E1.53409
G1 X80.671 Y133.925 E1.54134
G1 X80.63 Y134.141 E1.54865
G1 X80.627 Y135.325 E1.58803
G1 X80.639 Y135.444 E1.59201
G1 X80.712 Y135.813 E1.60452
G1 X79.866 Y135.467 E1.63492
G1 X79.819 Y135.287 E1.64111
G1 X79.692 Y135.109 E1.64838
G1 X79.557 Y135.011 E1.65393
G1 X78.52 Y134.457 E1.69303
G0 F4800 X78.85 Y134.18
G1 F600 X78.724 Y133.794 E1.70654
G1 X78.858 Y133.381 E1.72098
G1 X79.713 Y132.87 E1.75411
G1 X79.756 Y132.87 E1.75554
G1 X80.113 Y133.242 E1.77269
G1 X80.177 Y133.44 E1.77961
G1 X80.302 Y133.693 E1.78899
G1 X80.33 Y133.724 E1.79038
G1 X80.254 Y133.926 E1.79756
G1 X80.23 Y134.14 E1.80472
G1 X80.227 Y135.183 E1.83941
G1 X80.201 Y135.172 E1.84035
G1 X80.079 Y134.946 E1.8489
G1 X79.881 Y134.745 E1.85828
G1 X79.746 Y134.658 E1.86362
G1 X78.85 Y134.18 E1.8974
G0 F4800 X79.179 Y133.902
G1 F600 X79.144 Y133.794 E1.90117
G1 X79.191 Y133.649 E1.90624
G1 X79.672 Y133.361 E1.92489
G1 X79.761 Y133.454 E1.92917
G1 X79.886 Y133.755 E1.94001
G1 X79.83 Y134.139 E1.95292
G1 X79.83 Y134.249 E1.95658
G1 X79.179 Y133.902 E1.98111
G0 F4800 X81.482 Y133.61
G1 F600 X81.566 Y133.54 E1.98475
G1 X81.896 Y133.187 E2.00082
G1 X81.876 Y133.871 E2.02358
G1 X81.583 Y133.658 E2.03563
G1 X81.482 Y133.61 E2.03935
G0 F4800 X79.929 Y131.557
G1 F600 X79.415 Y131.184 E2.06047
G1 X79.219 Y130.583 E2.0815
G1 X79.415 Y129.982 E2.10252
G1 X79.929 Y129.609 E2.12365
G1 X80.559 Y129.609 E2.1446
G1 X81.073 Y129.982 E2.16572
G1 X81.269 Y130.583 E2.18675
G1 X81.073 Y131.184 E2.20777
G1 X80.559 Y131.557 E2.2289
G1 X79.929 Y131.557 E2.24985
G0 F4800 X80.058 Y131.157
G1 F600 X79.756 Y130.938 E2.26226
G1 X79.641 Y130.583 E2.27467
G1 X79.756 Y130.228 E2.28708
G1 X80.058 Y130.009 E2.29949
G1 X80.43 Y130.009 E2.31186
G1 X80.732 Y130.228 E2.32427
G1 X80.847 Y130.583 E2.33668
G1 X80.732 Y130.938 E2.34909
G1 X80.43 Y131.157 E2.3615
G1 X80.058 Y131.157 E2.37387
G0 F4800 X80.188 Y130.757
G1 F600 X80.096 Y130.69 E2.37766
G1 X80.061 Y130.583 E2.3814
G1 X80.096 Y130.476 E2.38515
G1 X80.188 Y130.409 E2.38893
G1 X80.3 Y130.409 E2.39266
G1 X80.392 Y130.476 E2.39644
G1 X80.427 Y130.583 E2.40019
G1 X80.392 Y130.69 E2.40393
G1 X80.3 Y130.757 E2.40772
G1 X80.188 Y130.757 E2.41144
G1 F1500 E-4.08856
G0 F4800 X82.178 Y136.455
G0 X82.171 Y142.253
G0 X80.339 Y143.044
G0 X79.849 Y143.236
G1 F1500 E2.41144
G1 F600 X80.214 Y143.545 E2.42735
G1 X80.312 Y143.846 E2.43788
G1 X80.222 Y144.124 E2.4476
G1 X79.986 Y144.296 E2.45731
G1 X79.745 Y144.296 E2.46532
G1 X79.291 Y143.849 E2.48651
G1 X79.478 Y143.699 E2.49449
G1 X79.849 Y143.236 E2.51422
G0 F4800 X78.442 Y143.41
G1 F600 X78.97 Y143.519 E2.53215
G1 X79.094 Y143.505 E2.5363
G1 X79.166 Y143.448 E2.53936
G1 X79.793 Y142.666 E2.5727
G1 X80.561 Y143.314 E2.60612
G1 X80.734 Y143.846 E2.62472
G1 X80.563 Y144.37 E2.64306
G1 X80.115 Y144.696 E2.66148
G1 X79.581 Y144.696 E2.67925
G1 X78.517 Y143.648 E2.72892
G1 X78.442 Y143.41 E2.73722
G1 F1500 E-3.76278
G0 F4800 X78.442 Y143.988
G0 X79.075 Y143.988
G0 X82.183 Y143.231
G1 F1500 E2.73722
G1 F600 X82.318 Y143.133 E2.74277
G1 X82.318 Y144.499 E2.7882
G1 X82.183 Y144.401 E2.79375
G1 X81.992 Y143.816 E2.81422
G1 X82.183 Y143.231 E2.83468
G1 F1500 E-3.66532
G0 F4800 X82.179 Y137.133
G0 X79.927 Y90.985
G1 F1500 E2.83468
G1 F600 X79.4 Y90.602 E2.85635
G1 X79.208 Y90.012 E2.87699
G1 X79.784 Y89.071 E2.91368
G1 X79.812 Y88.95 E2.91781
G1 X79.781 Y88.859 E2.92101
G1 X79.178 Y87.917 E2.95821
G1 X79.594 Y86.985 E2.99216
G1 X79.601 Y86.841 E2.99695
G1 X79.396 Y86.212 E3.01896
G1 X79.623 Y85.565 E3.04176
G1 X79.634 Y85.504 E3.04382
G1 X79.662 Y84.302 E3.08381
G1 X79.83 Y82.632 E3.13964
G1 X80.361 Y83.32 E3.16854
G1 X80.464 Y83.39 E3.17269
G1 X80.572 Y83.391 E3.17628
G1 X81.57 Y83.114 E3.21073
G1 X81.697 Y83.008 E3.21623
G1 X81.923 Y82.539 E3.23354
G1 X82.295 Y82.539 E3.24592
G1 X82.295 Y84.289 E3.30412
G1 X81.312 Y84.288 E3.33682
G1 X81.193 Y84.327 E3.34098
G1 X81.112 Y84.495 E3.34719
G1 X81.186 Y86.723 E3.42133
G1 X81.229 Y86.84 E3.42548
G1 X81.333 Y86.909 E3.42963
G1 X81.43 Y86.911 E3.43285
G1 X82.216 Y86.735 E3.45964
G1 X82.216 Y88.481 E3.51772
G1 X81.19 Y88.458 E3.55185
G1 X81.067 Y88.496 E3.55613
G1 X80.705 Y88.759 E3.57101
G1 X80.632 Y88.86 E3.57516
G1 X80.655 Y89.03 E3.58086
G1 X81.291 Y90.015 E3.61986
G1 X81.1 Y90.602 E3.64039
G1 X80.573 Y90.985 E3.66206
G1 X79.927 Y90.985 E3.68355
G0 F4800 X80.056 Y90.585
G1 F600 X79.741 Y90.356 E3.6965
G1 X79.646 Y90.063 E3.70674
G1 X80.125 Y89.28 E3.73727
G1 X80.203 Y89.077 E3.74451
G1 X80.203 Y88.858 E3.75179
G1 X80.118 Y88.643 E3.75948
G1 X79.631 Y87.882 E3.78953
G1 X79.959 Y87.148 E3.81627
G1 X80.01 Y86.936 E3.82352
G1 X79.982 Y86.717 E3.83087
G1 X79.819 Y86.215 E3.84842
G1 X80 Y85.698 E3.86664
G1 X80.034 Y85.513 E3.8729
G1 X80.062 Y84.325 E3.91242
G1 X80.13 Y83.642 E3.93525
G1 X80.206 Y83.71 E3.93864
G1 X80.41 Y83.788 E3.9459
G1 X80.679 Y83.776 E3.95486
G1 X81.677 Y83.499 E3.98931
G1 X81.895 Y83.379 E3.99759
G1 X81.895 Y83.888 E4.01451
G1 X81.313 Y83.888 E4.03387
G1 X81.098 Y83.927 E4.04114
G1 X80.912 Y84.041 E4.0484
G1 X80.778 Y84.214 E4.05567
G1 X80.712 Y84.508 E4.0657
G1 X80.781 Y86.574 E4.13445
G1 X80.543 Y86.778 E4.14488
G1 X80.459 Y86.98 E4.15215
G1 X80.452 Y87.198 E4.15941
G1 X80.524 Y87.404 E4.16666
G1 X80.692 Y87.592 E4.17505
G1 X80.9 Y87.694 E4.18275
G1 X81.117 Y87.712 E4.19
G1 X81.327 Y87.65 E4.19728
G1 X81.5 Y87.518 E4.20452
G1 X81.632 Y87.284 E4.21345
G1 X81.816 Y87.235 E4.21979
G1 X81.816 Y88.072 E4.24763
G1 X81.199 Y88.058 E4.26815
G1 X80.983 Y88.093 E4.27543
G1 X80.832 Y88.173 E4.28111
G1 X80.47 Y88.436 E4.296
G1 X80.32 Y88.594 E4.30324
G1 X80.236 Y88.795 E4.31049
G1 X80.23 Y89.013 E4.31774
G1 X80.319 Y89.247 E4.32607
G1 X80.852 Y90.071 E4.35871
G1 X80.759 Y90.356 E4.36868
G1 X80.444 Y90.585 E4.38163
G1 X80.056 Y90.585 E4.39454
G0 F4800 X80.186 Y90.185
G1 F600 X80.085 Y90.111 E4.3987
G1 X80.239 Y89.86 E4.4085
G1 X80.406 Y90.118 E4.41872
G1 X80.314 Y90.185 E4.4225
G1 X80.186 Y90.185 E4.42676
G0 F4800 X80.247 Y88.103
G1 F600 X80.084 Y87.848 E4.43683
G1 X80.19 Y87.612 E4.44543
G1 X80.457 Y87.916 E4.45889
G1 X80.483 Y87.932 E4.4599
G1 X80.247 Y88.103 E4.4696
G0 F4800 X80.312 Y86.438
G1 F600 X80.241 Y86.221 E4.47719
G1 X80.358 Y85.886 E4.48899
G1 X80.375 Y86.378 E4.50537
G1 X80.312 Y86.438 E4.50826
G1 F1500 E-1.99174
G0 F4800 X78.319 Y83.535
G0 X78.319 Y83.099
G1 F1500 E4.50826
G1 F600 X78.19 Y82.962 E4.51452
G1 X79.009 Y82.696 E4.54316
G1 X79.11 Y82.622 E4.54732
G1 X79.142 Y82.549 E4.54998
G1 X79.227 Y82.163 E4.56312
G1 X79.211 Y82.809 E4.58461
G1 X78.319 Y83.099 E4.61581
G1 F1500 E-1.88419
G0 F4800 X76.016 Y82.954
G1 F1500 E4.61581
G1 F600 X75.012 Y82.954 E4.6492
G1 X74.184 Y82.352 E4.68325
G1 X73.869 Y81.383 E4.71714
G1 X74.184 Y80.414 E4.75103
G1 X75.012 Y79.812 E4.78508
G1 X76.02 Y79.812 E4.81861
G1 X76.583 Y80.313 E4.84367
G1 X75.998 Y81.118 E4.87677
G1 X75.96 Y81.237 E4.88092
G1 X75.998 Y81.354 E4.88502
G1 X76.689 Y82.305 E4.92411
G1 X76.699 Y82.31 E4.92449
G1 X76.016 Y82.954 E4.95571
G0 F4800 X75.857 Y82.554
G1 F600 X75.141 Y82.554 E4.97952
G1 X74.525 Y82.106 E5.00486
G1 X74.29 Y81.383 E5.03014
G1 X74.525 Y80.66 E5.05543
G1 X75.141 Y80.212 E5.08076
G1 X75.868 Y80.212 E5.10494
G1 X76.047 Y80.372 E5.11293
G1 X75.675 Y80.883 E5.13395
G1 X75.581 Y81.08 E5.14121
G1 X75.563 Y81.298 E5.14848
G1 X75.675 Y81.589 E5.15886
G1 X76.165 Y82.264 E5.1866
G1 X75.857 Y82.554 E5.20067
G0 F4800 X75.591 Y82.154
G1 F600 X75.271 Y82.154 E5.21131
G1 X74.865 Y81.858 E5.22802
G1 X74.71 Y81.383 E5.24464
G1 X74.865 Y80.908 E5.26126
G1 X75.271 Y80.612 E5.27797
G1 X75.377 Y80.612 E5.2815
G1 X75.351 Y80.648 E5.28297
G1 X75.219 Y80.898 E5.29238
G1 X75.162 Y81.174 E5.30175
G1 X75.184 Y81.455 E5.31112
G1 X75.351 Y81.824 E5.3246
G1 X75.591 Y82.154 E5.33817
G1 F1500 E-1.16183
G0 F4800 X75.463 Y81.236
G0 X75.787 Y80.24
G0 X76.977 Y77.309
G0 X77.826 Y76.691
G0 X79.396 Y76.68
G0 X79.616 Y77.435
G1 F1500 E5.33817
G1 F600 X78.704 Y77.146 E5.36999
G1 X78.605 Y77.141 E5.37328
G1 X78.054 Y77.25 E5.39197
G1 X78.072 Y76.493 E5.41715
G1 X78.881 Y76.033 E5.4481
G1 X78.94 Y75.981 E5.45072
G1 X79.625 Y75.095 E5.48797
G1 X80.147 Y75.095 E5.50533
G1 X80.728 Y75.627 E5.53153
G1 X80.856 Y76.02 E5.54528
G1 X80.93 Y76.121 E5.54944
G1 X81.049 Y76.158 E5.55359
G1 X81.167 Y76.117 E5.55774
G1 X81.236 Y76.02 E5.5617
G1 X81.429 Y75.427 E5.58244
G1 X81.93 Y75.063 E5.60304
G1 X82.317 Y75.063 E5.61591
G1 X82.317 Y77.287 E5.68988
G1 X81.634 Y77.11 E5.71335
G1 X81.235 Y76.589 E5.73518
G1 X81.132 Y76.519 E5.73932
G1 X81.014 Y76.521 E5.74324
G1 X79.896 Y76.885 E5.78235
G1 X79.77 Y77.007 E5.78818
G1 X79.616 Y77.435 E5.80331
G0 F4800 X79.369 Y76.938
G1 F600 X78.825 Y76.765 E5.8223
G1 X78.527 Y76.748 E5.83223
G1 X78.466 Y76.76 E5.83429
G1 X78.467 Y76.729 E5.83533
G1 X79.079 Y76.381 E5.85874
G1 X79.257 Y76.226 E5.86659
G1 X79.822 Y75.495 E5.89732
G1 X79.991 Y75.495 E5.90294
G1 X80.38 Y75.851 E5.92048
G1 X80.476 Y76.144 E5.93073
G1 X80.536 Y76.255 E5.93493
G1 X79.772 Y76.504 E5.96166
G1 X79.581 Y76.609 E5.96891
G1 X79.393 Y76.872 E5.97966
G1 X79.369 Y76.938 E5.982
G0 F4800 X79.905 Y76.04
G1 F600 X79.942 Y75.992 E5.98401
G1 X79.971 Y76.019 E5.98533
G1 X79.905 Y76.04 E5.98763
G1 F1500 E-0.51237
G0 F4800 X81.917 Y76.771
G1 F1500 E5.98763
G1 F600 X81.867 Y76.758 E5.98935
G1 X81.552 Y76.346 E6.0066
G1 X81.53 Y76.312 E6.00795
G1 X81.617 Y76.144 E6.01424
G1 X81.77 Y75.673 E6.03071
G1 X81.917 Y75.566 E6.03676
G1 X81.917 Y76.771 E6.07684
G1 F1500 E-0.42316
G0 F4800 X82.182 Y76.771
G0 X82.683 Y60.783
G0 X82.84 Y60.368
G0 X83.094 Y60.105
G0 X83.691 Y59.903
G0 X136.467 Y59.933
G0 X136.882 Y60.09
G0 X137.145 Y60.344
G0 X137.307 Y60.827
G0 X137.683 Y78.081
G1 F1500 E6.07684
G1 F600 X137.683 Y75.583 E6.15992
G1 X138.294 Y75.521 E6.18035
G1 X138.807 Y75.894 E6.20144
G1 X139.112 Y76.379 E6.2205
G1 X139.208 Y76.458 E6.22463
G1 X139.335 Y76.464 E6.22886
G1 X140.549 Y76.121 E6.27082
G1 X141.902 Y75.888 E6.31648
G1 X142.308 Y76.184 E6.3332
G1 X142.469 Y76.677 E6.35045
G1 X142.317 Y77.144 E6.36678
G1 X141.188 Y77.611 E6.40742
G1 X140.152 Y76.751 E6.4522
G1 X140.069 Y76.71 E6.45528
G1 X138.923 Y76.446 E6.49439
G1 X138.76 Y76.479 E6.49992
G1 X138.365 Y76.767 E6.51618
G1 X138.284 Y76.907 E6.52156
G1 X138.145 Y78.15 E6.56316
G1 X137.683 Y78.081 E6.5787
G1 F1500 E0.0787
G0 F4800 X138.083 Y76.494
G1 F1500 E6.5787
G1 F600 X138.083 Y75.944 E6.59699
G1 X138.183 Y75.934 E6.60033
G1 X138.506 Y76.17 E6.61364
G1 X138.13 Y76.444 E6.62911
G1 X138.083 Y76.494 E6.6314
G0 F4800 X140.527 Y76.543
G1 F600 X140.64 Y76.511 E6.6353
G1 X141.804 Y76.311 E6.67458
G1 X141.968 Y76.431 E6.68134
G1 X142.048 Y76.677 E6.68995
G1 X141.993 Y76.846 E6.69586
G1 X141.258 Y77.15 E6.72231
G1 X140.527 Y76.543 E6.75392
G1 F1500 E0.25392
G0 F4800 X140.743 Y76.609
G0 X141.65 Y77.227
G0 X143.229 Y78.747
G0 X144.216 Y80.637
G0 X144.54 Y81.633
G0 X144.216 Y82.629
G0 X143.733 Y82.983
G0 X143.421 Y82.555
G1 F1500 E6.75392
G1 F600 X144.005 Y81.751 E6.78697
G1 X144.043 Y81.632 E6.79112
G1 X144.005 Y81.515 E6.79521
G1 X143.314 Y80.564 E6.83431
G1 X143.197 Y80.505 E6.83867
G1 X143.811 Y79.903 E6.86727
G1 X144.765 Y79.903 E6.899
G1 X145.553 Y80.476 E6.93141
G1 X145.854 Y81.399 E6.9637
G1 X145.553 Y82.322 E6.99599
G1 X144.765 Y82.895 E7.02839
G1 X143.806 Y82.895 E7.06029
G1 X143.421 Y82.555 E7.07737
G0 F4800 X143.958 Y82.495
G1 F600 X144.328 Y81.986 E7.0983
G1 X144.422 Y81.789 E7.10556
G1 X144.44 Y81.571 E7.11284
G1 X144.328 Y81.28 E7.12321
G1 X143.766 Y80.507 E7.15499
G1 X143.975 Y80.303 E7.16471
G1 X144.636 Y80.303 E7.18669
G1 X145.212 Y80.722 E7.21038
G1 X145.432 Y81.399 E7.23406
G1 X145.212 Y82.076 E7.25774
G1 X144.636 Y82.495 E7.28143
G1 X143.958 Y82.495 E7.30398
G0 F4800 X144.803 Y81.878
G1 F600 X144.841 Y81.695 E7.31019
G1 X144.819 Y81.414 E7.31957
G1 X144.652 Y81.045 E7.33304
G1 X144.404 Y80.703 E7.34709
G1 X144.506 Y80.703 E7.35048
G1 X144.872 Y80.97 E7.36555
G1 X145.012 Y81.399 E7.38056
G1 X144.872 Y81.828 E7.39557
G1 X144.803 Y81.878 E7.3984
G1 F1500 E0.8984
G0 F4800 X144.216 Y82.629
G0 X143.367 Y83.247
G0 X139.831 Y84.131
G1 F1500 E7.3984
G1 F600 X139.801 Y84.05 E7.40128
G1 X140.008 Y83.983 E7.40851
G1 X139.831 Y84.131 E7.41619
G0 F4800 X138.104 Y83.943
G1 F600 X138.128 Y83.223 E7.44015
G1 X138.392 Y83.624 E7.45612
G1 X138.457 Y83.692 E7.45924
G1 X138.433 Y83.703 E7.46012
G1 X138.104 Y83.943 E7.47367
G0 F4800 X139.861 Y85.903
G1 F600 X139.725 Y85.722 E7.4812
G1 X139.788 Y85.516 E7.48836
