;FLAVOR:Marlin
;TIME:7294
;Filament used: 9.29735m
;Layer height: 0.3
;MINX:71.219
;MINY:58.148
;MINZ:0.2
;MAXX:149.023
;MAXY:161.753
;MAXZ:17.6
;Generated with Cura_SteamEngine 4.12.1
M82 ;absolute extrusion mode
; Ender 3 Custom Start G-code
; Parallel Bed and Extruder heatup
M140 S70.0     ; set bed temperature and continue
M104 S210.0   ; set hot end temperature and continue
M105 ; Report temp
M190 S70.0     ; wait for bed temperature to reach
M109 S210.0   ; wait for hot end temperature to reach
; Default initial steps
G92 E0 ; Reset Extruder
G28 ; Home all axes
M117 Auto bed-level GO! ; Message on LCD
G29 ; Auto bed-level (BL-touch)
G1 Z2.0 F3000 ; Move Z Axis up little to prevent scratching of Heat Bed
G1 X0.1 Y20 Z0.3 F5000.0 ; Move to start position
G1 X0.1 Y200.0 Z0.3 F1500.0 E15 ; Draw the first line
G1 X0.4 Y200.0 Z0.3 F5000.0 ; Move to side a little
G1 X0.4 Y20 Z0.3 F1500.0 E30 ; Draw the second line
G92 E0 ; Reset Extruder
G1 Z2.0 F3000 ; Move Z Axis up little to prevent scratching of Heat Bed
G1 X5 Y20 Z0.3 F5000.0 ; Move over to prevent blob squish
G92 E0
G92 E0
G1 F1500 E-6.5
;LAYER_COUNT:59
;LAYER:0
M107
G0 F4800 X71.728 Y59.795 Z0.2
;TYPE:SUPPORT-INTERFACE
G1 F1500 E0
G1 F600 X72.124 Y59.507 E0.01629
G1 X72.61 Y59.507 E0.03245
G1 X72.889 Y59.71 E0.04393
G1 X72.586 Y59.954 E0.05687
G1 X72.456 Y60.084 E0.06298
G1 X72.26 Y60.313 E0.07301
G1 X72.051 Y60.674 E0.08688
G1 X71.976 Y60.901 E0.09483
G1 X71.728 Y60.721 E0.10502
G1 X71.577 Y60.258 E0.12122
G1 X71.728 Y59.795 E0.13742
G1 F1500 E-6.36258
G0 F4800 X71.219 Y59.096
G0 X71.843 Y58.644
G0 X145.793 Y59.035
G0 X146.616 Y59.301
G1 F1500 E0.13742
G1 F600 X147.012 Y59.013 E0.1537
G1 X147.498 Y59.013 E0.16987
G1 X147.894 Y59.301 E0.18616
G1 X148.045 Y59.764 E0.20235
G1 X147.894 Y60.227 E0.21855
G1 X147.746 Y60.334 E0.22462
G1 X147.546 Y60.086 E0.23522
G1 X147.416 Y59.956 E0.24134
G1 X147.187 Y59.76 E0.25136
G1 X146.826 Y59.551 E0.26524
G1 X146.563 Y59.464 E0.27445
G1 X146.616 Y59.301 E0.28015
G1 F1500 E-6.21985
G0 F4800 X146.294 Y60.286
G0 X146.785 Y61.219
G0 X146.785 Y158.781
G0 X146.408 Y159.682
G0 X146.568 Y160.534
G1 F1500 E0.28015
G1 F600 X146.719 Y160.494 E0.28535
G1 X147.094 Y160.304 E0.29933
G1 X147.414 Y160.046 E0.313
G1 X147.544 Y159.916 E0.31911
G1 X147.74 Y159.687 E0.32914
G1 X147.753 Y159.664 E0.33002
G1 X147.899 Y159.77 E0.33602
G1 X148.05 Y160.233 E0.35222
G1 X147.899 Y160.696 E0.36841
G1 X147.503 Y160.984 E0.3847
G1 X147.017 Y160.984 E0.40086
G1 X146.621 Y160.696 E0.41715
G1 X146.568 Y160.534 E0.42282
G1 F1500 E-6.07718
G0 F4800 X145.746 Y160.801
G0 X73.719 Y159.285
G0 X72.818 Y158.908
G0 X71.976 Y159.104
G1 F1500 E0.42282
G1 F600 X72.006 Y159.218 E0.42674
G1 X72.196 Y159.594 E0.44075
G1 X72.454 Y159.914 E0.45442
G1 X72.584 Y160.044 E0.46054
G1 X72.813 Y160.24 E0.47056
G1 X72.898 Y160.289 E0.47383
G1 X72.612 Y160.497 E0.48559
G1 X72.126 Y160.497 E0.50175
G1 X71.73 Y160.209 E0.51804
G1 X71.579 Y159.746 E0.53424
G1 X71.73 Y159.283 E0.55044
G1 X71.976 Y159.104 E0.56055
G1 F1500 E-5.93945
G0 F4800 X72.818 Y158.908
G0 X73.719 Y159.285
G0 X146.408 Y159.682
G0 X146.999 Y160.576
G1 F1500 E0.56055
G1 F600 X147.206 Y160.783 E0.57029
G1 F1500 E-5.92971
G0 F4800 X146.626 Y159.572
G0 X146.754 Y158.933
G0 X146.832 Y60.595
G0 X147.378 Y59.662
G1 F1500 E0.57029
G1 F600 X147.661 Y59.379 E0.5836
G0 F4800 X147.748 Y59.501
G1 F600 X147.536 Y59.289 E0.59357
G1 F1500 E-5.90643
G0 F4800 X147.536 Y58.148
G0 X73.719 Y60.715
G0 X72.965 Y60.819
G0 X71.989 Y60.381
G1 F1500 E0.59357
G1 F600 X71.866 Y60.503 E0.59934
G1 F1500 E-5.90066
;MESH:Side-plate.STL
G0 F4800 X72.844 Y61.027
G0 X126.513 Y80.449
G0 X124.086 Y81.548
G0 X127.05 Y83.527
;TYPE:WALL-INNER
G1 F1500 E0.59934
G1 F600 X127.651 Y83.553 E0.61934
G1 X128.252 Y83.475 E0.6395
G1 X128.829 Y83.297 E0.65958
G1 X129.364 Y83.028 E0.6795
G1 X129.85 Y82.668 E0.69962
G1 X130.271 Y82.231 E0.7198
G1 X130.607 Y81.73 E0.73986
G1 X130.851 Y81.185 E0.75972
G1 X131.007 Y80.601 E0.77983
G1 X131.055 Y79.999 E0.79992
G1 X131.007 Y79.397 E0.82
G1 X130.851 Y78.809 E0.84024
G1 X130.602 Y78.264 E0.86016
G1 X130.269 Y77.766 E0.88009
G1 X129.848 Y77.328 E0.9003
G1 X129.362 Y76.97 E0.92037
G1 X128.823 Y76.698 E0.94045
G1 X128.246 Y76.525 E0.96049
G1 X127.649 Y76.447 E0.98051
G1 X127.048 Y76.473 E1.00052
G1 X126.456 Y76.599 E1.02065
G1 X125.897 Y76.827 E1.04073
G1 X125.382 Y77.141 E1.06079
G1 X124.931 Y77.543 E1.08089
G1 X124.551 Y78.009 E1.10089
G1 X124.258 Y78.537 E1.12097
G1 X124.056 Y79.105 E1.14102
G1 X123.957 Y79.696 E1.16095
G1 X123.957 Y80.306 E1.18124
G1 X124.06 Y80.898 E1.20123
G1 X124.26 Y81.469 E1.22135
G1 X124.557 Y81.994 E1.24141
G1 X124.933 Y82.463 E1.26141
G1 X125.389 Y82.861 E1.28154
G1 X125.903 Y83.178 E1.30162
G1 X126.462 Y83.401 E1.32164
G1 X127.05 Y83.527 E1.34164
G0 F4800 X127.101 Y83.129
G1 F600 X127.634 Y83.152 E1.35938
G1 X128.167 Y83.083 E1.37726
G1 X128.679 Y82.925 E1.39508
G1 X129.154 Y82.686 E1.41277
G1 X129.585 Y82.367 E1.4306
G1 X129.958 Y81.979 E1.4485
G1 X130.256 Y81.535 E1.46629
G1 X130.473 Y81.051 E1.48393
G1 X130.611 Y80.533 E1.50176
G1 X130.654 Y79.999 E1.51958
G1 X130.611 Y79.465 E1.5374
G1 X130.473 Y78.944 E1.55532
G1 X130.252 Y78.46 E1.57302
G1 X129.956 Y78.018 E1.59071
G1 X129.583 Y77.63 E1.60861
G1 X129.152 Y77.312 E1.62643
G1 X128.674 Y77.071 E1.64423
G1 X128.162 Y76.917 E1.66201
G1 X127.632 Y76.848 E1.67979
G1 X127.099 Y76.871 E1.69754
G1 X126.574 Y76.983 E1.71539
G1 X126.078 Y77.185 E1.7332
G1 X125.621 Y77.464 E1.75101
G1 X125.221 Y77.82 E1.76882
G1 X124.884 Y78.234 E1.78658
G1 X124.624 Y78.702 E1.80438
G1 X124.445 Y79.206 E1.82217
G1 X124.357 Y79.729 E1.83981
G1 X124.357 Y80.272 E1.85787
G1 X124.448 Y80.797 E1.87559
G1 X124.626 Y81.303 E1.89343
G1 X124.889 Y81.769 E1.91123
G1 X125.223 Y82.185 E1.92898
G1 X125.627 Y82.538 E1.94682
G1 X126.083 Y82.819 E1.96463
G1 X126.579 Y83.017 E1.9824
G1 X127.101 Y83.129 E2.00015
G0 F4800 X127.152 Y82.731
G1 F600 X127.617 Y82.751 E2.01563
G1 X128.082 Y82.691 E2.03123
G1 X128.529 Y82.553 E2.04679
G1 X128.944 Y82.344 E2.06224
G1 X129.32 Y82.066 E2.0778
G1 X129.645 Y81.727 E2.09342
G1 X129.905 Y81.34 E2.10892
G1 X130.095 Y80.917 E2.12435
G1 X130.215 Y80.465 E2.1399
G1 X130.253 Y79.999 E2.15545
G1 X130.215 Y79.533 E2.171
G1 X130.095 Y79.079 E2.18662
G1 X129.902 Y78.656 E2.20208
G1 X129.643 Y78.27 E2.21754
G1 X129.318 Y77.932 E2.23314
G1 X128.942 Y77.654 E2.24869
G1 X128.525 Y77.444 E2.26422
G1 X128.078 Y77.309 E2.27975
G1 X127.615 Y77.249 E2.29528
G1 X127.15 Y77.269 E2.31076
G1 X126.692 Y77.367 E2.32634
G1 X126.259 Y77.543 E2.34189
G1 X125.86 Y77.787 E2.35744
G1 X125.511 Y78.097 E2.37297
G1 X125.217 Y78.459 E2.38848
G1 X124.99 Y78.867 E2.40401
G1 X124.834 Y79.307 E2.41953
G1 X124.757 Y79.763 E2.43491
G1 X124.757 Y80.238 E2.45071
G1 X124.836 Y80.696 E2.46617
G1 X124.992 Y81.137 E2.48173
G1 X125.221 Y81.544 E2.49726
G1 X125.513 Y81.907 E2.51276
G1 X125.865 Y82.215 E2.52831
G1 X126.263 Y82.46 E2.54386
G1 X126.696 Y82.633 E2.55937
G1 X127.152 Y82.731 E2.57488
G0 F4800 X127.203 Y82.333
G1 F600 X127.6 Y82.35 E2.5881
G1 X127.997 Y82.299 E2.60141
G1 X128.379 Y82.181 E2.61471
G1 X128.734 Y82.002 E2.62793
G1 X129.055 Y81.765 E2.6412
G1 X129.332 Y81.475 E2.65454
G1 X129.554 Y81.145 E2.66777
G1 X129.717 Y80.783 E2.68097
G1 X129.819 Y80.397 E2.69425
G1 X129.852 Y79.999 E2.70753
G1 X129.819 Y79.601 E2.72082
G1 X129.717 Y79.214 E2.73413
G1 X129.552 Y78.852 E2.74736
G1 X129.33 Y78.522 E2.76059
G1 X129.053 Y78.233 E2.7739
G1 X128.732 Y77.996 E2.78717
G1 X128.376 Y77.817 E2.80043
G1 X127.994 Y77.701 E2.81371
G1 X127.598 Y77.65 E2.82699
G1 X127.201 Y77.667 E2.8402
G1 X126.81 Y77.751 E2.8535
G1 X126.44 Y77.901 E2.86678
G1 X126.099 Y78.11 E2.88009
G1 X125.801 Y78.374 E2.89333
G1 X125.55 Y78.684 E2.90659
G1 X125.356 Y79.032 E2.91984
G1 X125.223 Y79.408 E2.93311
G1 X125.157 Y79.797 E2.94623
G1 X125.157 Y80.204 E2.95977
G1 X125.224 Y80.594 E2.97293
G1 X125.358 Y80.971 E2.98624
G1 X125.553 Y81.319 E2.99951
G1 X125.803 Y81.629 E3.01275
G1 X126.103 Y81.892 E3.02602
G1 X126.443 Y82.101 E3.0393
G1 X126.813 Y82.249 E3.05255
G1 X127.203 Y82.333 E3.06582
G0 F4800 X127.254 Y81.935
;TYPE:WALL-OUTER
G1 F600 X127.583 Y81.949 E3.07677
G1 X127.912 Y81.907 E3.0878
G1 X128.229 Y81.809 E3.09884
G1 X128.524 Y81.66 E3.10983
G1 X128.79 Y81.464 E3.12082
G1 X129.019 Y81.224 E3.13185
G1 X129.203 Y80.95 E3.14283
G1 X129.339 Y80.649 E3.15382
G1 X129.423 Y80.329 E3.16482
G1 X129.451 Y79.999 E3.17584
G1 X129.423 Y79.669 E3.18685
G1 X129.339 Y79.349 E3.19786
G1 X129.202 Y79.048 E3.20885
G1 X129.017 Y78.774 E3.21985
G1 X128.788 Y78.534 E3.23088
G1 X128.522 Y78.338 E3.24187
G1 X128.227 Y78.19 E3.25285
G1 X127.91 Y78.093 E3.26388
G1 X127.581 Y78.051 E3.27491
G1 X127.252 Y78.065 E3.28586
G1 X126.928 Y78.135 E3.29689
G1 X126.621 Y78.259 E3.3079
G1 X126.338 Y78.433 E3.31895
G1 X126.091 Y78.651 E3.3299
G1 X125.883 Y78.909 E3.34093
G1 X125.722 Y79.197 E3.3519
G1 X125.612 Y79.509 E3.3629
G1 X125.557 Y79.831 E3.37377
G1 X125.557 Y80.17 E3.38504
G1 X125.612 Y80.493 E3.39594
G1 X125.723 Y80.805 E3.40696
G1 X125.885 Y81.094 E3.41798
G1 X126.093 Y81.351 E3.42897
G1 X126.341 Y81.569 E3.43995
G1 X126.623 Y81.742 E3.45096
G1 X126.93 Y81.865 E3.46196
G1 X127.254 Y81.935 E3.47298
G0 F4800 X127.199 Y82.371
G1 F1500 E-3.02702
G0 F4800 X127.66 Y83.745
G0 X127.553 Y81.082
G0 X127.551 Y138.918
G0 X127.658 Y136.255
G0 X125.684 Y138.775
G0 X125.38 Y139.449
G0 X125.318 Y140.19
G0 X125.485 Y140.832
G0 X127.05 Y143.527
;TYPE:WALL-INNER
G1 F1500 E3.47298
G1 F600 X127.651 Y143.553 E3.49299
G1 X128.252 Y143.475 E3.51315
G1 X128.829 Y143.297 E3.53323
G1 X129.364 Y143.028 E3.55315
G1 X129.85 Y142.668 E3.57326
G1 X130.271 Y142.231 E3.59345
G1 X130.607 Y141.73 E3.61351
G1 X130.851 Y141.185 E3.63337
G1 X131.007 Y140.601 E3.65348
G1 X131.055 Y139.999 E3.67356
G1 X131.007 Y139.397 E3.69365
G1 X130.851 Y138.809 E3.71388
G1 X130.602 Y138.264 E3.73381
G1 X130.269 Y137.766 E3.75374
G1 X129.848 Y137.328 E3.77394
G1 X129.362 Y136.97 E3.79402
G1 X128.823 Y136.698 E3.8141
G1 X128.246 Y136.525 E3.83414
G1 X127.649 Y136.447 E3.85416
G1 X127.048 Y136.473 E3.87417
G1 X126.456 Y136.599 E3.8943
G1 X125.897 Y136.827 E3.91438
G1 X125.382 Y137.141 E3.93444
G1 X124.931 Y137.543 E3.95454
G1 X124.551 Y138.009 E3.97453
G1 X124.258 Y138.537 E3.99462
G1 X124.056 Y139.105 E4.01467
G1 X123.957 Y139.696 E4.0346
G1 X123.957 Y140.306 E4.05489
G1 X124.06 Y140.898 E4.07487
G1 X124.26 Y141.469 E4.095
G1 X124.557 Y141.994 E4.11506
G1 X124.933 Y142.463 E4.13505
G1 X125.389 Y142.861 E4.15518
G1 X125.903 Y143.178 E4.17527
G1 X126.462 Y143.401 E4.19529
G1 X127.05 Y143.527 E4.21529
G0 F4800 X127.101 Y143.129
G1 F600 X127.634 Y143.152 E4.23303
G1 X128.167 Y143.083 E4.25091
G1 X128.679 Y142.925 E4.26873
G1 X129.154 Y142.686 E4.28641
G1 X129.585 Y142.367 E4.30425
G1 X129.958 Y141.979 E4.32215
G1 X130.256 Y141.535 E4.33993
G1 X130.473 Y141.051 E4.35758
G1 X130.611 Y140.533 E4.37541
G1 X130.654 Y139.999 E4.39322
G1 X130.611 Y139.465 E4.41104
G1 X130.473 Y138.944 E4.42897
G1 X130.252 Y138.46 E4.44667
G1 X129.956 Y138.018 E4.46436
G1 X129.583 Y137.63 E4.48226
G1 X129.152 Y137.312 E4.50007
G1 X128.674 Y137.071 E4.51788
G1 X128.162 Y136.917 E4.53566
G1 X127.632 Y136.848 E4.55344
G1 X127.099 Y136.871 E4.57118
G1 X126.574 Y136.983 E4.58904
G1 X126.078 Y137.185 E4.60685
G1 X125.621 Y137.464 E4.62466
G1 X125.221 Y137.82 E4.64247
G1 X124.884 Y138.234 E4.66022
G1 X124.624 Y138.702 E4.67803
G1 X124.445 Y139.206 E4.69582
G1 X124.357 Y139.729 E4.71346
G1 X124.357 Y140.272 E4.73152
G1 X124.448 Y140.797 E4.74924
G1 X124.626 Y141.303 E4.76708
G1 X124.889 Y141.769 E4.78488
G1 X125.223 Y142.185 E4.80262
G1 X125.627 Y142.538 E4.82047
G1 X126.083 Y142.819 E4.83828
G1 X126.579 Y143.017 E4.85604
G1 X127.101 Y143.129 E4.8738
G0 F4800 X127.152 Y142.731
G1 F600 X127.617 Y142.751 E4.88928
G1 X128.082 Y142.691 E4.90488
G1 X128.529 Y142.553 E4.92044
G1 X128.944 Y142.344 E4.93589
G1 X129.32 Y142.066 E4.95144
G1 X129.645 Y141.727 E4.96706
G1 X129.905 Y141.34 E4.98257
G1 X130.095 Y140.917 E4.99799
G1 X130.215 Y140.465 E5.01355
G1 X130.253 Y139.999 E5.0291
G1 X130.215 Y139.533 E5.04465
G1 X130.095 Y139.079 E5.06027
G1 X129.902 Y138.656 E5.07573
G1 X129.643 Y138.27 E5.09119
G1 X129.318 Y137.932 E5.10679
G1 X128.942 Y137.654 E5.12234
G1 X128.525 Y137.444 E5.13787
G1 X128.078 Y137.309 E5.1534
G1 X127.615 Y137.249 E5.16893
G1 X127.15 Y137.269 E5.18441
G1 X126.692 Y137.367 E5.19999
G1 X126.259 Y137.543 E5.21553
G1 X125.86 Y137.787 E5.23109
G1 X125.511 Y138.097 E5.24661
G1 X125.217 Y138.459 E5.26212
G1 X124.99 Y138.867 E5.27765
G1 X124.834 Y139.307 E5.29318
G1 X124.757 Y139.763 E5.30856
G1 X124.757 Y140.238 E5.32436
G1 X124.836 Y140.696 E5.33982
G1 X124.992 Y141.137 E5.35538
G1 X125.221 Y141.544 E5.37091
G1 X125.513 Y141.907 E5.3864
G1 X125.865 Y142.215 E5.40196
G1 X126.263 Y142.46 E5.41751
G1 X126.696 Y142.633 E5.43301
G1 X127.152 Y142.731 E5.44853
G0 F4800 X127.203 Y142.333
G1 F600 X127.6 Y142.35 E5.46174
G1 X127.997 Y142.299 E5.47506
G1 X128.379 Y142.181 E5.48835
G1 X128.734 Y142.002 E5.50158
G1 X129.055 Y141.765 E5.51485
G1 X129.332 Y141.475 E5.52819
G1 X129.554 Y141.145 E5.54142
G1 X129.717 Y140.783 E5.55462
G1 X129.819 Y140.397 E5.5679
G1 X129.852 Y139.999 E5.58118
G1 X129.819 Y139.601 E5.59446
G1 X129.717 Y139.214 E5.60778
G1 X129.552 Y138.852 E5.62101
G1 X129.33 Y138.522 E5.63424
G1 X129.053 Y138.233 E5.64755
G1 X128.732 Y137.996 E5.66082
G1 X128.376 Y137.817 E5.67407
G1 X127.994 Y137.701 E5.68735
G1 X127.598 Y137.65 E5.70063
G1 X127.201 Y137.667 E5.71385
G1 X126.81 Y137.751 E5.72715
G1 X126.44 Y137.901 E5.74043
G1 X126.099 Y138.11 E5.75373
G1 X125.801 Y138.374 E5.76697
G1 X125.55 Y138.684 E5.78024
G1 X125.356 Y139.032 E5.79349
G1 X125.223 Y139.408 E5.80676
G1 X125.157 Y139.797 E5.81988
G1 X125.157 Y140.204 E5.83342
G1 X125.224 Y140.594 E5.84658
G1 X125.358 Y140.971 E5.85989
G1 X125.553 Y141.319 E5.87315
G1 X125.803 Y141.629 E5.8864
G1 X126.103 Y141.892 E5.89967
G1 X126.443 Y142.101 E5.91294
G1 X126.813 Y142.249 E5.9262
G1 X127.203 Y142.333 E5.93947
G0 F4800 X127.254 Y141.935
;TYPE:WALL-OUTER
G1 F600 X127.583 Y141.949 E5.95042
G1 X127.912 Y141.907 E5.96145
G1 X128.229 Y141.809 E5.97249
G1 X128.524 Y141.66 E5.98348
G1 X128.79 Y141.464 E5.99447
G1 X129.019 Y141.224 E6.0055
G1 X129.203 Y140.95 E6.01648
G1 X129.339 Y140.649 E6.02746
G1 X129.423 Y140.329 E6.03847
G1 X129.451 Y139.999 E6.04948
G1 X129.423 Y139.669 E6.0605
G1 X129.339 Y139.349 E6.0715
G1 X129.202 Y139.048 E6.0825
G1 X129.017 Y138.774 E6.0935
G1 X128.788 Y138.534 E6.10453
G1 X128.522 Y138.338 E6.11552
G1 X128.227 Y138.19 E6.1265
G1 X127.91 Y138.093 E6.13752
G1 X127.581 Y138.051 E6.14856
G1 X127.252 Y138.065 E6.15951
G1 X126.928 Y138.135 E6.17053
G1 X126.621 Y138.259 E6.18155
G1 X126.338 Y138.433 E6.19259
G1 X126.091 Y138.651 E6.20355
G1 X125.883 Y138.909 E6.21457
G1 X125.722 Y139.197 E6.22555
G1 X125.612 Y139.509 E6.23655
G1 X125.557 Y139.831 E6.24742
G1 X125.557 Y140.17 E6.25869
G1 X125.612 Y140.493 E6.26959
G1 X125.723 Y140.805 E6.2806
G1 X125.885 Y141.094 E6.29162
G1 X126.093 Y141.351 E6.30262
G1 X126.341 Y141.569 E6.3136
G1 X126.623 Y141.742 E6.32461
G1 X126.93 Y141.865 E6.33561
G1 X127.254 Y141.935 E6.34663
G0 F4800 X127.199 Y142.371
G1 F1500 E-0.15337
G0 F4800 X129.976 Y142.811
G0 X128.22 Y140.809
G0 X129.976 Y159.289
G0 X129.976 Y156.614
G0 X144.324 Y156.824
;TYPE:WALL-INNER
G1 F1500 E6.34663
G1 F600 X75.676 Y156.824 E8.62987
G1 X75.676 Y63.176 E11.74462
G1 X144.324 Y63.176 E14.02786
G1 X144.324 Y156.824 E17.1426
G0 F4800 X144.724 Y157.224
G1 F600 X75.276 Y157.224 E19.45245
G1 X75.276 Y62.776 E22.59381
G1 X144.724 Y62.776 E24.90366
G1 X144.724 Y157.224 E28.04501
G0 F4800 X145.124 Y157.624
G1 F600 X74.876 Y157.624 E30.38147
G1 X74.876 Y62.376 E33.54943
G1 X145.124 Y62.376 E35.88589
G1 X145.124 Y157.624 E39.05385
G0 F4800 X145.524 Y158.024
G1 F600 X74.476 Y158.024 E41.41692
G1 X74.476 Y61.976 E44.61148
G1 X145.524 Y61.976 E46.97455
G1 X145.524 Y158.024 E50.16912
G0 F4800 X145.924 Y158.424
;TYPE:WALL-OUTER
G1 F600 X74.076 Y158.424 E52.55879
G1 X74.076 Y61.576 E55.77997
G1 X145.924 Y61.576 E58.16965
G1 X145.924 Y158.424 E61.39082
