;FLAVOR:Marlin
;TIME:520
;Filament used: 0.417782m
;Layer height: 0.3
;MINX:88.711
;MINY:88.711
;MINZ:0.2
;MAXX:131.289
;MAXY:131.289
;MAXZ:5
;Generated with Cura_SteamEngine 4.12.1
M82 ;absolute extrusion mode
; Ender 3 Custom Start G-code
; Parallel Bed and Extruder heatup
M140 S70.0     ; set bed temperature and continue
M104 S210.0   ; set hot end temperature and continue
M105 ; Report temp
M190 S70.0     ; wait for bed temperature to reach
M109 S210.0   ; wait for hot end temperature to reach
; Default initial steps
G92 E0 ; Reset Extruder
G28 ; Home all axes
M117 Auto bed-level GO! ; Message on LCD
G29 ; Auto bed-level (BL-touch)
G1 Z2.0 F3000 ; Move Z Axis up little to prevent scratching of Heat Bed
G1 X0.1 Y20 Z0.3 F5000.0 ; Move to start position
G1 X0.1 Y200.0 Z0.3 F1500.0 E15 ; Draw the first line
G1 X0.4 Y200.0 Z0.3 F5000.0 ; Move to side a little
G1 X0.4 Y20 Z0.3 F1500.0 E30 ; Draw the second line
G92 E0 ; Reset Extruder
G1 Z2.0 F3000 ; Move Z Axis up little to prevent scratching of Heat Bed
G1 X5 Y20 Z0.3 F5000.0 ; Move over to prevent blob squish
G92 E0
G92 E0
G1 F1500 E-6.5
;LAYER_COUNT:17
;LAYER:0
M107
G0 F4800 X95.437 Y94.465 Z0.2
;TYPE:SKIRT
G1 F1500 E0
G1 F600 X96.047 Y93.915 E0.02732
G1 X97.155 Y93.017 E0.07475
G1 X97.823 Y92.532 E0.10221
G1 X99.014 Y91.76 E0.14942
G1 X99.718 Y91.354 E0.17645
G1 X100.969 Y90.717 E0.22314
G1 X101.713 Y90.386 E0.25022
G1 X103.042 Y89.876 E0.29757
G1 X103.82 Y89.623 E0.32478
G1 X105.176 Y89.26 E0.37147
G1 X105.979 Y89.09 E0.39877
G1 X107.382 Y88.869 E0.44601
G1 X108.192 Y88.784 E0.4731
G1 X109.601 Y88.711 E0.52002
G1 X110.414 Y88.712 E0.54706
G1 X111.822 Y88.786 E0.59396
G1 X112.63 Y88.871 E0.62098
G1 X114.035 Y89.093 E0.66829
G1 X114.843 Y89.264 E0.69576
G1 X116.197 Y89.628 E0.74239
G1 X116.969 Y89.88 E0.7694
G1 X118.299 Y90.391 E0.81679
G1 X119.048 Y90.725 E0.84407
G1 X120.298 Y91.363 E0.89074
G1 X121.005 Y91.771 E0.91789
G1 X122.195 Y92.545 E0.96511
G1 X122.853 Y93.024 E0.99218
G1 X123.95 Y93.913 E1.03914
G1 X124.557 Y94.46 E1.06632
G1 X125.55 Y95.454 E1.11305
G1 X126.091 Y96.055 E1.13995
G1 X126.982 Y97.154 E1.187
G1 X127.468 Y97.823 E1.21451
G1 X128.24 Y99.014 E1.26171
G1 X128.646 Y99.718 E1.28874
G1 X129.283 Y100.969 E1.33543
G1 X129.614 Y101.713 E1.36252
G1 X130.124 Y103.042 E1.40986
G1 X130.377 Y103.82 E1.43707
G1 X130.74 Y105.176 E1.48376
G1 X130.91 Y105.979 E1.51106
G1 X131.131 Y107.382 E1.5583
G1 X131.216 Y108.192 E1.58539
G1 X131.289 Y109.601 E1.63232
G1 X131.288 Y110.414 E1.65936
G1 X131.214 Y111.822 E1.70625
G1 X131.129 Y112.63 E1.73327
G1 X130.907 Y114.035 E1.78058
G1 X130.736 Y114.843 E1.80805
G1 X130.372 Y116.197 E1.85469
G1 X130.12 Y116.969 E1.8817
G1 X129.613 Y118.289 E1.92873
G1 X129.284 Y119.029 E1.95566
G1 X128.648 Y120.279 E2.00231
G1 X128.24 Y120.987 E2.02949
G1 X127.461 Y122.188 E2.0771
G1 X126.973 Y122.859 E2.1047
G1 X126.089 Y123.948 E2.15135
G1 X125.554 Y124.542 E2.17794
G1 X124.563 Y125.535 E2.2246
G1 X123.953 Y126.085 E2.25192
G1 X122.845 Y126.983 E2.29935
G1 X122.177 Y127.468 E2.32681
G1 X120.986 Y128.24 E2.37401
G1 X120.282 Y128.646 E2.40104
G1 X119.031 Y129.283 E2.44774
G1 X118.287 Y129.614 E2.47482
G1 X116.958 Y130.124 E2.52217
G1 X116.18 Y130.377 E2.54938
G1 X114.824 Y130.74 E2.59607
G1 X114.021 Y130.91 E2.62337
G1 X112.618 Y131.131 E2.6706
G1 X111.808 Y131.216 E2.69769
G1 X110.399 Y131.289 E2.74462
G1 X109.586 Y131.288 E2.77166
G1 X108.178 Y131.214 E2.81855
G1 X107.37 Y131.129 E2.84558
G1 X105.965 Y130.907 E2.89289
G1 X105.157 Y130.736 E2.92036
G1 X103.803 Y130.372 E2.96699
G1 X103.031 Y130.12 E2.994
G1 X101.701 Y129.609 E3.04139
G1 X100.952 Y129.275 E3.06867
G1 X99.702 Y128.637 E3.11534
G1 X98.995 Y128.229 E3.14249
G1 X97.805 Y127.455 E3.18971
G1 X97.147 Y126.976 E3.21678
G1 X96.05 Y126.087 E3.26374
G1 X95.443 Y125.54 E3.29092
G1 X94.45 Y124.546 E3.33765
G1 X93.909 Y123.945 E3.36454
G1 X93.018 Y122.846 E3.4116
G1 X92.532 Y122.177 E3.4391
G1 X91.76 Y120.986 E3.48631
G1 X91.354 Y120.282 E3.51334
G1 X90.717 Y119.031 E3.56003
G1 X90.386 Y118.287 E3.58712
G1 X89.876 Y116.958 E3.63446
G1 X89.623 Y116.18 E3.66167
G1 X89.26 Y114.824 E3.70836
G1 X89.09 Y114.021 E3.73566
G1 X88.869 Y112.618 E3.7829
G1 X88.784 Y111.808 E3.80999
G1 X88.711 Y110.399 E3.85691
G1 X88.712 Y109.586 E3.88396
G1 X88.786 Y108.178 E3.93085
G1 X88.871 Y107.37 E3.95787
G1 X89.093 Y105.965 E4.00518
G1 X89.264 Y105.157 E4.03265
G1 X89.628 Y103.803 E4.07929
G1 X89.879 Y103.032 E4.10625
G1 X90.389 Y101.704 E4.15357
G1 X90.724 Y100.954 E4.18089
G1 X91.363 Y99.702 E4.22764
G1 X91.767 Y99.002 E4.25452
G1 X92.54 Y97.811 E4.30175
G1 X93.027 Y97.141 E4.3293
G1 X93.911 Y96.052 E4.37595
G1 X94.446 Y95.458 E4.40254
G1 X95.437 Y94.465 E4.4492
G0 F4800 X95.72 Y94.748
G1 F600 X96.299 Y94.226 E4.47513
G1 X97.407 Y93.328 E4.52256
G1 X98.041 Y92.867 E4.54863
G1 X99.232 Y92.095 E4.59584
G1 X99.899 Y91.711 E4.62144
G1 X101.15 Y91.074 E4.66813
G1 X101.857 Y90.759 E4.69387
G1 X103.186 Y90.249 E4.74122
G1 X103.923 Y90.01 E4.76699
G1 X105.279 Y89.647 E4.81368
G1 X106.042 Y89.485 E4.83962
G1 X107.445 Y89.264 E4.88686
G1 X108.213 Y89.184 E4.91254
G1 X109.622 Y89.111 E4.95947
G1 X110.393 Y89.111 E4.98511
G1 X111.801 Y89.185 E5.03201
G1 X112.568 Y89.266 E5.05766
G1 X113.973 Y89.488 E5.10497
G1 X114.739 Y89.651 E5.13102
G1 X116.093 Y90.015 E5.17765
G1 X116.826 Y90.253 E5.20328
G1 X118.156 Y90.764 E5.25067
G1 X118.866 Y91.081 E5.27653
G1 X120.116 Y91.719 E5.32321
G1 X120.787 Y92.107 E5.34899
G1 X121.977 Y92.881 E5.39621
G1 X122.601 Y93.335 E5.42187
G1 X123.698 Y94.224 E5.46884
G1 X124.274 Y94.743 E5.49462
G1 X125.267 Y95.737 E5.54135
G1 X125.78 Y96.307 E5.56686
G1 X126.671 Y97.406 E5.61392
G1 X127.133 Y98.041 E5.64004
G1 X127.905 Y99.232 E5.68724
G1 X128.289 Y99.899 E5.71284
G1 X128.926 Y101.15 E5.75953
G1 X129.241 Y101.857 E5.78528
G1 X129.751 Y103.186 E5.83262
G1 X129.99 Y103.923 E5.85839
G1 X130.353 Y105.279 E5.90508
G1 X130.515 Y106.042 E5.93102
G1 X130.736 Y107.445 E5.97826
G1 X130.816 Y108.213 E6.00394
G1 X130.889 Y109.622 E6.05087
G1 X130.889 Y110.393 E6.07651
G1 X130.815 Y111.801 E6.12341
G1 X130.734 Y112.568 E6.14906
G1 X130.512 Y113.973 E6.19637
G1 X130.349 Y114.739 E6.22242
G1 X129.985 Y116.093 E6.26905
G1 X129.747 Y116.825 E6.29465
G1 X129.24 Y118.145 E6.34168
G1 X128.927 Y118.848 E6.36728
G1 X128.291 Y120.098 E6.41393
G1 X127.904 Y120.769 E6.43969
G1 X127.125 Y121.97 E6.4873
G1 X126.662 Y122.607 E6.51349
G1 X125.778 Y123.696 E6.56015
G1 X125.271 Y124.259 E6.58534
G1 X124.28 Y125.252 E6.632
G1 X123.701 Y125.774 E6.65793
G1 X122.593 Y126.672 E6.70537
G1 X121.959 Y127.133 E6.73144
G1 X120.768 Y127.905 E6.77865
G1 X120.101 Y128.289 E6.80425
G1 X118.85 Y128.926 E6.85094
G1 X118.143 Y129.241 E6.87668
G1 X116.814 Y129.751 E6.92403
G1 X116.077 Y129.99 E6.9498
G1 X114.721 Y130.353 E6.99649
G1 X113.958 Y130.515 E7.02243
G1 X112.555 Y130.736 E7.06967
G1 X111.787 Y130.816 E7.09535
G1 X110.378 Y130.889 E7.14228
G1 X109.607 Y130.889 E7.16792
G1 X108.199 Y130.815 E7.21482
G1 X107.432 Y130.734 E7.24047
G1 X106.027 Y130.512 E7.28778
G1 X105.261 Y130.349 E7.31383
G1 X103.907 Y129.985 E7.36046
G1 X103.174 Y129.747 E7.38609
G1 X101.844 Y129.236 E7.43348
G1 X101.134 Y128.919 E7.45934
G1 X99.884 Y128.281 E7.50602
G1 X99.213 Y127.893 E7.5318
G1 X98.023 Y127.119 E7.57901
G1 X97.399 Y126.665 E7.60468
G1 X96.302 Y125.776 E7.65164
G1 X95.726 Y125.257 E7.67743
G1 X94.733 Y124.263 E7.72416
G1 X94.22 Y123.693 E7.74967
G1 X93.329 Y122.594 E7.79672
G1 X92.867 Y121.959 E7.82284
G1 X92.095 Y120.768 E7.87005
G1 X91.711 Y120.101 E7.89565
G1 X91.074 Y118.85 E7.94234
G1 X90.759 Y118.143 E7.96808
G1 X90.249 Y116.814 E8.01543
G1 X90.01 Y116.077 E8.0412
G1 X89.647 Y114.721 E8.08789
G1 X89.485 Y113.958 E8.11383
G1 X89.264 Y112.555 E8.16107
G1 X89.184 Y111.787 E8.18675
G1 X89.111 Y110.378 E8.23368
G1 X89.111 Y109.607 E8.25932
G1 X89.185 Y108.199 E8.30622
G1 X89.266 Y107.432 E8.33187
G1 X89.488 Y106.027 E8.37918
G1 X89.651 Y105.261 E8.40523
G1 X90.015 Y103.907 E8.45186
G1 X90.253 Y103.175 E8.47746
G1 X90.763 Y101.847 E8.52478
G1 X91.08 Y101.136 E8.55067
G1 X91.719 Y99.884 E8.59742
G1 X92.103 Y99.219 E8.62296
G1 X92.876 Y98.028 E8.67018
G1 X93.338 Y97.393 E8.6963
G1 X94.222 Y96.304 E8.74296
G1 X94.729 Y95.741 E8.76815
G1 X95.72 Y94.748 E8.81482
G0 F4800 X96.003 Y95.03
G1 F600 X96.551 Y94.537 E8.83933
G1 X97.659 Y93.639 E8.88677
G1 X98.259 Y93.203 E8.91144
G1 X99.45 Y92.431 E8.95864
G1 X100.081 Y92.067 E8.98287
G1 X101.332 Y91.43 E9.02956
G1 X102 Y91.133 E9.05388
G1 X103.329 Y90.623 E9.10122
G1 X104.027 Y90.396 E9.12564
G1 X105.383 Y90.033 E9.17233
G1 X106.104 Y89.88 E9.19684
G1 X107.507 Y89.659 E9.24408
G1 X108.234 Y89.583 E9.26839
G1 X109.643 Y89.51 E9.31532
G1 X110.372 Y89.511 E9.33956
G1 X111.78 Y89.585 E9.38646
G1 X112.505 Y89.661 E9.4107
G1 X113.91 Y89.883 E9.45802
G1 X114.635 Y90.037 E9.48267
G1 X115.989 Y90.401 E9.5293
G1 X116.683 Y90.627 E9.55358
G1 X118.013 Y91.138 E9.60096
G1 X118.684 Y91.437 E9.6254
G1 X119.934 Y92.075 E9.67207
G1 X120.569 Y92.442 E9.69647
G1 X121.759 Y93.216 E9.74368
G1 X122.349 Y93.646 E9.76797
G1 X123.446 Y94.535 E9.81493
G1 X123.991 Y95.026 E9.83933
G1 X124.984 Y96.02 E9.88606
G1 X125.469 Y96.559 E9.91017
G1 X126.36 Y97.658 E9.95723
G1 X126.797 Y98.259 E9.98195
G1 X127.569 Y99.45 E10.02915
G1 X127.933 Y100.081 E10.05338
G1 X128.57 Y101.332 E10.10007
G1 X128.867 Y102 E10.12439
G1 X129.377 Y103.329 E10.17173
G1 X129.604 Y104.027 E10.19615
G1 X129.967 Y105.383 E10.24284
G1 X130.12 Y106.104 E10.26735
G1 X130.341 Y107.507 E10.31459
G1 X130.417 Y108.234 E10.3389
G1 X130.49 Y109.643 E10.38583
G1 X130.489 Y110.372 E10.41007
G1 X130.415 Y111.78 E10.45697
G1 X130.339 Y112.505 E10.48121
G1 X130.117 Y113.91 E10.52853
G1 X129.963 Y114.635 E10.55318
G1 X129.599 Y115.989 E10.59981
G1 X129.374 Y116.682 E10.62404
G1 X128.867 Y118.002 E10.67107
G1 X128.571 Y118.666 E10.69525
G1 X127.935 Y119.916 E10.7419
G1 X127.569 Y120.551 E10.76628
G1 X126.79 Y121.752 E10.81389
G1 X126.352 Y122.355 E10.83868
G1 X125.468 Y123.444 E10.88533
G1 X124.988 Y123.977 E10.90919
G1 X123.997 Y124.97 E10.95585
G1 X123.449 Y125.463 E10.98037
G1 X122.341 Y126.361 E11.0278
G1 X121.741 Y126.797 E11.05247
G1 X120.55 Y127.569 E11.09968
G1 X119.919 Y127.933 E11.1239
G1 X118.668 Y128.57 E11.1706
G1 X118 Y128.867 E11.19491
G1 X116.671 Y129.377 E11.24226
G1 X115.973 Y129.604 E11.26667
G1 X114.617 Y129.967 E11.31336
G1 X113.896 Y130.12 E11.33787
G1 X112.493 Y130.341 E11.38511
G1 X111.766 Y130.417 E11.40942
G1 X110.357 Y130.49 E11.45635
G1 X109.628 Y130.489 E11.4806
G1 X108.22 Y130.415 E11.52749
G1 X107.495 Y130.339 E11.55174
G1 X106.09 Y130.117 E11.59905
G1 X105.365 Y129.963 E11.6237
G1 X104.011 Y129.599 E11.67033
G1 X103.317 Y129.373 E11.69461
G1 X101.987 Y128.862 E11.742
G1 X101.316 Y128.563 E11.76643
G1 X100.066 Y127.925 E11.81311
G1 X99.431 Y127.558 E11.8375
G1 X98.241 Y126.784 E11.88472
G1 X97.651 Y126.354 E11.909
G1 X96.554 Y125.465 E11.95596
G1 X96.009 Y124.974 E11.98036
G1 X95.016 Y123.98 E12.02709
G1 X94.531 Y123.441 E12.05121
G1 X93.64 Y122.342 E12.09826
G1 X93.203 Y121.741 E12.12298
G1 X92.431 Y120.55 E12.17019
G1 X92.067 Y119.919 E12.19441
G1 X91.43 Y118.668 E12.24111
G1 X91.133 Y118 E12.26542
G1 X90.623 Y116.671 E12.31277
G1 X90.396 Y115.973 E12.33718
G1 X90.033 Y114.617 E12.38387
G1 X89.88 Y113.896 E12.40838
G1 X89.659 Y112.493 E12.45562
G1 X89.583 Y111.766 E12.47993
G1 X89.51 Y110.357 E12.52686
G1 X89.511 Y109.628 E12.55111
G1 X89.585 Y108.22 E12.598
G1 X89.661 Y107.495 E12.62225
G1 X89.883 Y106.09 E12.66956
G1 X90.037 Y105.365 E12.69421
G1 X90.401 Y104.011 E12.74084
G1 X90.626 Y103.318 E12.76508
G1 X91.136 Y101.99 E12.81239
G1 X91.436 Y101.318 E12.83687
G1 X92.075 Y100.066 E12.88362
G1 X92.438 Y99.437 E12.90777
G1 X93.211 Y98.246 E12.955
G1 X93.648 Y97.645 E12.97971
G1 X94.532 Y96.556 E13.02637
G1 X95.012 Y96.023 E13.05022
G1 X96.003 Y95.03 E13.09688
G0 F4800 X96.286 Y95.313
G1 F600 X96.802 Y94.848 E13.11999
G1 X97.91 Y93.95 E13.16742
G1 X98.476 Y93.539 E13.19069
G1 X99.667 Y92.767 E13.23789
G1 X100.262 Y92.424 E13.26074
G1 X101.513 Y91.787 E13.30743
G1 X102.143 Y91.506 E13.33037
G1 X103.472 Y90.996 E13.37772
G1 X104.13 Y90.782 E13.40073
G1 X105.486 Y90.419 E13.44742
G1 X106.166 Y90.275 E13.47054
G1 X107.569 Y90.054 E13.51778
G1 X108.255 Y89.983 E13.54072
G1 X109.664 Y89.91 E13.58764
G1 X110.351 Y89.91 E13.61049
G1 X111.759 Y89.984 E13.65739
G1 X112.443 Y90.056 E13.68026
G1 X113.848 Y90.278 E13.72757
G1 X114.531 Y90.423 E13.7508
G1 X115.885 Y90.787 E13.79743
G1 X116.539 Y91 E13.82031
G1 X117.869 Y91.511 E13.86769
G1 X118.502 Y91.793 E13.89074
G1 X119.752 Y92.431 E13.93742
G1 X120.351 Y92.777 E13.96043
G1 X121.541 Y93.551 E14.00764
G1 X122.097 Y93.956 E14.03052
G1 X123.194 Y94.845 E14.07748
G1 X123.708 Y95.308 E14.10049
G1 X124.701 Y96.302 E14.14722
G1 X125.159 Y96.811 E14.17
G1 X126.05 Y97.91 E14.21706
G1 X126.461 Y98.476 E14.24032
G1 X127.233 Y99.667 E14.28753
G1 X127.576 Y100.262 E14.31037
G1 X128.213 Y101.513 E14.35706
G1 X128.494 Y102.143 E14.38001
G1 X129.004 Y103.472 E14.42735
G1 X129.218 Y104.13 E14.45036
G1 X129.581 Y105.486 E14.49705
G1 X129.725 Y106.166 E14.52017
G1 X129.946 Y107.569 E14.56741
G1 X130.017 Y108.255 E14.59035
G1 X130.09 Y109.664 E14.63728
G1 X130.09 Y110.351 E14.66013
G1 X130.016 Y111.759 E14.70702
G1 X129.944 Y112.443 E14.7299
G1 X129.722 Y113.848 E14.77721
G1 X129.577 Y114.531 E14.80043
G1 X129.213 Y115.885 E14.84706
G1 X129 Y116.538 E14.86991
G1 X128.493 Y117.858 E14.91694
G1 X128.214 Y118.485 E14.93976
G1 X127.578 Y119.735 E14.98641
G1 X127.233 Y120.334 E15.0094
G1 X126.454 Y121.535 E15.05701
G1 X126.041 Y122.103 E15.08037
G1 X125.157 Y123.192 E15.12702
G1 X124.705 Y123.694 E15.14949
G1 X123.714 Y124.687 E15.19615
G1 X123.198 Y125.152 E15.21925
G1 X122.09 Y126.05 E15.26669
G1 X121.524 Y126.461 E15.28996
G1 X120.333 Y127.233 E15.33716
G1 X119.738 Y127.576 E15.36
G1 X118.487 Y128.213 E15.4067
G1 X117.857 Y128.494 E15.42964
G1 X116.528 Y129.004 E15.47699
G1 X115.87 Y129.218 E15.5
G1 X114.514 Y129.581 E15.54669
G1 X113.834 Y129.725 E15.56981
G1 X112.431 Y129.946 E15.61705
G1 X111.745 Y130.017 E15.63998
G1 X110.336 Y130.09 E15.68691
G1 X109.649 Y130.09 E15.70976
G1 X108.241 Y130.016 E15.75666
G1 X107.557 Y129.944 E15.77953
G1 X106.152 Y129.722 E15.82684
G1 X105.469 Y129.577 E15.85006
G1 X104.115 Y129.213 E15.8967
G1 X103.461 Y129 E15.91957
G1 X102.131 Y128.489 E15.96696
G1 X101.498 Y128.207 E15.99001
G1 X100.248 Y127.569 E16.03669
G1 X99.649 Y127.223 E16.0597
G1 X98.459 Y126.449 E16.10691
G1 X97.903 Y126.044 E16.12979
G1 X96.806 Y125.155 E16.17675
G1 X96.292 Y124.692 E16.19976
G1 X95.299 Y123.698 E16.24649
G1 X94.841 Y123.189 E16.26927
G1 X93.95 Y122.09 E16.31632
G1 X93.539 Y121.524 E16.33959
G1 X92.767 Y120.333 E16.3868
G1 X92.424 Y119.738 E16.40964
G1 X91.787 Y118.487 E16.45633
G1 X91.506 Y117.857 E16.47927
G1 X90.996 Y116.528 E16.52662
G1 X90.782 Y115.87 E16.54963
G1 X90.419 Y114.514 E16.59632
G1 X90.275 Y113.834 E16.61944
G1 X90.054 Y112.431 E16.66668
G1 X89.983 Y111.745 E16.68962
G1 X89.91 Y110.336 E16.73654
G1 X89.91 Y109.649 E16.75939
G1 X89.984 Y108.241 E16.80629
G1 X90.056 Y107.557 E16.82916
G1 X90.278 Y106.152 E16.87647
G1 X90.423 Y105.469 E16.8997
G1 X90.787 Y104.115 E16.94633
G1 X91 Y103.462 E16.96918
G1 X91.51 Y102.134 E17.01649
G1 X91.792 Y101.5 E17.03957
G1 X92.431 Y100.248 E17.08632
G1 X92.774 Y99.655 E17.10911
G1 X93.547 Y98.464 E17.15633
G1 X93.959 Y97.897 E17.17964
G1 X94.843 Y96.808 E17.22629
G1 X95.295 Y96.306 E17.24876
G1 X96.286 Y95.313 E17.29542
G0 F4800 X96.57 Y95.595
G1 F600 X97.054 Y95.158 E17.31711
G1 X98.162 Y94.26 E17.36455
G1 X98.694 Y93.874 E17.38641
G1 X99.885 Y93.102 E17.43361
G1 X100.444 Y92.78 E17.45507
G1 X101.695 Y92.143 E17.50176
G1 X102.287 Y91.88 E17.52331
G1 X103.616 Y91.37 E17.57065
G1 X104.234 Y91.169 E17.59227
G1 X105.59 Y90.806 E17.63896
G1 X106.228 Y90.671 E17.66065
G1 X107.631 Y90.45 E17.70789
G1 X108.275 Y90.382 E17.72943
G1 X109.684 Y90.309 E17.77635
G1 X110.33 Y90.31 E17.79784
G1 X111.738 Y90.384 E17.84473
G1 X112.381 Y90.451 E17.86623
G1 X113.786 Y90.673 E17.91355
G1 X114.428 Y90.81 E17.93538
G1 X115.782 Y91.174 E17.98201
