;FLAVOR:Marlin
;TIME:740
;Filament used: 0.820687m
;Layer height: 0.3
;MINX:91.715
;MINY:91.712
;MINZ:0.2
;MAXX:128.285
;MAXY:128.288
;MAXZ:14.6
;Generated with Cura_SteamEngine 4.12.1
M82 ;absolute extrusion mode
; Ender 3 Custom Start G-code
; Parallel Bed and Extruder heatup
M140 S70.0     ; set bed temperature and continue
M104 S210.0   ; set hot end temperature and continue
M105 ; Report temp
M190 S70.0     ; wait for bed temperature to reach
M109 S210.0   ; wait for hot end temperature to reach
; Default initial steps
G92 E0 ; Reset Extruder
G28 ; Home all axes
M117 Auto bed-level GO! ; Message on LCD
G29 ; Auto bed-level (BL-touch)
G1 Z2.0 F3000 ; Move Z Axis up little to prevent scratching of Heat Bed
G1 X0.1 Y20 Z0.3 F5000.0 ; Move to start position
G1 X0.1 Y200.0 Z0.3 F1500.0 E15 ; Draw the first line
G1 X0.4 Y200.0 Z0.3 F5000.0 ; Move to side a little
G1 X0.4 Y20 Z0.3 F1500.0 E30 ; Draw the second line
G92 E0 ; Reset Extruder
G1 Z2.0 F3000 ; Move Z Axis up little to prevent scratching of Heat Bed
G1 X5 Y20 Z0.3 F5000.0 ; Move over to prevent blob squish
G92 E0
G92 E0
G1 F1500 E-6.5
;LAYER_COUNT:49
;LAYER:0
M107
G0 F4800 X97.132 Y96.997 Z0.2
;TYPE:SKIRT
G1 F1500 E0
G1 F600 X97.748 Y96.414 E0.02821
G1 X98.6 Y95.692 E0.06535
G1 X99.271 Y95.184 E0.09335
G1 X100.218 Y94.543 E0.13138
G1 X100.933 Y94.112 E0.15915
G1 X101.939 Y93.578 E0.19703
G1 X102.718 Y93.218 E0.22557
G1 X103.771 Y92.8 E0.26325
G1 X104.555 Y92.536 E0.29077
G1 X105.66 Y92.228 E0.32892
G1 X106.512 Y92.041 E0.35793
G1 X107.622 Y91.862 E0.39533
G1 X108.441 Y91.774 E0.42273
G1 X109.582 Y91.712 E0.46073
G1 X110.432 Y91.713 E0.489
G1 X111.564 Y91.775 E0.52671
G1 X112.38 Y91.863 E0.55401
G1 X113.489 Y92.042 E0.59137
G1 X114.343 Y92.229 E0.62045
G1 X115.457 Y92.54 E0.65892
G1 X116.246 Y92.807 E0.68662
G1 X117.298 Y93.226 E0.72428
G1 X118.074 Y93.585 E0.75272
G1 X119.08 Y94.12 E0.79062
G1 X119.798 Y94.553 E0.8185
G1 X120.744 Y95.195 E0.85653
G1 X121.402 Y95.695 E0.88402
G1 X122.247 Y96.41 E0.92083
G1 X122.873 Y97.001 E0.94947
G1 X123.673 Y97.846 E0.98817
G1 X124.224 Y98.496 E1.01651
G1 X124.911 Y99.402 E1.05433
G1 X125.38 Y100.095 E1.08216
G1 X125.958 Y101.056 E1.11946
G1 X126.356 Y101.807 E1.14773
G1 X126.837 Y102.849 E1.1859
G1 X127.149 Y103.633 E1.21396
G1 X127.515 Y104.722 E1.25218
G1 X127.738 Y105.529 E1.28002
G1 X127.979 Y106.623 E1.31728
G1 X128.117 Y107.463 E1.34559
G1 X128.24 Y108.601 E1.38366
G1 X128.285 Y109.446 E1.41181
G1 X128.284 Y110.578 E1.44946
G1 X128.238 Y111.416 E1.47737
G1 X128.114 Y112.554 E1.51545
G1 X127.976 Y113.392 E1.5437
G1 X127.734 Y114.487 E1.58099
G1 X127.508 Y115.299 E1.60903
G1 X127.141 Y116.386 E1.64719
G1 X126.828 Y117.17 E1.67526
G1 X126.347 Y118.208 E1.71331
G1 X125.954 Y118.949 E1.74121
G1 X125.373 Y119.915 E1.7787
G1 X124.899 Y120.614 E1.80679
G1 X124.212 Y121.518 E1.84456
G1 X123.663 Y122.165 E1.87278
G1 X122.88 Y122.991 E1.91064
G1 X122.268 Y123.571 E1.93868
G1 X121.406 Y124.303 E1.97629
G1 X120.729 Y124.816 E2.00454
G1 X119.782 Y125.457 E2.04258
G1 X119.067 Y125.888 E2.07035
G1 X118.061 Y126.422 E2.10823
G1 X117.282 Y126.782 E2.13677
G1 X116.229 Y127.2 E2.17445
G1 X115.445 Y127.464 E2.20197
G1 X114.34 Y127.772 E2.24012
G1 X113.488 Y127.959 E2.26913
G1 X112.378 Y128.138 E2.30653
G1 X111.559 Y128.226 E2.33392
G1 X110.418 Y128.288 E2.37193
G1 X109.565 Y128.287 E2.4003
G1 X108.424 Y128.224 E2.43831
G1 X107.608 Y128.136 E2.46561
G1 X106.508 Y127.958 E2.50267
G1 X105.657 Y127.771 E2.53165
G1 X104.543 Y127.46 E2.57012
G1 X103.753 Y127.193 E2.59785
G1 X102.699 Y126.773 E2.63559
G1 X101.923 Y126.414 E2.66403
G1 X100.919 Y125.88 E2.70185
G1 X100.202 Y125.447 E2.72971
G1 X99.256 Y124.805 E2.76773
G1 X98.588 Y124.297 E2.79565
G1 X97.734 Y123.572 E2.83291
G1 X97.12 Y122.99 E2.86104
G1 X96.328 Y122.154 E2.89935
G1 X95.774 Y121.502 E2.9278
G1 X95.088 Y120.597 E2.96557
G1 X94.617 Y119.9 E2.99355
G1 X94.037 Y118.934 E3.03103
G1 X93.643 Y118.19 E3.05903
G1 X93.163 Y117.151 E3.0971
G1 X92.85 Y116.363 E3.1253
G1 X92.485 Y115.276 E3.16344
G1 X92.262 Y114.474 E3.19112
G1 X92.023 Y113.391 E3.22801
G1 X91.886 Y112.554 E3.25622
G1 X91.761 Y111.405 E3.29466
G1 X91.715 Y110.554 E3.32301
G1 X91.716 Y109.422 E3.36066
G1 X91.762 Y108.584 E3.38857
G1 X91.886 Y107.446 E3.42664
G1 X92.024 Y106.608 E3.45489
G1 X92.266 Y105.513 E3.49219
G1 X92.492 Y104.701 E3.52022
G1 X92.859 Y103.614 E3.55838
G1 X93.168 Y102.837 E3.58619
G1 X93.649 Y101.796 E3.62434
G1 X94.05 Y101.041 E3.65277
G1 X94.63 Y100.079 E3.69013
G1 X95.101 Y99.385 E3.71803
G1 X95.789 Y98.48 E3.75584
G1 X96.339 Y97.833 E3.78408
G1 X97.132 Y96.997 E3.82241
G0 F4800 X97.422 Y97.272
G1 F600 X98.007 Y96.719 E3.84918
G1 X98.859 Y95.997 E3.88633
G1 X99.495 Y95.515 E3.91287
G1 X100.442 Y94.874 E3.9509
G1 X101.12 Y94.466 E3.97722
G1 X102.126 Y93.932 E4.0151
G1 X102.866 Y93.59 E4.04222
G1 X103.919 Y93.172 E4.0799
G1 X104.662 Y92.922 E4.10597
G1 X105.767 Y92.614 E4.14412
G1 X106.576 Y92.436 E4.17168
G1 X107.686 Y92.257 E4.20907
G1 X108.462 Y92.174 E4.23503
G1 X109.603 Y92.112 E4.27303
G1 X110.41 Y92.112 E4.29988
G1 X111.542 Y92.174 E4.33758
G1 X112.316 Y92.258 E4.36348
G1 X113.425 Y92.437 E4.40084
G1 X114.236 Y92.615 E4.42846
G1 X115.35 Y92.926 E4.46692
G1 X116.098 Y93.178 E4.49318
G1 X117.15 Y93.597 E4.53084
G1 X117.887 Y93.938 E4.55785
G1 X118.893 Y94.473 E4.59575
G1 X119.573 Y94.884 E4.62217
G1 X120.519 Y95.526 E4.6602
G1 X121.144 Y96 E4.68629
G1 X121.989 Y96.715 E4.7231
G1 X122.583 Y97.276 E4.75028
G1 X123.383 Y98.121 E4.78898
G1 X123.905 Y98.738 E4.81586
G1 X124.592 Y99.644 E4.85368
G1 X125.037 Y100.301 E4.88007
G1 X125.615 Y101.262 E4.91737
G1 X125.993 Y101.975 E4.94421
G1 X126.474 Y103.017 E4.98238
G1 X126.769 Y103.761 E5.009
G1 X127.135 Y104.85 E5.04721
G1 X127.348 Y105.615 E5.07363
G1 X127.589 Y106.709 E5.11088
G1 X127.719 Y107.506 E5.13774
G1 X127.842 Y108.644 E5.17581
G1 X127.885 Y109.446 E5.20253
G1 X127.884 Y110.578 E5.24018
G1 X127.84 Y111.373 E5.26666
G1 X127.716 Y112.511 E5.30473
G1 X127.586 Y113.306 E5.33153
G1 X127.344 Y114.401 E5.36883
G1 X127.129 Y115.171 E5.39542
G1 X126.762 Y116.258 E5.43357
G1 X126.465 Y117.002 E5.46022
G1 X125.984 Y118.04 E5.49827
G1 X125.611 Y118.743 E5.52474
G1 X125.03 Y119.709 E5.56223
G1 X124.581 Y120.372 E5.58886
G1 X123.894 Y121.276 E5.62663
G1 X123.373 Y121.89 E5.65341
G1 X122.59 Y122.716 E5.69127
G1 X122.009 Y123.266 E5.71787
G1 X121.147 Y123.998 E5.75549
G1 X120.505 Y124.485 E5.78229
G1 X119.558 Y125.126 E5.82032
G1 X118.88 Y125.534 E5.84664
G1 X117.874 Y126.068 E5.88452
G1 X117.134 Y126.41 E5.91164
G1 X116.081 Y126.828 E5.94932
G1 X115.338 Y127.078 E5.97539
G1 X114.233 Y127.386 E6.01355
G1 X113.424 Y127.564 E6.0411
G1 X112.314 Y127.743 E6.07849
G1 X111.538 Y127.826 E6.10445
G1 X110.397 Y127.888 E6.14246
G1 X109.587 Y127.888 E6.1694
G1 X108.446 Y127.825 E6.2074
G1 X107.672 Y127.741 E6.2333
G1 X106.572 Y127.563 E6.27036
G1 X105.764 Y127.385 E6.29788
G1 X104.65 Y127.074 E6.33635
G1 X103.901 Y126.821 E6.36264
G1 X102.847 Y126.401 E6.40038
G1 X102.111 Y126.06 E6.42736
G1 X101.107 Y125.526 E6.46518
G1 X100.427 Y125.116 E6.49159
G1 X99.481 Y124.474 E6.52962
G1 X98.847 Y123.992 E6.55611
G1 X97.993 Y123.267 E6.59336
G1 X97.41 Y122.715 E6.62007
G1 X96.618 Y121.879 E6.65837
G1 X96.093 Y121.26 E6.68537
G1 X95.407 Y120.355 E6.72314
G1 X94.96 Y119.694 E6.74968
G1 X94.38 Y118.728 E6.78715
G1 X94.006 Y118.022 E6.81373
G1 X93.526 Y116.983 E6.85179
G1 X93.229 Y116.236 E6.87853
G1 X92.864 Y115.149 E6.91667
G1 X92.653 Y114.388 E6.94293
G1 X92.414 Y113.305 E6.97982
G1 X92.283 Y112.51 E7.00662
G1 X92.158 Y111.361 E7.04506
G1 X92.115 Y110.554 E7.07194
G1 X92.116 Y109.422 E7.10959
G1 X92.16 Y108.627 E7.13607
G1 X92.284 Y107.489 E7.17415
G1 X92.414 Y106.694 E7.20094
G1 X92.656 Y105.599 E7.23824
G1 X92.871 Y104.829 E7.26483
G1 X93.238 Y103.742 E7.30299
G1 X93.531 Y103.005 E7.32937
G1 X94.012 Y101.964 E7.36751
G1 X94.393 Y101.247 E7.39451
G1 X94.973 Y100.285 E7.43187
G1 X95.419 Y99.628 E7.45828
G1 X96.107 Y98.723 E7.4961
G1 X96.629 Y98.108 E7.52293
G1 X97.422 Y97.272 E7.56125
G0 F4800 X97.712 Y97.548
G1 F600 X98.265 Y97.025 E7.58657
G1 X99.117 Y96.303 E7.62371
G1 X99.719 Y95.846 E7.64885
G1 X100.666 Y95.205 E7.68688
G1 X101.308 Y94.819 E7.7118
G1 X102.314 Y94.285 E7.74968
G1 X103.013 Y93.962 E7.77529
G1 X104.066 Y93.544 E7.81297
G1 X104.77 Y93.307 E7.83768
G1 X105.875 Y92.999 E7.87583
G1 X106.64 Y92.831 E7.90188
G1 X107.75 Y92.652 E7.93928
G1 X108.484 Y92.573 E7.96383
G1 X109.625 Y92.511 E8.00184
G1 X110.388 Y92.511 E8.02722
G1 X111.52 Y92.573 E8.06492
G1 X112.252 Y92.652 E8.08941
G1 X113.361 Y92.831 E8.12677
G1 X114.128 Y93 E8.1529
G1 X115.242 Y93.311 E8.19136
G1 X115.95 Y93.55 E8.21622
G1 X117.002 Y93.969 E8.25388
G1 X117.699 Y94.292 E8.27943
G1 X118.705 Y94.827 E8.31733
G1 X119.349 Y95.215 E8.34233
G1 X120.295 Y95.857 E8.38036
G1 X120.886 Y96.305 E8.40503
G1 X121.731 Y97.02 E8.44184
G1 X122.292 Y97.551 E8.46753
G1 X123.092 Y98.396 E8.50624
G1 X123.587 Y98.98 E8.5317
G1 X124.274 Y99.886 E8.56952
G1 X124.695 Y100.507 E8.59447
G1 X125.273 Y101.468 E8.63177
G1 X125.63 Y102.142 E8.65714
G1 X126.111 Y103.184 E8.69531
G1 X126.39 Y103.888 E8.72049
G1 X126.756 Y104.977 E8.75871
G1 X126.957 Y105.701 E8.7837
G1 X127.198 Y106.795 E8.82096
G1 X127.321 Y107.549 E8.84637
G1 X127.444 Y108.687 E8.88444
G1 X127.485 Y109.445 E8.90968
G1 X127.484 Y110.577 E8.94733
G1 X127.443 Y111.329 E8.97238
G1 X127.319 Y112.467 E9.01046
G1 X127.195 Y113.22 E9.03584
G1 X126.953 Y114.315 E9.07314
G1 X126.75 Y115.043 E9.09828
G1 X126.383 Y116.13 E9.13643
G1 X126.102 Y116.834 E9.16165
G1 X125.621 Y117.872 E9.1997
G1 X125.269 Y118.537 E9.22472
G1 X124.688 Y119.503 E9.26221
G1 X124.262 Y120.13 E9.28743
G1 X123.575 Y121.034 E9.32519
G1 X123.082 Y121.615 E9.35053
G1 X122.299 Y122.441 E9.38839
G1 X121.75 Y122.961 E9.41354
G1 X120.888 Y123.693 E9.45115
G1 X120.281 Y124.154 E9.4765
G1 X119.334 Y124.795 E9.51454
G1 X118.692 Y125.181 E9.53945
G1 X117.686 Y125.715 E9.57733
G1 X116.987 Y126.038 E9.60295
G1 X115.934 Y126.456 E9.64063
G1 X115.23 Y126.693 E9.66533
G1 X114.125 Y127.001 E9.70349
G1 X113.36 Y127.169 E9.72954
G1 X112.25 Y127.348 E9.76693
G1 X111.516 Y127.427 E9.79149
G1 X110.375 Y127.489 E9.82949
G1 X109.609 Y127.488 E9.85497
G1 X108.468 Y127.425 E9.89298
G1 X107.736 Y127.346 E9.91747
G1 X106.636 Y127.168 E9.95453
G1 X105.872 Y127 E9.98055
G1 X104.758 Y126.689 E10.01901
G1 X104.049 Y126.45 E10.0439
G1 X102.995 Y126.03 E10.08164
G1 X102.299 Y125.707 E10.10716
G1 X101.295 Y125.173 E10.14498
G1 X100.651 Y124.785 E10.16999
G1 X99.705 Y124.143 E10.20801
G1 X99.106 Y123.687 E10.23305
G1 X98.252 Y122.962 E10.27031
G1 X97.7 Y122.44 E10.29558
G1 X96.908 Y121.604 E10.33388
G1 X96.412 Y121.019 E10.35939
G1 X95.726 Y120.114 E10.39716
G1 X95.303 Y119.488 E10.42229
G1 X94.723 Y118.522 E10.45977
G1 X94.369 Y117.855 E10.48488
G1 X93.889 Y116.816 E10.52295
G1 X93.608 Y116.108 E10.54828
G1 X93.243 Y115.021 E10.58642
G1 X93.043 Y114.301 E10.61127
G1 X92.804 Y113.218 E10.64816
G1 X92.681 Y112.467 E10.67347
G1 X92.556 Y111.318 E10.71191
G1 X92.515 Y110.555 E10.73733
G1 X92.516 Y109.423 E10.77498
G1 X92.557 Y108.671 E10.80003
G1 X92.681 Y107.533 E10.8381
G1 X92.805 Y106.78 E10.86348
G1 X93.047 Y105.685 E10.90078
G1 X93.25 Y104.957 E10.92592
G1 X93.617 Y103.87 E10.96408
G1 X93.895 Y103.173 E10.98904
G1 X94.376 Y102.132 E11.02718
G1 X94.735 Y101.454 E11.05269
G1 X95.315 Y100.492 E11.09006
G1 X95.737 Y99.87 E11.11506
G1 X96.425 Y98.965 E11.15287
G1 X96.919 Y98.384 E11.17823
G1 X97.712 Y97.548 E11.21656
G0 F4800 X98.003 Y97.823
G1 F600 X98.524 Y97.33 E11.24041
G1 X99.376 Y96.608 E11.27756
G1 X99.943 Y96.177 E11.30125
G1 X100.89 Y95.536 E11.33928
G1 X101.496 Y95.172 E11.36279
G1 X102.502 Y94.638 E11.40067
G1 X103.161 Y94.334 E11.42481
G1 X104.214 Y93.916 E11.46249
G1 X104.877 Y93.692 E11.48577
G1 X105.982 Y93.384 E11.52392
G1 X106.703 Y93.226 E11.54847
G1 X107.813 Y93.047 E11.58587
G1 X108.506 Y92.973 E11.60905
G1 X109.647 Y92.911 E11.64705
G1 X110.366 Y92.911 E11.67097
G1 X111.498 Y92.973 E11.70867
G1 X112.189 Y93.047 E11.73179
G1 X113.298 Y93.226 E11.76915
G1 X114.021 Y93.385 E11.79377
G1 X115.135 Y93.696 E11.83224
G1 X115.802 Y93.921 E11.85565
G1 X116.854 Y94.34 E11.89332
G1 X117.511 Y94.645 E11.91741
G1 X118.517 Y95.18 E11.95531
G1 X119.124 Y95.546 E11.97888
G1 X120.07 Y96.188 E12.01691
G1 X120.627 Y96.611 E12.04017
G1 X121.472 Y97.326 E12.07699
G1 X122.002 Y97.826 E12.10122
G1 X122.802 Y98.671 E12.13992
G1 X123.268 Y99.221 E12.1639
G1 X123.955 Y100.127 E12.20172
G1 X124.352 Y100.713 E12.22526
G1 X124.93 Y101.674 E12.26256
G1 X125.266 Y102.31 E12.28648
G1 X125.747 Y103.352 E12.32465
G1 X126.011 Y104.015 E12.34839
G1 X126.377 Y105.104 E12.3866
G1 X126.566 Y105.787 E12.41017
G1 X126.807 Y106.881 E12.44743
G1 X126.924 Y107.592 E12.47139
G1 X127.047 Y108.73 E12.50946
G1 X127.085 Y109.445 E12.53328
G1 X127.084 Y110.577 E12.57093
G1 X127.045 Y111.286 E12.59455
G1 X126.921 Y112.424 E12.63262
G1 X126.804 Y113.133 E12.65652
G1 X126.562 Y114.228 E12.69382
G1 X126.371 Y114.915 E12.71754
G1 X126.004 Y116.002 E12.7557
G1 X125.739 Y116.666 E12.77947
G1 X125.258 Y117.704 E12.81752
G1 X124.926 Y118.331 E12.84112
G1 X124.345 Y119.297 E12.87861
G1 X123.944 Y119.888 E12.90237
G1 X123.257 Y120.792 E12.94013
G1 X122.792 Y121.34 E12.96404
G1 X122.009 Y122.166 E13.00189
G1 X121.491 Y122.656 E13.02561
G1 X120.629 Y123.388 E13.06322
G1 X120.057 Y123.823 E13.08712
G1 X119.11 Y124.464 E13.12516
G1 X118.504 Y124.828 E13.14867
G1 X117.498 Y125.362 E13.18655
G1 X116.839 Y125.666 E13.21069
G1 X115.786 Y126.084 E13.24837
G1 X115.123 Y126.308 E13.27165
G1 X114.018 Y126.616 E13.3098
G1 X113.297 Y126.774 E13.33435
G1 X112.187 Y126.953 E13.37174
G1 X111.494 Y127.027 E13.39492
G1 X110.353 Y127.089 E13.43293
G1 X109.631 Y127.089 E13.45694
G1 X108.49 Y127.026 E13.49495
G1 X107.8 Y126.951 E13.51804
G1 X106.7 Y126.773 E13.5551
G1 X105.979 Y126.615 E13.57965
G1 X104.865 Y126.304 E13.61812
G1 X104.197 Y126.078 E13.64157
G1 X103.143 Y125.658 E13.67931
G1 X102.487 Y125.354 E13.70336
G1 X101.483 Y124.82 E13.74118
G1 X100.876 Y124.454 E13.76475
G1 X99.93 Y123.812 E13.80278
G1 X99.365 Y123.382 E13.82639
G1 X98.511 Y122.657 E13.86365
G1 X97.991 Y122.165 E13.88746
G1 X97.199 Y121.329 E13.92577
G1 X96.73 Y120.777 E13.94986
G1 X96.044 Y119.872 E13.98763
G1 X95.646 Y119.282 E14.0113
G1 X95.066 Y118.316 E14.04877
G1 X94.732 Y117.687 E14.07246
G1 X94.252 Y116.648 E14.11053
G1 X93.987 Y115.981 E14.1344
G1 X93.622 Y114.894 E14.17254
G1 X93.434 Y114.215 E14.19597
G1 X93.195 Y113.132 E14.23286
G1 X93.079 Y112.424 E14.25672
G1 X92.954 Y111.275 E14.29516
G1 X92.915 Y110.555 E14.31914
G1 X92.916 Y109.423 E14.35679
G1 X92.955 Y108.714 E14.38041
G1 X93.079 Y107.576 E14.41849
G1 X93.196 Y106.867 E14.44239
G1 X93.438 Y105.772 E14.47968
G1 X93.629 Y105.085 E14.5034
G1 X93.996 Y103.998 E14.54156
G1 X94.258 Y103.341 E14.56509
G1 X94.739 Y102.3 E14.60323
G1 X95.078 Y101.66 E14.62731
G1 X95.658 Y100.698 E14.66468
G1 X96.056 Y100.112 E14.68824
G1 X96.744 Y99.207 E14.72605
G1 X97.21 Y98.659 E14.74997
G1 X98.003 Y97.823 E14.7883
G0 F4800 X98.293 Y98.098
G1 F600 X98.783 Y97.635 E14.81072
G1 X99.635 Y96.913 E14.84786
G1 X100.168 Y96.509 E14.87011
G1 X101.115 Y95.868 E14.90814
G1 X101.683 Y95.526 E14.9302
G1 X102.689 Y94.992 E14.96808
G1 X103.308 Y94.705 E14.99077
G1 X104.361 Y94.287 E15.02845
G1 X104.984 Y94.078 E15.05031
G1 X106.089 Y93.77 E15.08846
G1 X106.767 Y93.621 E15.11155
G1 X107.877 Y93.442 E15.14895
G1 X108.528 Y93.372 E15.17072
G1 X109.669 Y93.31 E15.20873
G1 X110.344 Y93.31 E15.23118
G1 X111.476 Y93.372 E15.26889
G1 X112.125 Y93.442 E15.2906
G1 X113.234 Y93.621 E15.32796
G1 X113.913 Y93.77 E15.35108
G1 X115.027 Y94.081 E15.38955
G1 X115.654 Y94.293 E15.41156
G1 X116.706 Y94.712 E15.44923
G1 X117.323 Y94.998 E15.47185
G1 X118.329 Y95.533 E15.50974
G1 X118.9 Y95.877 E15.53191
G1 X119.846 Y96.519 E15.56994
G1 X120.369 Y96.916 E15.59178
G1 X121.214 Y97.631 E15.62859
G1 X121.711 Y98.101 E15.65135
G1 X122.511 Y98.946 E15.69005
G1 X122.949 Y99.463 E15.71258
G1 X123.636 Y100.369 E15.7504
G1 X124.009 Y100.919 E15.77251
G1 X124.587 Y101.88 E15.8098
G1 X124.903 Y102.477 E15.83227
