;FLAVOR:Marlin
;TIME:3001
;Filament used: 3.2031m
;Layer height: 0.3
;MINX:85.173
;MINY:77.349
;MINZ:0.2
;MAXX:134.443
;MAXY:140.484
;MAXZ:10.4
;Generated with Cura_SteamEngine 4.12.1
M82 ;absolute extrusion mode
; Ender 3 Custom Start G-code
; Parallel Bed and Extruder heatup
M140 S70.0     ; set bed temperature and continue
M104 S210.0   ; set hot end temperature and continue
M105 ; Report temp
M190 S70.0     ; wait for bed temperature to reach
M109 S210.0   ; wait for hot end temperature to reach
; Default initial steps
G92 E0 ; Reset Extruder
G28 ; Home all axes
M117 Auto bed-level GO! ; Message on LCD
G29 ; Auto bed-level (BL-touch)
G1 Z2.0 F3000 ; Move Z Axis up little to prevent scratching of Heat Bed
G1 X0.1 Y20 Z0.3 F5000.0 ; Move to start position
G1 X0.1 Y200.0 Z0.3 F1500.0 E15 ; Draw the first line
G1 X0.4 Y200.0 Z0.3 F5000.0 ; Move to side a little
G1 X0.4 Y20 Z0.3 F1500.0 E30 ; Draw the second line
G92 E0 ; Reset Extruder
G1 Z2.0 F3000 ; Move Z Axis up little to prevent scratching of Heat Bed
G1 X5 Y20 Z0.3 F5000.0 ; Move over to prevent blob squish
G92 E0
G92 E0
G1 F1500 E-6.5
;LAYER_COUNT:35
;LAYER:0
M107
G0 F4800 X87.325 Y81.832 Z0.2
;TYPE:SKIRT
G1 F1500 E0
G1 F600 X87.876 Y81.266 E0.02627
G1 X88.593 Y80.674 E0.0572
G1 X89.158 Y80.262 E0.08046
G1 X89.819 Y79.829 E0.10674
G1 X90.52 Y79.466 E0.13299
G1 X90.542 Y79.457 E0.13378
G1 X90.802 Y79.265 E0.14453
G1 X91.481 Y78.862 E0.1708
G1 X92.197 Y78.529 E0.19706
G1 X92.943 Y78.271 E0.22331
G1 X93.712 Y78.089 E0.2496
G1 X94.495 Y77.986 E0.27586
G1 X95.12 Y77.961 E0.29667
G1 X95.754 Y77.961 E0.31776
G1 X96.543 Y78.001 E0.34403
G1 X97.323 Y78.12 E0.37027
G1 X97.532 Y78.174 E0.37745
G1 X97.599 Y78.155 E0.37977
G1 X98.377 Y78.019 E0.40604
G1 X99.333 Y77.96 E0.4379
G1 X99.983 Y77.96 E0.45952
G1 X100.772 Y78 E0.48579
G1 X101.552 Y78.119 E0.51203
G1 X101.684 Y78.153 E0.51657
G1 X101.96 Y78.044 E0.52644
G1 X102.72 Y77.829 E0.55271
G1 X103.498 Y77.693 E0.57898
G1 X104.454 Y77.634 E0.61083
G1 X105.104 Y77.634 E0.63245
G1 X105.893 Y77.674 E0.65873
G1 X106.373 Y77.747 E0.67488
G1 X106.618 Y77.678 E0.68334
G1 X107.396 Y77.542 E0.70961
G1 X108.352 Y77.483 E0.74147
G1 X109.002 Y77.483 E0.76309
G1 X109.311 Y77.499 E0.77338
G1 X109.835 Y77.407 E0.79107
G1 X110.787 Y77.349 E0.8228
G1 X111.453 Y77.349 E0.84495
G1 X112.242 Y77.389 E0.87122
G1 X113.022 Y77.508 E0.89747
G1 X113.787 Y77.706 E0.92375
G1 X114.218 Y77.866 E0.93904
G1 X114.868 Y77.752 E0.96099
G1 X115.824 Y77.693 E0.99285
G1 X116.474 Y77.693 E1.01447
G1 X117.263 Y77.733 E1.04074
G1 X118.043 Y77.852 E1.06698
G1 X118.808 Y78.05 E1.09327
G1 X119.273 Y78.222 E1.10976
G1 X119.324 Y78.213 E1.11148
G1 X120.28 Y78.154 E1.14334
G1 X120.898 Y78.154 E1.16389
G1 X121.687 Y78.194 E1.19017
G1 X122.467 Y78.313 E1.21641
G1 X122.547 Y78.334 E1.21916
G1 X122.701 Y78.273 E1.22467
G1 X123.461 Y78.058 E1.25094
G1 X124.238 Y77.921 E1.27718
G1 X125.198 Y77.862 E1.30917
G1 X125.88 Y77.862 E1.33186
G1 X126.669 Y77.902 E1.35813
G1 X127.449 Y78.021 E1.38437
G1 X128.214 Y78.219 E1.41066
G1 X128.954 Y78.493 E1.4369
G1 X129.663 Y78.841 E1.46317
G1 X130.472 Y79.357 E1.49509
G1 X131.024 Y79.759 E1.5178
G1 X131.638 Y80.255 E1.54405
G1 X132.198 Y80.812 E1.57032
G1 X132.7 Y81.422 E1.5966
G1 X133.137 Y82.079 E1.62284
G1 X133.506 Y82.777 E1.6491
G1 X133.849 Y83.649 E1.68027
G1 X134.06 Y84.297 E1.70293
G1 X134.266 Y85.059 E1.72919
G1 X134.394 Y85.839 E1.75548
G1 X134.443 Y86.627 E1.78174
G1 X134.411 Y87.416 E1.808
G1 X134.3 Y88.198 E1.83427
G1 X134.111 Y88.964 E1.86051
G1 X133.749 Y89.924 E1.89464
G1 X133.97 Y98.381 E2.17601
G1 X133.973 Y98.584 E2.18277
G1 X133.974 Y116.564 E2.78078
G1 X133.968 Y116.878 E2.79123
G1 X133.917 Y118.143 E2.83334
G1 X133.869 Y118.744 E2.85339
G1 X133.719 Y120.014 E2.89592
G1 X133.625 Y120.609 E2.91596
G1 X133.384 Y121.83 E2.95735
G1 X133.235 Y122.453 E2.97866
G1 X132.887 Y123.677 E3.02098
G1 X132.705 Y124.236 E3.04054
G1 X132.271 Y125.416 E3.08235
G1 X132.033 Y125.991 E3.10305
G1 X131.496 Y127.155 E3.14569
G1 X131.222 Y127.693 E3.16577
G1 X130.6 Y128.806 E3.20818
G1 X130.276 Y129.335 E3.22881
G1 X129.581 Y130.375 E3.27041
G1 X129.215 Y130.878 E3.2911
G1 X128.426 Y131.876 E3.33342
G1 X128.034 Y132.335 E3.35349
G1 X127.174 Y133.265 E3.39562
G1 X126.739 Y133.699 E3.41606
G1 X125.809 Y134.558 E3.45817
G1 X125.354 Y134.947 E3.47808
G1 X124.357 Y135.735 E3.52034
G1 X123.848 Y136.105 E3.54127
G1 X122.806 Y136.8 E3.58293
G1 X122.285 Y137.119 E3.60325
G1 X121.169 Y137.743 E3.64578
G1 X120.624 Y138.02 E3.66611
G1 X119.477 Y138.548 E3.70811
G1 X118.912 Y138.782 E3.72845
G1 X117.718 Y139.222 E3.77077
G1 X117.154 Y139.406 E3.7905
G1 X115.958 Y139.746 E3.83186
G1 X115.343 Y139.894 E3.8529
G1 X114.093 Y140.142 E3.89528
G1 X113.492 Y140.237 E3.91552
G1 X112.225 Y140.387 E3.95796
G1 X111.611 Y140.435 E3.97844
G1 X110.35 Y140.484 E4.02041
G1 X109.738 Y140.484 E4.04077
G1 X108.475 Y140.434 E4.08281
G1 X107.866 Y140.386 E4.10313
G1 X106.6 Y140.236 E4.14553
G1 X106.008 Y140.142 E4.16547
G1 X104.787 Y139.901 E4.20686
G1 X104.165 Y139.752 E4.22813
G1 X102.937 Y139.403 E4.27059
G1 X102.367 Y139.217 E4.29054
G1 X101.178 Y138.778 E4.33269
G1 X100.61 Y138.543 E4.35314
G1 X99.46 Y138.012 E4.39527
G1 X98.927 Y137.74 E4.41517
G1 X97.813 Y137.118 E4.4576
G1 X97.282 Y136.793 E4.47831
G1 X96.239 Y136.096 E4.52003
G1 X95.734 Y135.729 E4.5408
G1 X94.739 Y134.942 E4.58299
G1 X94.283 Y134.551 E4.60297
G1 X93.354 Y133.692 E4.64505
G1 X92.92 Y133.258 E4.66547
G1 X92.058 Y132.325 E4.70772
G1 X91.665 Y131.866 E4.72781
G1 X90.877 Y130.868 E4.77011
G1 X90.51 Y130.362 E4.7909
G1 X89.817 Y129.323 E4.83244
G1 X89.499 Y128.804 E4.85268
G1 X88.875 Y127.689 E4.89518
G1 X88.595 Y127.138 E4.91574
G1 X88.065 Y125.985 E4.95794
G1 X87.833 Y125.423 E4.97816
G1 X87.395 Y124.234 E5.02031
G1 X87.211 Y123.671 E5.04001
G1 X86.871 Y122.475 E5.08136
G1 X86.723 Y121.86 E5.1024
G1 X86.475 Y120.61 E5.14479
G1 X86.38 Y120.006 E5.16512
G1 X86.23 Y118.735 E5.20769
G1 X86.182 Y118.126 E5.22801
G1 X86.133 Y116.874 E5.26968
G1 X86.127 Y116.569 E5.27983
G1 X86.126 Y98.586 E5.87795
G1 X86.129 Y98.383 E5.8847
G1 X86.297 Y91.943 E6.09897
G1 X86.233 Y91.832 E6.10323
G1 X85.912 Y91.11 E6.12951
G1 X85.773 Y90.718 E6.14334
G1 X85.557 Y90.055 E6.16654
G1 X85.35 Y89.293 E6.1928
G1 X85.222 Y88.514 E6.21906
G1 X85.173 Y87.726 E6.24531
G1 X85.205 Y86.936 E6.27161
G1 X85.316 Y86.155 E6.29785
G1 X85.557 Y85.223 E6.32987
G1 X85.773 Y84.56 E6.35306
G1 X86.055 Y83.822 E6.37934
G1 X86.41 Y83.117 E6.40559
G1 X86.835 Y82.452 E6.43184
G1 X87.325 Y81.832 E6.45812
G0 F4800 X87.679 Y82.036
G1 F600 X88.222 Y81.491 E6.48371
G1 X88.829 Y80.997 E6.50974
G1 X89.394 Y80.585 E6.533
G1 X90.038 Y80.165 E6.55857
G1 X90.722 Y79.813 E6.58416
G1 X90.748 Y79.803 E6.58508
G1 X91.074 Y79.565 E6.59851
G1 X91.738 Y79.179 E6.62405
G1 X92.44 Y78.863 E6.64966
G1 X93.17 Y78.622 E6.67523
G1 X93.922 Y78.459 E6.70082
G1 X94.686 Y78.374 E6.72639
G1 X95.12 Y78.361 E6.74083
G1 X95.754 Y78.361 E6.76191
G1 X96.522 Y78.401 E6.78749
G1 X97.282 Y78.52 E6.81308
G1 X97.541 Y78.589 E6.82199
G1 X97.766 Y78.528 E6.82975
G1 X98.525 Y78.404 E6.85533
G1 X99.333 Y78.36 E6.88224
G1 X99.983 Y78.36 E6.90386
G1 X100.751 Y78.4 E6.92944
G1 X101.511 Y78.519 E6.95502
G1 X101.709 Y78.572 E6.96184
G1 X102.144 Y78.404 E6.97735
G1 X102.887 Y78.202 E7.00296
G1 X103.646 Y78.078 E7.02854
G1 X104.454 Y78.034 E7.05545
G1 X105.104 Y78.034 E7.07707
G1 X105.872 Y78.074 E7.10265
G1 X106.398 Y78.156 E7.12036
G1 X106.785 Y78.051 E7.13369
G1 X107.544 Y77.927 E7.15927
G1 X108.352 Y77.883 E7.18619
G1 X109.002 Y77.883 E7.20781
G1 X109.324 Y77.9 E7.21853
G1 X109.983 Y77.793 E7.24074
G1 X110.787 Y77.749 E7.26752
G1 X111.453 Y77.749 E7.28967
G1 X112.221 Y77.789 E7.31525
G1 X112.981 Y77.908 E7.34083
G1 X113.724 Y78.106 E7.36641
G1 X114.183 Y78.281 E7.38275
G1 X114.257 Y78.261 E7.3853
G1 X115.016 Y78.137 E7.41087
G1 X115.824 Y78.093 E7.43779
G1 X116.474 Y78.093 E7.45941
G1 X117.242 Y78.133 E7.48499
G1 X118.002 Y78.252 E7.51057
G1 X118.745 Y78.45 E7.53615
G1 X119.235 Y78.637 E7.55359
G1 X119.473 Y78.598 E7.56161
G1 X120.28 Y78.554 E7.58849
G1 X120.898 Y78.554 E7.60905
G1 X121.666 Y78.594 E7.63463
G1 X122.426 Y78.713 E7.66021
G1 X122.576 Y78.753 E7.66537
G1 X122.886 Y78.633 E7.67643
G1 X123.628 Y78.431 E7.70201
G1 X124.387 Y78.307 E7.72759
G1 X125.198 Y78.262 E7.7546
G1 X125.88 Y78.262 E7.77729
G1 X126.648 Y78.302 E7.80286
G1 X127.408 Y78.421 E7.82845
G1 X128.151 Y78.619 E7.85403
G1 X128.87 Y78.893 E7.87962
G1 X129.556 Y79.24 E7.90519
G1 X130.236 Y79.68 E7.93212
G1 X130.788 Y80.082 E7.95484
G1 X131.386 Y80.567 E7.98045
G1 X131.93 Y81.111 E8.00603
G1 X132.414 Y81.708 E8.0316
G1 X132.834 Y82.352 E8.05717
G1 X133.185 Y83.037 E8.08277
G1 X133.468 Y83.773 E8.10899
G1 X133.679 Y84.421 E8.13166
G1 X133.879 Y85.164 E8.15725
G1 X134.001 Y85.923 E8.18282
G1 X134.043 Y86.691 E8.2084
G1 X134.005 Y87.459 E8.23398
G1 X133.888 Y88.219 E8.25955
G1 X133.692 Y88.963 E8.28514
G1 X133.374 Y89.787 E8.31452
G1 X133.35 Y89.941 E8.3197
G1 X133.57 Y98.391 E8.60085
G1 X133.573 Y98.584 E8.60727
G1 X133.574 Y116.564 E9.20528
G1 X133.568 Y116.862 E9.2152
G1 X133.517 Y118.127 E9.25731
G1 X133.472 Y118.697 E9.27632
G1 X133.322 Y119.967 E9.31886
G1 X133.233 Y120.532 E9.33788
G1 X132.992 Y121.753 E9.37928
G1 X132.85 Y122.344 E9.39949
G1 X132.502 Y123.568 E9.44182
G1 X132.329 Y124.098 E9.46036
G1 X131.895 Y125.278 E9.50218
G1 X131.669 Y125.824 E9.52183
G1 X131.132 Y126.988 E9.56447
G1 X130.873 Y127.498 E9.58349
G1 X130.251 Y128.611 E9.6259
G1 X129.944 Y129.113 E9.64547
G1 X129.249 Y130.153 E9.68707
G1 X128.901 Y130.63 E9.70671
G1 X128.112 Y131.628 E9.74903
G1 X127.74 Y132.063 E9.76806
G1 X126.88 Y132.993 E9.81019
G1 X126.468 Y133.405 E9.82957
G1 X125.538 Y134.264 E9.87168
G1 X125.106 Y134.634 E9.8906
G1 X124.109 Y135.422 E9.93287
G1 X123.626 Y135.772 E9.9527
G1 X122.584 Y136.467 E9.99436
G1 X122.089 Y136.77 E10.01367
G1 X120.973 Y137.394 E10.05619
G1 X120.456 Y137.657 E10.07549
G1 X119.309 Y138.185 E10.11748
G1 X118.774 Y138.407 E10.13675
G1 X117.58 Y138.847 E10.17907
G1 X117.045 Y139.021 E10.19778
G1 X115.849 Y139.361 E10.23914
G1 X115.265 Y139.502 E10.25912
G1 X114.015 Y139.75 E10.30151
G1 X113.445 Y139.84 E10.3207
G1 X112.178 Y139.99 E10.36313
G1 X111.595 Y140.035 E10.38258
G1 X110.334 Y140.084 E10.42455
G1 X109.754 Y140.084 E10.44385
G1 X108.491 Y140.034 E10.48589
G1 X107.913 Y139.989 E10.50517
G1 X106.647 Y139.839 E10.54757
G1 X106.085 Y139.75 E10.5665
G1 X104.864 Y139.509 E10.60789
G1 X104.274 Y139.367 E10.62807
G1 X103.046 Y139.018 E10.67053
G1 X102.506 Y138.842 E10.68942
G1 X101.317 Y138.403 E10.73158
G1 X100.778 Y138.179 E10.75099
G1 X99.628 Y137.648 E10.79312
G1 X99.122 Y137.391 E10.812
G1 X98.008 Y136.769 E10.85444
G1 X97.504 Y136.461 E10.87408
G1 X96.461 Y135.764 E10.9158
G1 X95.982 Y135.415 E10.93552
G1 X94.987 Y134.628 E10.97771
G1 X94.554 Y134.257 E10.99668
G1 X93.625 Y133.398 E11.03876
G1 X93.214 Y132.987 E11.05809
G1 X92.352 Y132.054 E11.10034
G1 X91.979 Y131.618 E11.11942
G1 X91.191 Y130.62 E11.16172
G1 X90.843 Y130.14 E11.18144
G1 X90.15 Y129.101 E11.22298
G1 X89.848 Y128.609 E11.24218
G1 X89.224 Y127.494 E11.28467
G1 X88.958 Y126.971 E11.30419
G1 X88.428 Y125.818 E11.3464
G1 X88.208 Y125.285 E11.36557
G1 X87.77 Y124.096 E11.40772
G1 X87.596 Y123.562 E11.4264
G1 X87.256 Y122.366 E11.46775
G1 X87.115 Y121.782 E11.48774
G1 X86.867 Y120.532 E11.53012
G1 X86.777 Y119.959 E11.54941
G1 X86.627 Y118.688 E11.59198
G1 X86.582 Y118.11 E11.61126
G1 X86.533 Y116.858 E11.65294
G1 X86.527 Y116.569 E11.66255
G1 X86.526 Y98.586 E12.26067
G1 X86.529 Y98.393 E12.26709
G1 X86.7 Y91.838 E12.48518
G1 X86.545 Y91.561 E12.49574
G1 X86.153 Y90.594 E12.53044
G1 X85.937 Y89.931 E12.55364
G1 X85.737 Y89.189 E12.5792
G1 X85.615 Y88.429 E12.6048
G1 X85.573 Y87.661 E12.63038
G1 X85.611 Y86.893 E12.65595
G1 X85.728 Y86.133 E12.68153
G1 X85.937 Y85.347 E12.70858
G1 X86.153 Y84.684 E12.73177
G1 X86.429 Y83.966 E12.75736
G1 X86.778 Y83.28 E12.78296
G1 X87.196 Y82.635 E12.80852
G1 X87.679 Y82.036 E12.83411
G0 F4800 X88.032 Y82.242
G1 F600 X88.567 Y81.719 E12.859
G1 X89.065 Y81.32 E12.88022
G1 X89.63 Y80.908 E12.90348
G1 X90.257 Y80.5 E12.92836
G1 X90.924 Y80.162 E12.95323
G1 X90.942 Y80.155 E12.95387
G1 X91.344 Y79.867 E12.97032
G1 X91.994 Y79.498 E12.99518
G1 X92.681 Y79.2 E13.02009
G1 X93.395 Y78.977 E13.04497
G1 X94.129 Y78.832 E13.06985
G1 X95.12 Y78.761 E13.1029
G1 X95.754 Y78.761 E13.12398
G1 X96.501 Y78.801 E13.14886
G1 X97.239 Y78.92 E13.17373
G1 X97.543 Y79.003 E13.18421
G1 X97.931 Y78.902 E13.19754
G1 X98.671 Y78.791 E13.22243
G1 X99.333 Y78.76 E13.24447
G1 X99.983 Y78.76 E13.26609
G1 X100.73 Y78.8 E13.29097
G1 X101.468 Y78.919 E13.31584
G1 X101.731 Y78.991 E13.32491
G1 X102.328 Y78.765 E13.34614
G1 X103.052 Y78.576 E13.37102
G1 X103.792 Y78.465 E13.39591
G1 X104.454 Y78.434 E13.41795
G1 X105.104 Y78.434 E13.43957
G1 X105.851 Y78.474 E13.46445
G1 X106.414 Y78.565 E13.48342
G1 X106.95 Y78.425 E13.50185
G1 X107.69 Y78.314 E13.52674
G1 X108.352 Y78.283 E13.54878
G1 X109.002 Y78.283 E13.5704
G1 X109.345 Y78.301 E13.58182
G1 X109.389 Y78.29 E13.58333
G1 X110.129 Y78.18 E13.60821
G1 X110.787 Y78.149 E13.63012
G1 X111.453 Y78.149 E13.65227
G1 X112.2 Y78.189 E13.67715
G1 X112.938 Y78.308 E13.70202
G1 X113.66 Y78.506 E13.72692
G1 X114.162 Y78.703 E13.74485
G1 X114.422 Y78.635 E13.75379
G1 X115.162 Y78.524 E13.77868
G1 X115.824 Y78.493 E13.80072
G1 X116.474 Y78.493 E13.82234
G1 X117.221 Y78.533 E13.84722
G1 X117.959 Y78.652 E13.87209
G1 X118.681 Y78.85 E13.89699
G1 X119.189 Y79.049 E13.91513
G1 X119.618 Y78.985 E13.92956
G1 X120.28 Y78.954 E13.9516
G1 X120.898 Y78.954 E13.97216
G1 X121.645 Y78.994 E13.99704
G1 X122.383 Y79.113 E14.0219
G1 X122.599 Y79.172 E14.02935
G1 X123.069 Y78.994 E14.04606
G1 X123.793 Y78.804 E14.07096
G1 X124.533 Y78.694 E14.09584
G1 X125.198 Y78.662 E14.11799
G1 X125.88 Y78.662 E14.14067
G1 X126.627 Y78.702 E14.16555
G1 X127.365 Y78.821 E14.19041
G1 X128.087 Y79.019 E14.21531
G1 X128.783 Y79.292 E14.24018
G1 X129.446 Y79.639 E14.26507
G1 X130.001 Y80.004 E14.28716
G1 X130.553 Y80.406 E14.30987
G1 X131.133 Y80.878 E14.33475
G1 X131.66 Y81.409 E14.35963
G1 X132.127 Y81.993 E14.3845
G1 X132.529 Y82.624 E14.40938
G1 X132.861 Y83.294 E14.43425
G1 X133.088 Y83.897 E14.45568
G1 X133.299 Y84.545 E14.47835
G1 X133.492 Y85.267 E14.50321
G1 X133.607 Y86.007 E14.52812
G1 X133.643 Y86.754 E14.55299
G1 X133.598 Y87.5 E14.57785
G1 X133.475 Y88.238 E14.60273
G1 X133.273 Y88.959 E14.62764
G1 X133.01 Y89.621 E14.65133
G1 X132.939 Y89.777 E14.65703
G1 X132.951 Y89.952 E14.66286
G1 X133.171 Y98.402 E14.94401
G1 X133.173 Y98.584 E14.95006
G1 X133.174 Y116.564 E15.54808
G1 X133.168 Y116.846 E15.55746
G1 X133.117 Y118.111 E15.59957
G1 X133.075 Y118.65 E15.61755
G1 X132.925 Y119.92 E15.66008
G1 X132.841 Y120.455 E15.67809
G1 X132.6 Y121.676 E15.71949
G1 X132.465 Y122.234 E15.73858
G1 X132.117 Y123.458 E15.78091
G1 X131.954 Y123.96 E15.79846
G1 X131.52 Y125.14 E15.84028
G1 X131.306 Y125.656 E15.85886
G1 X130.769 Y126.82 E15.90149
G1 X130.524 Y127.303 E15.91951
G1 X129.902 Y128.416 E15.96191
G1 X129.611 Y128.89 E15.98041
G1 X128.916 Y129.93 E16.02202
G1 X128.587 Y130.382 E16.04061
G1 X127.798 Y131.38 E16.08293
G1 X127.446 Y131.792 E16.10095
G1 X126.586 Y132.722 E16.14308
G1 X126.197 Y133.111 E16.16138
G1 X125.267 Y133.97 E16.20348
G1 X124.858 Y134.32 E16.22139
G1 X123.861 Y135.108 E16.26366
G1 X123.404 Y135.439 E16.28242
G1 X122.362 Y136.134 E16.32408
G1 X121.894 Y136.421 E16.34234
G1 X120.778 Y137.045 E16.38487
G1 X120.289 Y137.294 E16.40312
G1 X119.142 Y137.822 E16.44512
G1 X118.635 Y138.031 E16.46336
G1 X117.441 Y138.471 E16.50568
G1 X116.935 Y138.636 E16.52338
G1 X115.739 Y138.976 E16.56474
G1 X115.187 Y139.109 E16.58362
G1 X113.937 Y139.357 E16.62601
G1 X113.398 Y139.442 E16.64416
G1 X112.131 Y139.592 E16.68659
G1 X111.58 Y139.636 E16.70498
G1 X110.319 Y139.685 E16.74695
G1 X109.77 Y139.685 E16.76521
G1 X108.507 Y139.635 E16.80725
G1 X107.96 Y139.591 E16.8255
G1 X106.694 Y139.441 E16.8679
G1 X106.162 Y139.358 E16.88581
G1 X104.941 Y139.117 E16.92721
G1 X104.383 Y138.982 E16.9463
G1 X103.155 Y138.633 E16.98876
