;FLAVOR:Marlin
;TIME:6409
;Filament used: 7.62871m
;Layer height: 0.3
;MINX:87.018
;MINY:31.735
;MINZ:0.2
;MAXX:133.082
;MAXY:188.266
;MAXZ:14.3
;Generated with Cura_SteamEngine 4.12.1
M82 ;absolute extrusion mode
; Ender 3 Custom Start G-code
; Parallel Bed and Extruder heatup
M140 S70.0     ; set bed temperature and continue
M104 S210.0   ; set hot end temperature and continue
M105 ; Report temp
M190 S70.0     ; wait for bed temperature to reach
M109 S210.0   ; wait for hot end temperature to reach
; Default initial steps
G92 E0 ; Reset Extruder
G28 ; Home all axes
M117 Auto bed-level GO! ; Message on LCD
G29 ; Auto bed-level (BL-touch)
G1 Z2.0 F3000 ; Move Z Axis up little to prevent scratching of Heat Bed
G1 X0.1 Y20 Z0.3 F5000.0 ; Move to start position
G1 X0.1 Y200.0 Z0.3 F1500.0 E15 ; Draw the first line
G1 X0.4 Y200.0 Z0.3 F5000.0 ; Move to side a little
G1 X0.4 Y20 Z0.3 F1500.0 E30 ; Draw the second line
G92 E0 ; Reset Extruder
G1 Z2.0 F3000 ; Move Z Axis up little to prevent scratching of Heat Bed
G1 X5 Y20 Z0.3 F5000.0 ; Move over to prevent blob squish
G92 E0
G92 E0
G1 F1500 E-6.5
;LAYER_COUNT:48
;LAYER:0
M107
G0 F4800 X91.449 Y43.569 Z0.2
;TYPE:SKIRT
G1 F1500 E0
G1 F600 X92.204 Y42.106 E0.05476
G1 X92.727 Y41.235 E0.08855
G1 X93.655 Y39.898 E0.14268
G1 X94.27 Y39.122 E0.17561
G1 X95.372 Y37.9 E0.23034
G1 X96.1 Y37.192 E0.26412
G1 X97.346 Y36.128 E0.31861
G1 X98.142 Y35.532 E0.35169
G1 X99.506 Y34.64 E0.40589
G1 X100.382 Y34.145 E0.43936
G1 X101.862 Y33.43 E0.49403
G1 X102.801 Y33.049 E0.52773
G1 X104.358 Y32.533 E0.58229
G1 X105.316 Y32.282 E0.61523
G1 X106.912 Y31.97 E0.66931
G1 X107.91 Y31.841 E0.70278
G1 X109.567 Y31.735 E0.75801
G1 X110.573 Y31.736 E0.79147
G1 X112.211 Y31.843 E0.84606
G1 X113.207 Y31.972 E0.87947
G1 X114.805 Y32.286 E0.93363
G1 X115.759 Y32.537 E0.96644
G1 X117.304 Y33.05 E1.02059
G1 X118.241 Y33.43 E1.05422
G1 X119.718 Y34.144 E1.10878
G1 X120.595 Y34.641 E1.14231
G1 X121.97 Y35.541 E1.19697
G1 X122.768 Y36.14 E1.23016
G1 X124.013 Y37.205 E1.28465
G1 X124.74 Y37.913 E1.3184
G1 X125.843 Y39.138 E1.37323
G1 X126.46 Y39.919 E1.40633
G1 X127.385 Y41.256 E1.46041
G1 X127.905 Y42.123 E1.49403
G1 X128.659 Y43.587 E1.5488
G1 X129.058 Y44.5 E1.58194
G1 X129.615 Y46.037 E1.63632
G1 X129.896 Y47 E1.66968
G1 X130.251 Y48.595 E1.72403
G1 X130.405 Y49.586 E1.75739
G1 X130.552 Y51.209 E1.81159
G1 X130.581 Y51.709 E1.82825
G1 X133.079 Y147.071 E5.00109
G1 X133.082 Y147.275 E5.00787
G1 X133.082 Y165.246 E5.60559
G1 X133.067 Y165.723 E5.62146
G1 X132.954 Y167.568 E5.68294
G1 X132.841 Y168.497 E5.71407
G1 X132.509 Y170.309 E5.77534
G1 X132.284 Y171.224 E5.80668
G1 X131.737 Y172.979 E5.86782
G1 X131.402 Y173.861 E5.8992
G1 X130.653 Y175.524 E5.95986
G1 X130.217 Y176.354 E5.99105
G1 X129.257 Y177.943 E6.05279
G1 X128.719 Y178.723 E6.08431
G1 X127.586 Y180.168 E6.14538
G1 X126.959 Y180.875 E6.17681
G1 X125.658 Y182.174 E6.23796
G1 X124.959 Y182.793 E6.26902
G1 X123.511 Y183.928 E6.33021
G1 X122.731 Y184.466 E6.36172
G1 X121.156 Y185.417 E6.42292
G1 X120.326 Y185.853 E6.4541
G1 X118.662 Y186.602 E6.51479
G1 X117.781 Y186.936 E6.54613
G1 X116.013 Y187.487 E6.60772
G1 X115.094 Y187.713 E6.6392
G1 X113.293 Y188.042 E6.70009
G1 X112.359 Y188.155 E6.73138
G1 X110.512 Y188.266 E6.79293
G1 X109.573 Y188.266 E6.82416
G1 X107.738 Y188.155 E6.8853
G1 X106.803 Y188.041 E6.91663
G1 X104.991 Y187.709 E6.9779
G1 X104.075 Y187.483 E7.00928
G1 X102.318 Y186.935 E7.0705
G1 X101.437 Y186.601 E7.10183
G1 X99.776 Y185.853 E7.16242
G1 X98.946 Y185.417 E7.1936
G1 X97.357 Y184.457 E7.25535
G1 X96.576 Y183.918 E7.28691
G1 X95.129 Y182.783 E7.34808
G1 X94.423 Y182.157 E7.37946
G1 X93.126 Y180.858 E7.44052
G1 X92.507 Y180.159 E7.47157
G1 X91.372 Y178.711 E7.53276
G1 X90.833 Y177.93 E7.56432
G1 X89.881 Y176.353 E7.62559
G1 X89.446 Y175.524 E7.65673
G1 X88.697 Y173.86 E7.71742
G1 X88.363 Y172.977 E7.74882
G1 X87.813 Y171.211 E7.81034
G1 X87.586 Y170.29 E7.84189
G1 X87.256 Y168.478 E7.90315
G1 X87.144 Y167.55 E7.93424
G1 X87.033 Y165.711 E7.99552
G1 X87.019 Y165.241 E8.01116
G1 X87.018 Y147.28 E8.60854
G1 X87.021 Y147.076 E8.61533
G1 X89.519 Y51.701 E11.7886
G1 X89.549 Y51.193 E11.80553
G1 X89.698 Y49.567 E11.85983
G1 X89.853 Y48.575 E11.89323
G1 X90.21 Y46.98 E11.94759
G1 X90.49 Y46.024 E11.98072
G1 X91.048 Y44.486 E12.03514
G1 X91.449 Y43.569 E12.06843
G0 F4800 X91.804 Y43.752
G1 F600 X92.559 Y42.289 E12.12319
G1 X93.056 Y41.464 E12.15522
G1 X93.984 Y40.127 E12.20935
G1 X94.568 Y39.39 E12.24063
G1 X95.67 Y38.168 E12.29536
G1 X96.36 Y37.497 E12.32737
G1 X97.606 Y36.433 E12.38186
G1 X98.361 Y35.867 E12.41325
G1 X99.725 Y34.975 E12.46745
G1 X100.556 Y34.505 E12.49921
G1 X102.036 Y33.79 E12.55388
G1 X102.927 Y33.429 E12.58585
G1 X104.484 Y32.913 E12.64041
G1 X105.392 Y32.674 E12.67164
G1 X106.988 Y32.362 E12.72572
G1 X107.936 Y32.24 E12.75751
G1 X109.593 Y32.134 E12.81274
G1 X110.547 Y32.135 E12.84447
G1 X112.185 Y32.242 E12.89907
G1 X113.13 Y32.365 E12.93076
G1 X114.728 Y32.679 E12.98493
G1 X115.633 Y32.917 E13.01605
G1 X117.178 Y33.43 E13.0702
G1 X118.067 Y33.791 E13.10211
G1 X119.544 Y34.505 E13.15667
G1 X120.376 Y34.975 E13.18846
G1 X121.751 Y35.875 E13.24311
G1 X122.508 Y36.444 E13.27461
G1 X123.753 Y37.509 E13.3291
G1 X124.442 Y38.18 E13.36109
G1 X125.545 Y39.405 E13.41592
G1 X126.132 Y40.147 E13.44739
G1 X127.057 Y41.484 E13.50146
G1 X127.55 Y42.306 E13.53334
G1 X128.304 Y43.77 E13.58811
G1 X128.682 Y44.637 E13.61957
G1 X129.239 Y46.174 E13.67394
G1 X129.505 Y47.087 E13.70557
G1 X129.86 Y48.682 E13.75992
G1 X130.007 Y49.622 E13.79157
G1 X130.154 Y51.245 E13.84577
G1 X130.181 Y51.719 E13.86156
G1 X132.679 Y147.081 E17.0344
G1 X132.682 Y147.275 E17.04085
G1 X132.682 Y165.246 E17.63857
G1 X132.668 Y165.698 E17.65361
G1 X132.555 Y167.543 E17.71509
G1 X132.448 Y168.425 E17.74464
G1 X132.116 Y170.237 E17.80591
G1 X131.902 Y171.105 E17.83565
G1 X131.355 Y172.86 E17.89679
G1 X131.037 Y173.697 E17.92657
G1 X130.288 Y175.36 E17.98723
G1 X129.875 Y176.148 E18.01682
G1 X128.915 Y177.737 E18.07857
G1 X128.404 Y178.476 E18.10845
G1 X127.271 Y179.921 E18.16952
G1 X126.677 Y180.592 E18.19933
G1 X125.376 Y181.891 E18.26048
G1 X124.712 Y182.478 E18.28996
G1 X123.264 Y183.613 E18.35115
G1 X122.524 Y184.124 E18.38106
G1 X120.949 Y185.075 E18.44225
G1 X120.161 Y185.488 E18.47184
G1 X118.497 Y186.237 E18.53254
G1 X117.662 Y186.554 E18.56224
G1 X115.894 Y187.105 E18.62384
G1 X115.022 Y187.32 E18.65371
G1 X113.221 Y187.649 E18.7146
G1 X112.335 Y187.756 E18.74428
G1 X110.488 Y187.867 E18.80582
G1 X109.597 Y187.866 E18.83546
G1 X107.762 Y187.755 E18.8966
G1 X106.875 Y187.648 E18.92632
G1 X105.063 Y187.316 E18.98759
G1 X104.194 Y187.101 E19.01736
G1 X102.437 Y186.553 E19.07858
G1 X101.601 Y186.236 E19.10832
G1 X99.94 Y185.488 E19.1689
G1 X99.152 Y185.075 E19.1985
G1 X97.563 Y184.115 E19.26024
G1 X96.823 Y183.604 E19.29015
G1 X95.376 Y182.469 E19.35132
G1 X94.706 Y181.875 E19.3811
G1 X93.409 Y180.576 E19.44215
G1 X92.822 Y179.912 E19.47163
G1 X91.687 Y178.464 E19.53282
G1 X91.176 Y177.723 E19.56276
G1 X90.224 Y176.146 E19.62403
G1 X89.811 Y175.359 E19.65359
G1 X89.062 Y173.695 E19.71428
G1 X88.745 Y172.858 E19.74405
G1 X88.195 Y171.092 E19.80557
G1 X87.98 Y170.218 E19.83551
G1 X87.65 Y168.406 E19.89677
G1 X87.543 Y167.526 E19.92625
G1 X87.432 Y165.687 E19.98753
G1 X87.419 Y165.241 E20.00237
G1 X87.418 Y147.28 E20.59975
G1 X87.421 Y147.086 E20.60621
G1 X89.919 Y51.711 E23.77948
G1 X89.947 Y51.23 E23.7955
G1 X90.096 Y49.604 E23.84981
G1 X90.244 Y48.663 E23.8815
G1 X90.601 Y47.068 E23.93586
G1 X90.866 Y46.16 E23.96732
G1 X91.424 Y44.622 E24.02173
G1 X91.804 Y43.752 E24.05331
G0 F4800 X92.159 Y43.936
G1 F600 X92.914 Y42.473 E24.10807
G1 X93.384 Y41.692 E24.13838
G1 X94.312 Y40.355 E24.19252
G1 X94.865 Y39.658 E24.22211
G1 X95.967 Y38.436 E24.27684
G1 X96.619 Y37.801 E24.30711
G1 X97.865 Y36.737 E24.3616
G1 X98.58 Y36.202 E24.39131
G1 X99.944 Y35.31 E24.44551
G1 X100.73 Y34.865 E24.47555
G1 X102.21 Y34.15 E24.53022
G1 X103.053 Y33.808 E24.56048
G1 X104.61 Y33.292 E24.61504
G1 X105.469 Y33.067 E24.64457
G1 X107.065 Y32.755 E24.69866
G1 X107.961 Y32.639 E24.72871
G1 X109.618 Y32.533 E24.78393
G1 X110.521 Y32.534 E24.81397
G1 X112.159 Y32.641 E24.86856
G1 X113.053 Y32.757 E24.89855
G1 X114.651 Y33.071 E24.95271
G1 X115.507 Y33.297 E24.98216
G1 X117.052 Y33.81 E25.0363
G1 X117.893 Y34.151 E25.06649
G1 X119.37 Y34.865 E25.12105
G1 X120.157 Y35.31 E25.15112
G1 X121.532 Y36.21 E25.20578
G1 X122.248 Y36.748 E25.23557
G1 X123.493 Y37.813 E25.29006
G1 X124.145 Y38.448 E25.32033
G1 X125.248 Y39.673 E25.37516
G1 X125.803 Y40.374 E25.4049
G1 X126.728 Y41.711 E25.45897
G1 X127.194 Y42.489 E25.48913
G1 X127.948 Y43.953 E25.5439
G1 X128.306 Y44.773 E25.57366
G1 X128.863 Y46.31 E25.62804
G1 X129.115 Y47.174 E25.65797
G1 X129.47 Y48.769 E25.71232
G1 X129.608 Y49.659 E25.74228
G1 X129.755 Y51.282 E25.79648
G1 X129.782 Y51.73 E25.81141
G1 X132.28 Y147.092 E28.98425
G1 X132.282 Y147.275 E28.99033
G1 X132.282 Y165.246 E29.58805
G1 X132.269 Y165.674 E29.60229
G1 X132.156 Y167.519 E29.66377
G1 X132.054 Y168.353 E29.69172
G1 X131.722 Y170.165 E29.75299
G1 X131.52 Y170.986 E29.78111
G1 X130.973 Y172.741 E29.84225
G1 X130.673 Y173.533 E29.87042
G1 X129.924 Y175.196 E29.93108
G1 X129.532 Y175.941 E29.95908
G1 X128.572 Y177.53 E30.02083
G1 X128.09 Y178.229 E30.04907
G1 X126.957 Y179.674 E30.11014
G1 X126.394 Y180.309 E30.13837
G1 X125.093 Y181.608 E30.19952
G1 X124.465 Y182.163 E30.22739
G1 X123.017 Y183.298 E30.28858
G1 X122.317 Y183.781 E30.31687
G1 X120.742 Y184.732 E30.37806
G1 X119.997 Y185.123 E30.40605
G1 X118.333 Y185.872 E30.46674
G1 X117.543 Y186.172 E30.49485
G1 X115.775 Y186.723 E30.55644
G1 X114.95 Y186.926 E30.5847
G1 X113.149 Y187.255 E30.64559
G1 X112.311 Y187.356 E30.67367
G1 X110.464 Y187.467 E30.73521
G1 X109.621 Y187.467 E30.76325
G1 X107.786 Y187.356 E30.82439
G1 X106.947 Y187.254 E30.8525
G1 X105.135 Y186.922 E30.91377
G1 X104.313 Y186.72 E30.94192
G1 X102.556 Y186.172 E31.00314
G1 X101.766 Y185.872 E31.03125
G1 X100.105 Y185.124 E31.09183
G1 X99.359 Y184.732 E31.11986
G1 X97.77 Y183.772 E31.18161
G1 X97.07 Y183.289 E31.2099
G1 X95.623 Y182.154 E31.27106
G1 X94.989 Y181.592 E31.29924
G1 X93.692 Y180.293 E31.3603
G1 X93.137 Y179.665 E31.38817
G1 X92.002 Y178.217 E31.44936
G1 X91.518 Y177.517 E31.47767
G1 X90.566 Y175.94 E31.53894
G1 X90.176 Y175.195 E31.56691
G1 X89.427 Y173.531 E31.6276
G1 X89.127 Y172.739 E31.65577
G1 X88.577 Y170.973 E31.71729
G1 X88.373 Y170.146 E31.74562
G1 X88.043 Y168.334 E31.80688
G1 X87.943 Y167.502 E31.83475
G1 X87.832 Y165.663 E31.89602
G1 X87.819 Y165.241 E31.91007
G1 X87.818 Y147.28 E32.50745
G1 X87.82 Y147.097 E32.51354
G1 X90.318 Y51.722 E35.68681
G1 X90.345 Y51.266 E35.70201
G1 X90.494 Y49.64 E35.75631
G1 X90.634 Y48.75 E35.78628
G1 X90.991 Y47.155 E35.84064
G1 X91.242 Y46.297 E35.87037
G1 X91.8 Y44.759 E35.92479
G1 X92.159 Y43.936 E35.95466
G0 F4800 X92.515 Y44.119
G1 F600 X93.27 Y42.656 E36.00941
G1 X93.713 Y41.92 E36.03798
G1 X94.641 Y40.583 E36.09212
G1 X95.162 Y39.926 E36.12
G1 X96.264 Y38.704 E36.17473
G1 X96.879 Y38.105 E36.20329
G1 X98.125 Y37.041 E36.25778
G1 X98.799 Y36.536 E36.2858
G1 X100.163 Y35.644 E36.34
G1 X100.904 Y35.225 E36.36831
G1 X102.384 Y34.51 E36.42298
G1 X103.179 Y34.188 E36.45151
G1 X104.736 Y33.672 E36.50607
G1 X105.546 Y33.46 E36.53392
G1 X107.142 Y33.148 E36.588
G1 X107.987 Y33.038 E36.61635
G1 X109.644 Y32.932 E36.67157
G1 X110.495 Y32.933 E36.69987
G1 X112.133 Y33.04 E36.75447
G1 X112.976 Y33.15 E36.78275
G1 X114.574 Y33.464 E36.83691
G1 X115.381 Y33.676 E36.86466
G1 X116.926 Y34.189 E36.91881
G1 X117.718 Y34.511 E36.94725
G1 X119.195 Y35.225 E37.00181
G1 X119.938 Y35.645 E37.0302
G1 X121.313 Y36.545 E37.08486
G1 X121.988 Y37.052 E37.11293
G1 X123.233 Y38.117 E37.16743
G1 X123.848 Y38.716 E37.19598
G1 X124.951 Y39.941 E37.25081
G1 X125.474 Y40.602 E37.27884
G1 X126.399 Y41.939 E37.33291
G1 X126.839 Y42.672 E37.36135
G1 X127.593 Y44.136 E37.41612
G1 X127.93 Y44.909 E37.44417
G1 X128.487 Y46.446 E37.49854
G1 X128.724 Y47.261 E37.52677
G1 X129.079 Y48.856 E37.58112
G1 X129.21 Y49.695 E37.60936
G1 X129.357 Y51.318 E37.66357
G1 X129.382 Y51.74 E37.67763
G1 X131.88 Y147.102 E40.85047
G1 X131.882 Y147.275 E40.85622
G1 X131.882 Y165.246 E41.45394
G1 X131.87 Y165.649 E41.46735
G1 X131.757 Y167.494 E41.52883
G1 X131.661 Y168.28 E41.55517
G1 X131.329 Y170.092 E41.61644
G1 X131.138 Y170.867 E41.64298
G1 X130.591 Y172.622 E41.70412
G1 X130.308 Y173.368 E41.73066
G1 X129.559 Y175.031 E41.79133
G1 X129.19 Y175.734 E41.81773
G1 X128.23 Y177.323 E41.87948
G1 X127.775 Y177.982 E41.90611
G1 X126.642 Y179.427 E41.96719
G1 X126.111 Y180.025 E41.99379
G1 X124.81 Y181.324 E42.05493
G1 X124.219 Y181.848 E42.0812
G1 X122.771 Y182.983 E42.1424
G1 X122.11 Y183.439 E42.16911
G1 X120.535 Y184.39 E42.2303
G1 X119.833 Y184.758 E42.25666
G1 X118.169 Y185.507 E42.31736
G1 X117.424 Y185.79 E42.34386
G1 X115.656 Y186.341 E42.40546
G1 X114.878 Y186.533 E42.43211
G1 X113.077 Y186.862 E42.493
G1 X112.287 Y186.957 E42.51947
G1 X110.44 Y187.068 E42.58101
G1 X109.645 Y187.068 E42.60745
G1 X107.81 Y186.957 E42.66859
G1 X107.02 Y186.861 E42.69506
G1 X105.208 Y186.529 E42.75633
G1 X104.432 Y186.338 E42.78291
G1 X102.675 Y185.79 E42.84413
G1 X101.93 Y185.507 E42.87063
G1 X100.269 Y184.759 E42.93122
G1 X99.566 Y184.39 E42.95763
G1 X97.977 Y183.43 E43.01938
G1 X97.317 Y182.974 E43.04606
G1 X95.87 Y181.839 E43.10722
G1 X95.273 Y181.309 E43.13378
G1 X93.976 Y180.01 E43.19483
G1 X93.452 Y179.419 E43.2211
G1 X92.317 Y177.971 E43.28229
G1 X91.861 Y177.31 E43.309
G1 X90.909 Y175.733 E43.37027
G1 X90.541 Y175.031 E43.39663
G1 X89.792 Y173.367 E43.45733
G1 X89.509 Y172.621 E43.48386
G1 X88.959 Y170.855 E43.54538
G1 X88.767 Y170.075 E43.5721
G1 X88.437 Y168.263 E43.63336
G1 X88.342 Y167.478 E43.65966
G1 X88.231 Y165.639 E43.72093
G1 X88.219 Y165.241 E43.73418
G1 X88.218 Y147.28 E44.33156
G1 X88.22 Y147.107 E44.33732
G1 X90.718 Y51.732 E47.51059
G1 X90.744 Y51.303 E47.52489
G1 X90.893 Y49.677 E47.57919
G1 X91.024 Y48.837 E47.60747
G1 X91.381 Y47.242 E47.66183
G1 X91.618 Y46.433 E47.68987
G1 X92.176 Y44.895 E47.74429
G1 X92.515 Y44.119 E47.77245
G0 F4800 X92.87 Y44.303
G1 F600 X93.625 Y42.84 E47.82721
G1 X94.042 Y42.148 E47.85408
G1 X94.97 Y40.811 E47.90821
G1 X95.459 Y40.194 E47.9344
G1 X96.561 Y38.972 E47.98913
G1 X97.139 Y38.409 E48.01596
G1 X98.385 Y37.345 E48.07046
G1 X99.018 Y36.871 E48.09676
G1 X100.382 Y35.979 E48.15097
G1 X101.078 Y35.585 E48.17757
G1 X102.558 Y34.87 E48.23224
G1 X103.305 Y34.568 E48.25904
G1 X104.862 Y34.052 E48.31359
G1 X105.622 Y33.852 E48.33973
G1 X107.218 Y33.54 E48.39382
G1 X108.012 Y33.438 E48.42044
G1 X109.669 Y33.332 E48.47567
G1 X110.469 Y33.332 E48.50228
G1 X112.107 Y33.439 E48.55687
G1 X112.898 Y33.542 E48.5834
G1 X114.496 Y33.856 E48.63757
G1 X115.255 Y34.056 E48.66368
G1 X116.8 Y34.569 E48.71782
G1 X117.544 Y34.871 E48.74453
G1 X119.021 Y35.585 E48.79909
G1 X119.718 Y35.979 E48.82572
G1 X121.093 Y36.879 E48.88038
G1 X121.728 Y37.356 E48.9068
G1 X122.973 Y38.421 E48.96129
G1 X123.55 Y38.983 E48.98808
G1 X124.653 Y40.208 E49.0429
G1 X125.145 Y40.829 E49.06926
G1 X126.07 Y42.166 E49.12333
G1 X126.483 Y42.855 E49.15005
G1 X127.237 Y44.319 E49.20482
G1 X127.554 Y45.046 E49.2312
G1 X128.111 Y46.583 E49.28557
G1 X128.334 Y47.348 E49.31208
G1 X128.689 Y48.943 E49.36642
G1 X128.812 Y49.731 E49.39295
G1 X128.959 Y51.354 E49.44715
G1 X128.982 Y51.751 E49.46038
G1 X131.48 Y147.113 E52.63322
G1 X131.482 Y147.275 E52.63861
G1 X131.482 Y165.246 E53.23633
G1 X131.47 Y165.625 E53.24894
G1 X131.357 Y167.47 E53.31042
G1 X131.267 Y168.208 E53.33515
G1 X130.935 Y170.02 E53.39642
G1 X130.756 Y170.748 E53.42135
G1 X130.209 Y172.503 E53.48249
G1 X129.943 Y173.204 E53.50743
G1 X129.194 Y174.867 E53.56809
G1 X128.848 Y175.527 E53.59288
G1 X127.888 Y177.116 E53.65462
G1 X127.46 Y177.736 E53.67968
G1 X126.327 Y179.181 E53.74075
G1 X125.829 Y179.742 E53.7657
G1 X124.528 Y181.041 E53.82685
G1 X123.972 Y181.534 E53.85157
G1 X122.524 Y182.669 E53.91276
G1 X121.904 Y183.097 E53.93782
G1 X120.329 Y184.048 E53.99901
